examples/graphics/InstagramLikeImageFilters/bin/data/LUTs/Nashville.cube
TITLE "Nashville"
LUT_3D_SIZE 8
DOMAIN_MIN 0.000000 0.000000 0.000000
DOMAIN_MAX 0.903226 0.903226 0.903226
0.0157 0.1059 0.3922
0.1569 0.1098 0.3961
0.3137 0.1020 0.3961
0.5294 0.1059 0.3961
0.6941 0.1059 0.3922
0.8157 0.1098 0.3961
0.8980 0.1098 0.3961
0.9608 0.1020 0.3922
0.0157 0.2353 0.3882
0.1569 0.2314 0.3882
0.3137 0.2314 0.3961
0.5255 0.2275 0.3882
0.6902 0.2314 0.3882
0.8157 0.2353 0.3882
0.8980 0.2353 0.3882
0.9608 0.2353 0.3922
0.0196 0.3882 0.3922
0.1608 0.3804 0.3922
0.3137 0.3843 0.3922
0.5255 0.3843 0.3882
0.6941 0.3843 0.3922
0.8157 0.3804 0.3922
0.9020 0.3804 0.3922
0.9608 0.3843 0.3922
0.0157 0.5490 0.3882
0.1608 0.5490 0.3961
0.3098 0.5490 0.3922
0.5294 0.5451 0.3922
0.6941 0.5490 0.3922
0.8157 0.5451 0.3922
0.8980 0.5490 0.3882
0.9608 0.5490 0.3882
0.0157 0.6588 0.3922
0.1608 0.6588 0.3922
0.3137 0.6588 0.3922
0.5333 0.6588 0.3961
0.6902 0.6588 0.3922
0.8196 0.6549 0.3922
0.9020 0.6588 0.3922
0.9608 0.6588 0.3961
0.0157 0.7412 0.3922
0.1608 0.7412 0.3882
0.3216 0.7412 0.3922
0.5216 0.7451 0.3922
0.6902 0.7412 0.3882
0.8118 0.7451 0.3922
0.8980 0.7451 0.3882
0.9569 0.7412 0.3882
0.0157 0.8039 0.3922
0.1569 0.8000 0.3961
0.3137 0.8039 0.3961
0.5255 0.8039 0.3961
0.6902 0.8000 0.3922
0.8157 0.8000 0.3961
0.8980 0.8000 0.3922
0.9608 0.8000 0.3922
0.0157 0.8510 0.3922
0.1569 0.8510 0.3961
0.3137 0.8510 0.3922
0.5216 0.8510 0.3922
0.6941 0.8510 0.3922
0.8157 0.8510 0.3922
0.9020 0.8510 0.3961
0.9608 0.8510 0.3922
0.0157 0.1098 0.4627
0.1608 0.1020 0.4667
0.3176 0.1098 0.4667
0.5294 0.1059 0.4667
0.6902 0.1059 0.4588
0.8118 0.1059 0.4627
0.9020 0.1059 0.4627
0.9608 0.1059 0.4627
0.0157 0.2314 0.4549
0.1569 0.2314 0.4627
0.3098 0.2353 0.4627
0.5255 0.2353 0.4588
0.6902 0.2353 0.4627
0.8157 0.2353 0.4627
0.9020 0.2353 0.4627
0.9608 0.2353 0.4627
0.0157 0.3843 0.4588
0.1608 0.3843 0.4627
0.3098 0.3804 0.4549
0.5333 0.3804 0.4627
0.6902 0.3843 0.4588
0.8157 0.3843 0.4588
0.9020 0.3843 0.4588
0.9608 0.3804 0.4588
0.0157 0.5490 0.4588
0.1569 0.5490 0.4627
0.3137 0.5451 0.4627
0.5176 0.5490 0.4588
0.6941 0.5490 0.4588
0.8157 0.5490 0.4588
0.8980 0.5490 0.4549
0.9608 0.5451 0.4549
0.0157 0.6588 0.4667
0.1608 0.6588 0.4667
0.3137 0.6588 0.4627
0.5294 0.6627 0.4667
0.6902 0.6627 0.4627
0.8157 0.6627 0.4667
0.9020 0.6588 0.4627
0.9608 0.6588 0.4627
0.0118 0.7451 0.4549
0.1569 0.7412 0.4627
0.3137 0.7412 0.4588
0.5216 0.7412 0.4588
0.6863 0.7451 0.4588
0.8118 0.7412 0.4588
0.8980 0.7412 0.4588
0.9569 0.7412 0.4588
0.0196 0.8000 0.4627
0.1608 0.8000 0.4667
0.3137 0.8000 0.4627
0.5216 0.8000 0.4627
0.6902 0.8000 0.4627
0.8157 0.7961 0.4627
0.8980 0.8000 0.4627
0.9608 0.8000 0.4627
0.0118 0.8510 0.4627
0.1608 0.8471 0.4667
0.3137 0.8510 0.4627
0.5176 0.8549 0.4627
0.6902 0.8510 0.4627
0.8118 0.8510 0.4627
0.9020 0.8510 0.4627
0.9608 0.8471 0.4627
0.0196 0.1059 0.5216
0.1608 0.1059 0.5216
0.3098 0.1059 0.5216
0.5216 0.1059 0.5216
0.6902 0.1059 0.5216
0.8157 0.1020 0.5216
0.8941 0.1098 0.5216
0.9608 0.1059 0.5216
0.0196 0.2314 0.5216
0.1608 0.2314 0.5176
0.3176 0.2275 0.5176
0.5216 0.2353 0.5176
0.6902 0.2353 0.5176
0.8118 0.2314 0.5176
0.8941 0.2353 0.5216
0.9608 0.2314 0.5176
0.0157 0.3843 0.5216
0.1608 0.3843 0.5216
0.3137 0.3843 0.5216
0.5255 0.3843 0.5216
0.6941 0.3804 0.5255
0.8157 0.3843 0.5255
0.9020 0.3843 0.5216
0.9608 0.3882 0.5216
0.0157 0.5490 0.5216
0.1569 0.5451 0.5216
0.3098 0.5490 0.5216
0.5255 0.5451 0.5216
0.6941 0.5529 0.5216
0.8118 0.5451 0.5176
0.9020 0.5490 0.5216
0.9608 0.5490 0.5216
0.0157 0.6588 0.5216
0.1608 0.6588 0.5255
0.3137 0.6588 0.5255
0.5294 0.6627 0.5255
0.6902 0.6588 0.5255
0.8196 0.6588 0.5255
0.9020 0.6549 0.5216
0.9647 0.6588 0.5216
0.0157 0.7451 0.5216
0.1529 0.7412 0.5216
0.3098 0.7412 0.5176
0.5216 0.7412 0.5176
0.6902 0.7451 0.5176
0.8157 0.7412 0.5216
0.8980 0.7451 0.5216
0.9569 0.7451 0.5176
0.0157 0.8000 0.5255
0.1569 0.8039 0.5216
0.3137 0.8000 0.5216
0.5255 0.8000 0.5216
0.6902 0.8039 0.5216
0.8157 0.8000 0.5216
0.8980 0.8000 0.5216
0.9608 0.8000 0.5216
0.0157 0.8510 0.5255
0.1569 0.8510 0.5216
0.3137 0.8510 0.5255
0.5216 0.8510 0.5216
0.6941 0.8510 0.5216
0.8157 0.8510 0.5255
0.9020 0.8510 0.5216
0.9608 0.8510 0.5216
0.0157 0.1098 0.5686
0.1569 0.1059 0.5725
0.3098 0.1059 0.5686
0.5333 0.1098 0.5725
0.6902 0.1059 0.5686
0.8196 0.1059 0.5725
0.9020 0.1059 0.5686
0.9569 0.1059 0.5686
0.0157 0.2353 0.5686
0.1529 0.2314 0.5647
0.3059 0.2314 0.5686
0.5255 0.2314 0.5686
0.6902 0.2314 0.5686
0.8157 0.2275 0.5686
0.8980 0.2353 0.5647
0.9608 0.2353 0.5647
0.0157 0.3882 0.5686
0.1608 0.3843 0.5686
0.3176 0.3843 0.5725
0.5294 0.3843 0.5725
0.6902 0.3843 0.5686
0.8118 0.3843 0.5686
0.8980 0.3843 0.5647
0.9608 0.3843 0.5686
0.0196 0.5490 0.5647
0.1608 0.5490 0.5686
0.3137 0.5490 0.5686
0.5216 0.5490 0.5647
0.6902 0.5490 0.5647
0.8157 0.5490 0.5686
0.8941 0.5451 0.5647
0.9569 0.5490 0.5647
0.0157 0.6588 0.5725
0.1608 0.6588 0.5686
0.3137 0.6588 0.5686
0.5294 0.6588 0.5686
0.6902 0.6588 0.5725
0.8196 0.6588 0.5725
0.9020 0.6588 0.5725
0.9608 0.6588 0.5686
0.0196 0.7451 0.5725
0.1608 0.7451 0.5686
0.3137 0.7412 0.5686
0.5216 0.7451 0.5647
0.6902 0.7412 0.5647
0.8157 0.7412 0.5686
0.8980 0.7412 0.5647
0.9608 0.7412 0.5647
0.0196 0.8039 0.5686
0.1608 0.8000 0.5686
0.3137 0.8039 0.5686
0.5255 0.8039 0.5686
0.6941 0.8039 0.5686
0.8157 0.8000 0.5725
0.8980 0.8000 0.5686
0.9608 0.8000 0.5686
0.0157 0.8510 0.5686
0.1608 0.8510 0.5725
0.3137 0.8510 0.5686
0.5216 0.8510 0.5686
0.6902 0.8510 0.5686
0.8157 0.8471 0.5686
0.9020 0.8471 0.5686
0.9608 0.8471 0.5686
0.0157 0.1059 0.6078
0.1608 0.1020 0.6118
0.3137 0.1059 0.6078
0.5255 0.1098 0.6118
0.6902 0.1137 0.6157
0.8157 0.1059 0.6118
0.8980 0.1059 0.6078
0.9647 0.1059 0.6078
0.0157 0.2314 0.6078
0.1608 0.2314 0.6078
0.3098 0.2314 0.6078
0.5216 0.2314 0.6078
0.6863 0.2353 0.6078
0.8157 0.2314 0.6078
0.8941 0.2353 0.6078
0.9608 0.2314 0.6039
0.0157 0.3843 0.6078
0.1608 0.3843 0.6118
0.3216 0.3843 0.6039
0.5294 0.3882 0.6118
0.6902 0.3843 0.6078
0.8196 0.3843 0.6118
0.8980 0.3843 0.6078
0.9608 0.3804 0.6039
0.0196 0.5490 0.6118
0.1608 0.5451 0.6118
0.3176 0.5451 0.6039
0.5216 0.5490 0.6118
0.6902 0.5490 0.6078
0.8157 0.5451 0.6078
0.8980 0.5490 0.6039
0.9608 0.5451 0.6078
0.0196 0.6627 0.6078
0.1608 0.6588 0.6118
0.3137 0.6588 0.6157
0.5333 0.6588 0.6118
0.6902 0.6588 0.6078
0.8157 0.6588 0.6118
0.9020 0.6588 0.6078
0.9608 0.6588 0.6078
0.0157 0.7451 0.6039
0.1608 0.7412 0.6078
0.3137 0.7451 0.6078
0.5294 0.7412 0.6078
0.6902 0.7451 0.6039
0.8157 0.7412 0.6078
0.9020 0.7412 0.6078
0.9608 0.7412 0.6078
0.0196 0.8000 0.6039
0.1569 0.8039 0.6118
0.3176 0.8000 0.6118
0.5216 0.8039 0.6118
0.6902 0.8000 0.6039
0.8118 0.8000 0.6078
0.8980 0.8000 0.6078
0.9608 0.8000 0.6078
0.0157 0.8510 0.6078
0.1529 0.8510 0.6118
0.3098 0.8510 0.6078
0.5176 0.8510 0.6078
0.6941 0.8510 0.6118
0.8157 0.8471 0.6078
0.8980 0.8510 0.6118
0.9608 0.8510 0.6118
0.0157 0.1059 0.6431
0.1608 0.1059 0.6471
0.3176 0.1059 0.6431
0.5255 0.1137 0.6471
0.6902 0.1059 0.6431
0.8118 0.1059 0.6431
0.8980 0.1059 0.6431
0.9608 0.1059 0.6431
0.0118 0.2314 0.6392
0.1569 0.2275 0.6431
0.3137 0.2353 0.6471
0.5216 0.2314 0.6431
0.6902 0.2353 0.6392
0.8118 0.2353 0.6431
0.8941 0.2314 0.6392
0.9569 0.2314 0.6392
0.0235 0.3961 0.6510
0.1569 0.3843 0.6392
0.3137 0.3843 0.6431
0.5333 0.3843 0.6431
0.6941 0.3843 0.6471
0.8157 0.3804 0.6471
0.8980 0.3843 0.6431
0.9569 0.3843 0.6392
0.0157 0.5529 0.6431
0.1608 0.5529 0.6431
0.3059 0.5490 0.6392
0.5294 0.5490 0.6392
0.6902 0.5490 0.6431
0.8157 0.5451 0.6431
0.9020 0.5490 0.6431
0.9569 0.5451 0.6392
0.0196 0.6627 0.6431
0.1608 0.6588 0.6471
0.3137 0.6588 0.6471
0.5216 0.6627 0.6431
0.6941 0.6588 0.6471
0.8157 0.6588 0.6471
0.8980 0.6588 0.6471
0.9608 0.6588 0.6431
0.0157 0.7412 0.6392
0.1569 0.7412 0.6431
0.3098 0.7412 0.6392
0.5216 0.7451 0.6392
0.6941 0.7412 0.6431
0.8157 0.7412 0.6392
0.8980 0.7412 0.6431
0.9608 0.7412 0.6392
0.0118 0.8039 0.6431
0.1569 0.8039 0.6431
0.3137 0.8000 0.6431
0.5294 0.8000 0.6431
0.6941 0.8000 0.6431
0.8196 0.8000 0.6431
0.9020 0.8000 0.6431
0.9608 0.8000 0.6431
0.0157 0.8510 0.6471
0.1608 0.8510 0.6431
0.3137 0.8510 0.6471
0.5255 0.8549 0.6471
0.6902 0.8510 0.6431
0.8157 0.8510 0.6471
0.9020 0.8510 0.6431
0.9608 0.8510 0.6431
0.0196 0.1059 0.6745
0.1569 0.1059 0.6667
0.3098 0.1059 0.6667
0.5294 0.1059 0.6667
0.6902 0.1059 0.6667
0.8157 0.1059 0.6667
0.8980 0.1059 0.6667
0.9608 0.1059 0.6667
0.0157 0.2314 0.6667
0.1569 0.2314 0.6627
0.3137 0.2353 0.6667
0.5294 0.2314 0.6667
0.6902 0.2314 0.6627
0.8118 0.2314 0.6627
0.9020 0.2314 0.6627
0.9569 0.2275 0.6627
0.0196 0.3804 0.6667
0.1569 0.3843 0.6667
0.3137 0.3843 0.6706
0.5216 0.3843 0.6667
0.6941 0.3843 0.6627
0.8157 0.3843 0.6667
0.8941 0.3843 0.6627
0.9608 0.3843 0.6627
0.0157 0.5490 0.6667
0.1569 0.5529 0.6706
0.3137 0.5490 0.6667
0.5255 0.5490 0.6667
0.6902 0.5451 0.6667
0.8157 0.5451 0.6667
0.8941 0.5490 0.6667
0.9608 0.5451 0.6667
0.0157 0.6588 0.6706
0.1569 0.6588 0.6667
0.3137 0.6588 0.6667
0.5333 0.6627 0.6706
0.6902 0.6588 0.6627
0.8157 0.6588 0.6706
0.9020 0.6588 0.6667
0.9608 0.6588 0.6667
0.0157 0.7451 0.6706
0.1569 0.7412 0.6667
0.3176 0.7412 0.6667
0.5255 0.7412 0.6627
0.6902 0.7412 0.6667
0.8118 0.7412 0.6667
0.8980 0.7412 0.6627
0.9608 0.7412 0.6627
0.0157 0.8039 0.6667
0.1569 0.8000 0.6706
0.3137 0.8000 0.6667
0.5216 0.8039 0.6667
0.6902 0.8039 0.6667
0.8118 0.8000 0.6667
0.8980 0.8000 0.6706
0.9608 0.8000 0.6706
0.0118 0.8510 0.6667
0.1569 0.8510 0.6706
0.3098 0.8510 0.6667
0.5216 0.8510 0.6667
0.6902 0.8510 0.6667
0.8157 0.8471 0.6667
0.9020 0.8510 0.6706
0.9647 0.8510 0.6706
0.0157 0.1098 0.6824
0.1608 0.1059 0.6824
0.3137 0.1059 0.6824
0.5176 0.1059 0.6784
0.6902 0.1059 0.6824
0.8157 0.1059 0.6824
0.8980 0.1059 0.6784
0.9608 0.1020 0.6784
0.0157 0.2353 0.6863
0.1569 0.2275 0.6824
0.3098 0.2314 0.6824
0.5176 0.2314 0.6784
0.6863 0.2353 0.6784
0.8118 0.2314 0.6784
0.8941 0.2353 0.6745
0.9608 0.2314 0.6784
0.0157 0.3843 0.6824
0.1608 0.3804 0.6824
0.3137 0.3843 0.6784
0.5373 0.3843 0.6824
0.6902 0.3843 0.6824
0.8157 0.3843 0.6863
0.9059 0.3843 0.6863
0.9608 0.3843 0.6784
0.0157 0.5490 0.6863
0.1647 0.5451 0.6863
0.3176 0.5490 0.6824
0.5176 0.5490 0.6784
0.6902 0.5490 0.6824
0.8157 0.5451 0.6824
0.8980 0.5490 0.6784
0.9608 0.5490 0.6824
0.0157 0.6588 0.6863
0.1608 0.6588 0.6824
0.3176 0.6549 0.6824
0.5255 0.6588 0.6863
0.6902 0.6588 0.6824
0.8157 0.6588 0.6863
0.8980 0.6588 0.6824
0.9608 0.6588 0.6863
0.0157 0.7451 0.6824
0.1569 0.7451 0.6824
0.3098 0.7412 0.6784
0.5294 0.7451 0.6824
0.6902 0.7412 0.6784
0.8157 0.7451 0.6824
0.9020 0.7451 0.6824
0.9608 0.7451 0.6824
0.0157 0.8000 0.6824
0.1569 0.8000 0.6863
0.3216 0.8000 0.6863
0.5216 0.8039 0.6824
0.6941 0.8000 0.6824
0.8196 0.8000 0.6824
0.9020 0.8000 0.6824
0.9608 0.8000 0.6824
0.0196 0.8471 0.6824
0.1569 0.8510 0.6863
0.3137 0.8471 0.6824
0.5098 0.8510 0.6784
0.6863 0.8549 0.6824
0.8118 0.8510 0.6824
0.9020 0.8510 0.6824
0.9608 0.8471 0.6824
