examples/graphics/InstagramLikeImageFilters/bin/data/LUTs/Nashville.cube
TITLE "Nashville"
LUT_3D_SIZE 5
DOMAIN_MIN 0.000000 0.000000 0.000000
DOMAIN_MAX 0.903226 0.903226 0.903226
0.0157 0.1059 0.3922
0.2784 0.1098 0.3961
0.6118 0.1059 0.3922
0.8392 0.1059 0.3961
0.9608 0.1020 0.3922
0.0157 0.3529 0.3882
0.2745 0.3490 0.3922
0.6118 0.3569 0.3922
0.8392 0.3569 0.3961
0.9569 0.3451 0.3843
0.0157 0.6118 0.3961
0.2745 0.6078 0.4000
0.6157 0.6039 0.3961
0.8353 0.6078 0.3922
0.9569 0.6078 0.3882
0.0157 0.7608 0.3961
0.2784 0.7608 0.3961
0.6078 0.7647 0.3961
0.8392 0.7647 0.3961
0.9608 0.7608 0.3922
0.0157 0.8510 0.3922
0.2745 0.8510 0.3961
0.6118 0.8510 0.3961
0.8392 0.8510 0.3961
0.9608 0.8510 0.3922
0.0196 0.1098 0.5137
0.2784 0.1059 0.5137
0.6157 0.1059 0.5098
0.8353 0.1059 0.5098
0.9569 0.1059 0.5059
0.0157 0.3608 0.5098
0.2745 0.3569 0.5059
0.6157 0.3569 0.5059
0.8392 0.3569 0.5098
0.9569 0.3529 0.5059
0.0157 0.6078 0.5059
0.2745 0.6078 0.5098
0.6078 0.6078 0.5098
0.8353 0.6118 0.5098
0.9569 0.6078 0.5059
0.0196 0.7647 0.5059
0.2784 0.7647 0.5137
0.6118 0.7647 0.5137
0.8392 0.7647 0.5098
0.9608 0.7647 0.5137
0.0118 0.8510 0.5059
0.2745 0.8510 0.5098
0.6118 0.8510 0.5137
0.8353 0.8510 0.5098
0.9647 0.8510 0.5098
0.0157 0.1059 0.5843
0.2745 0.1059 0.5882
0.6196 0.1098 0.5882
0.8353 0.1059 0.5843
0.9608 0.1059 0.5843
0.0196 0.3529 0.5843
0.2784 0.3529 0.5882
0.6118 0.3490 0.5804
0.8392 0.3569 0.5882
0.9608 0.3569 0.5843
0.0196 0.6078 0.5882
0.2745 0.6078 0.5882
0.6118 0.6078 0.5922
0.8392 0.6118 0.5843
0.9608 0.6039 0.5843
0.0157 0.7647 0.5843
0.2745 0.7608 0.5882
0.6118 0.7647 0.5882
0.8392 0.7647 0.5843
0.9608 0.7647 0.5843
0.0157 0.8510 0.5843
0.2784 0.8510 0.5882
0.6118 0.8510 0.5843
0.8353 0.8510 0.5843
0.9608 0.8510 0.5843
0.0157 0.1098 0.6510
0.2745 0.1059 0.6510
0.6157 0.1059 0.6510
0.8392 0.1059 0.6510
0.9608 0.1059 0.6510
0.0196 0.3569 0.6510
0.2745 0.3490 0.6471
0.6118 0.3569 0.6510
0.8353 0.3569 0.6431
0.9608 0.3490 0.6471
0.0118 0.6118 0.6431
0.2745 0.6118 0.6510
0.6157 0.6078 0.6471
0.8392 0.6078 0.6510
0.9608 0.6078 0.6471
0.0157 0.7647 0.6471
0.2745 0.7647 0.6510
0.6078 0.7647 0.6471
0.8353 0.7647 0.6471
0.9608 0.7608 0.6471
0.0157 0.8510 0.6510
0.2745 0.8510 0.6510
0.6078 0.8510 0.6471
0.8392 0.8510 0.6471
0.9608 0.8510 0.6431
0.0157 0.1098 0.6824
0.2745 0.1059 0.6824
0.6078 0.1059 0.6824
0.8353 0.1059 0.6824
0.9608 0.1020 0.6784
0.0157 0.3608 0.6824
0.2745 0.3569 0.6824
0.6118 0.3569 0.6824
0.8392 0.3569 0.6824
0.9608 0.3529 0.6784
0.0157 0.6078 0.6824
0.2745 0.6078 0.6863
0.6118 0.6039 0.6824
0.8353 0.6118 0.6824
0.9608 0.6078 0.6863
0.0196 0.7608 0.6863
0.2745 0.7608 0.6824
0.6157 0.7647 0.6863
0.8392 0.7608 0.6824
0.9608 0.7647 0.6824
0.0196 0.8471 0.6824
0.2784 0.8471 0.6863
0.6078 0.8510 0.6863
0.8353 0.8510 0.6824
0.9608 0.8471 0.6824
