examples/graphics/InstagramLikeImageFilters/bin/data/LUTs/X Pro II.cube
TITLE "X Pro II"
LUT_3D_SIZE 5
DOMAIN_MIN 0.000000 0.000000 0.000000
DOMAIN_MAX 0.903226 0.903226 0.903226
0.0000 0.0000 0.1882
0.0000 0.0000 0.1843
0.3725 0.0000 0.1843
0.7333 0.0000 0.1843
0.8706 0.0000 0.1843
0.0000 0.1020 0.1843
0.0000 0.0980 0.1843
0.3725 0.0941 0.1843
0.7333 0.0980 0.1843
0.8706 0.0980 0.1843
0.0000 0.3725 0.1843
0.0000 0.3686 0.1843
0.3608 0.3725 0.1804
0.7333 0.3647 0.1804
0.8706 0.3647 0.1804
0.0000 0.7333 0.1843
0.0000 0.7333 0.1843
0.3686 0.7333 0.1804
0.7294 0.7333 0.1843
0.8706 0.7373 0.1843
0.0000 0.9294 0.1804
0.0000 0.9294 0.1804
0.3686 0.9255 0.1882
0.7333 0.9255 0.1843
0.8706 0.9294 0.1843
0.0000 0.0000 0.2510
0.0000 0.0000 0.2549
0.3765 0.0000 0.2549
0.7373 0.0000 0.2549
0.8745 0.0000 0.2510
0.0000 0.0980 0.2471
0.0000 0.0980 0.2510
0.3765 0.0980 0.2510
0.7333 0.0941 0.2471
0.8745 0.0980 0.2510
0.0000 0.3647 0.2510
0.0000 0.3686 0.2510
0.3686 0.3647 0.2471
0.7294 0.3725 0.2471
0.8706 0.3686 0.2510
0.0000 0.7333 0.2471
0.0000 0.7333 0.2510
0.3765 0.7333 0.2510
0.7333 0.7333 0.2471
0.8706 0.7333 0.2510
0.0000 0.9294 0.2471
0.0000 0.9294 0.2510
0.3647 0.9294 0.2510
0.7294 0.9294 0.2471
0.8667 0.9294 0.2471
0.0000 0.0000 0.4118
0.0000 0.0000 0.4118
0.3686 0.0000 0.4118
0.7333 0.0000 0.4078
0.8706 0.0000 0.4078
0.0000 0.0980 0.4039
0.0000 0.0980 0.4118
0.3725 0.0980 0.4078
0.7294 0.0980 0.4078
0.8706 0.0980 0.4078
0.0000 0.3686 0.4157
0.0000 0.3647 0.4078
0.3647 0.3725 0.4078
0.7333 0.3725 0.4118
0.8706 0.3647 0.4078
0.0000 0.7373 0.4078
0.0000 0.7333 0.4078
0.3725 0.7333 0.4078
0.7412 0.7333 0.4118
0.8745 0.7294 0.4078
0.0000 0.9294 0.4000
0.0000 0.9294 0.4078
0.3608 0.9294 0.4000
0.7294 0.9294 0.4078
0.8706 0.9294 0.4078
0.0000 0.0000 0.6353
0.0000 0.0000 0.6353
0.3765 0.0000 0.6392
0.7333 0.0000 0.6353
0.8745 0.0000 0.6353
0.0000 0.0980 0.6314
0.0000 0.0980 0.6314
0.3608 0.0980 0.6353
0.7294 0.0980 0.6314
0.8745 0.0980 0.6353
0.0000 0.3686 0.6353
0.0000 0.3686 0.6353
0.3686 0.3725 0.6353
0.7333 0.3686 0.6353
0.8706 0.3686 0.6353
0.0000 0.7333 0.6353
0.0000 0.7373 0.6353
0.3686 0.7333 0.6353
0.7255 0.7294 0.6275
0.8745 0.7333 0.6353
0.0000 0.9294 0.6314
0.0000 0.9294 0.6314
0.3647 0.9255 0.6314
0.7294 0.9294 0.6353
0.8706 0.9255 0.6314
0.0039 0.0000 0.7882
0.0039 0.0000 0.7882
0.3725 0.0000 0.7843
0.7333 0.0000 0.7843
0.8745 0.0000 0.7843
0.0000 0.0980 0.7765
0.0000 0.0980 0.7804
0.3725 0.0980 0.7843
0.7333 0.0980 0.7843
0.8745 0.0980 0.7843
0.0000 0.3686 0.7804
0.0000 0.3686 0.7882
0.3765 0.3608 0.7804
0.7294 0.3725 0.7843
0.8706 0.3686 0.7804
0.0000 0.7333 0.7843
0.0000 0.7333 0.7843
0.3686 0.7294 0.7843
0.7333 0.7333 0.7843
0.8706 0.7294 0.7804
0.0000 0.9294 0.7804
0.0000 0.9294 0.7804
0.3647 0.9294 0.7804
0.7294 0.9294 0.7765
0.8706 0.9294 0.7843
