examples/graphics/InstagramLikeImageFilters/bin/data/LUTs/X Pro II.cube
TITLE "X Pro II"
LUT_3D_SIZE 8
DOMAIN_MIN 0.000000 0.000000 0.000000
DOMAIN_MAX 0.903226 0.903226 0.903226
0.0000 0.0000 0.1882
0.0000 0.0000 0.1843
0.0000 0.0000 0.1843
0.1451 0.0000 0.1882
0.5020 0.0000 0.1843
0.7059 0.0000 0.1843
0.8118 0.0000 0.1843
0.8706 0.0000 0.1843
0.0000 0.0275 0.1843
0.0000 0.0275 0.1843
0.0000 0.0275 0.1882
0.1373 0.0275 0.1882
0.5020 0.0275 0.1843
0.7020 0.0275 0.1804
0.8118 0.0275 0.1843
0.8706 0.0275 0.1843
0.0000 0.1255 0.1843
0.0000 0.1255 0.1843
0.0039 0.1216 0.1843
0.1294 0.1294 0.1804
0.5020 0.1216 0.1843
0.7020 0.1255 0.1804
0.8118 0.1255 0.1843
0.8745 0.1255 0.1843
0.0000 0.2784 0.1843
0.0000 0.2784 0.1843
0.0039 0.2824 0.1843
0.1333 0.2784 0.1804
0.5020 0.2824 0.1843
0.7020 0.2824 0.1843
0.8118 0.2784 0.1843
0.8745 0.2784 0.1843
0.0000 0.4745 0.1804
0.0000 0.4784 0.1804
0.0000 0.4784 0.1843
0.1451 0.4745 0.1843
0.4980 0.4784 0.1843
0.7020 0.4745 0.1882
0.8118 0.4745 0.1843
0.8706 0.4784 0.1843
0.0000 0.6902 0.1843
0.0000 0.6902 0.1882
0.0039 0.6902 0.1843
0.1294 0.6980 0.1882
0.5020 0.6863 0.1765
0.6941 0.6863 0.1804
0.8118 0.6941 0.1843
0.8667 0.6863 0.1804
0.0000 0.8353 0.1843
0.0000 0.8353 0.1843
0.0039 0.8431 0.1843
0.1373 0.8471 0.1882
0.4980 0.8353 0.1804
0.7020 0.8353 0.1804
0.8157 0.8392 0.1843
0.8667 0.8314 0.1765
0.0000 0.9294 0.1804
0.0000 0.9294 0.1804
0.0000 0.9294 0.1843
0.1333 0.9294 0.1843
0.4980 0.9255 0.1804
0.6980 0.9294 0.1804
0.8078 0.9255 0.1804
0.8706 0.9294 0.1843
0.0000 0.0000 0.2118
0.0000 0.0000 0.2118
0.0000 0.0000 0.2078
0.1490 0.0000 0.2118
0.4980 0.0000 0.2078
0.7059 0.0000 0.2078
0.8157 0.0000 0.2118
0.8745 0.0000 0.2118
0.0000 0.0275 0.2078
0.0000 0.0275 0.2078
0.0000 0.0314 0.2078
0.1373 0.0275 0.2118
0.4941 0.0275 0.2078
0.7020 0.0275 0.2078
0.8118 0.0275 0.2078
0.8745 0.0275 0.2078
0.0000 0.1255 0.2078
0.0000 0.1255 0.2078
0.0000 0.1255 0.2078
0.1451 0.1255 0.2157
0.5020 0.1294 0.2078
0.7059 0.1255 0.2118
0.8078 0.1255 0.2078
0.8706 0.1255 0.2078
0.0000 0.2784 0.2078
0.0000 0.2784 0.2078
0.0000 0.2745 0.2078
0.1333 0.2824 0.2118
0.4941 0.2824 0.2039
0.6980 0.2784 0.2078
0.8118 0.2824 0.2078
0.8706 0.2745 0.2039
0.0000 0.4784 0.2039
0.0000 0.4784 0.2078
0.0039 0.4745 0.2078
0.1412 0.4824 0.2078
0.5020 0.4784 0.2118
0.7059 0.4784 0.2118
0.8078 0.4784 0.2039
0.8706 0.4745 0.2078
0.0000 0.6980 0.2078
0.0000 0.6902 0.2039
0.0000 0.6902 0.2039
0.1294 0.6902 0.2000
0.4980 0.6902 0.2039
0.7020 0.6902 0.2078
0.8078 0.6941 0.2078
0.8667 0.6902 0.2039
0.0039 0.8392 0.2078
0.0000 0.8353 0.2039
0.0039 0.8314 0.2118
0.1373 0.8353 0.2157
0.5020 0.8392 0.2078
0.7020 0.8353 0.2078
0.8078 0.8353 0.2078
0.8706 0.8353 0.2078
0.0000 0.9255 0.2039
0.0000 0.9294 0.2078
0.0000 0.9255 0.2078
0.1333 0.9294 0.2078
0.4941 0.9255 0.2039
0.6941 0.9294 0.2039
0.8078 0.9294 0.2078
0.8706 0.9294 0.2039
0.0039 0.0000 0.2667
0.0039 0.0000 0.2667
0.0000 0.0000 0.2627
0.1333 0.0000 0.2627
0.5020 0.0000 0.2627
0.7059 0.0000 0.2667
0.8118 0.0000 0.2667
0.8706 0.0000 0.2667
0.0000 0.0275 0.2588
0.0000 0.0275 0.2588
0.0000 0.0275 0.2627
0.1373 0.0275 0.2627
0.4980 0.0275 0.2588
0.6980 0.0275 0.2627
0.8118 0.0275 0.2588
0.8706 0.0275 0.2627
0.0000 0.1255 0.2627
0.0000 0.1255 0.2627
0.0000 0.1294 0.2627
0.1451 0.1294 0.2667
0.5020 0.1255 0.2667
0.7059 0.1255 0.2667
0.8118 0.1216 0.2588
0.8784 0.1255 0.2627
0.0000 0.2784 0.2588
0.0000 0.2745 0.2588
0.0039 0.2784 0.2627
0.1373 0.2824 0.2627
0.4980 0.2784 0.2588
0.6980 0.2745 0.2588
0.8157 0.2784 0.2627
0.8706 0.2784 0.2588
0.0000 0.4824 0.2627
0.0000 0.4784 0.2588
0.0000 0.4784 0.2627
0.1412 0.4784 0.2667
0.5020 0.4745 0.2627
0.7020 0.4784 0.2627
0.8118 0.4784 0.2627
0.8745 0.4784 0.2667
0.0000 0.6941 0.2588
0.0000 0.6902 0.2588
0.0000 0.6902 0.2627
0.1373 0.6941 0.2627
0.4941 0.6941 0.2588
0.7059 0.6902 0.2667
0.8078 0.6941 0.2588
0.8706 0.6863 0.2588
0.0000 0.8353 0.2627
0.0000 0.8353 0.2588
0.0000 0.8314 0.2627
0.1412 0.8314 0.2667
0.5020 0.8431 0.2627
0.7020 0.8353 0.2667
0.8118 0.8353 0.2627
0.8706 0.8392 0.2627
0.0000 0.9294 0.2588
0.0000 0.9255 0.2588
0.0000 0.9294 0.2588
0.1412 0.9255 0.2627
0.4941 0.9255 0.2588
0.7020 0.9255 0.2588
0.8078 0.9294 0.2588
0.8667 0.9294 0.2588
0.0000 0.0000 0.3529
0.0000 0.0000 0.3490
0.0039 0.0000 0.3412
0.1412 0.0000 0.3490
0.4980 0.0039 0.3451
0.7059 0.0000 0.3451
0.8157 0.0000 0.3451
0.8706 0.0000 0.3490
0.0000 0.0275 0.3451
0.0000 0.0275 0.3451
0.0039 0.0275 0.3490
0.1373 0.0235 0.3451
0.4980 0.0235 0.3412
0.7020 0.0275 0.3412
0.8118 0.0235 0.3412
0.8706 0.0275 0.3451
0.0000 0.1255 0.3451
0.0000 0.1255 0.3451
0.0000 0.1255 0.3412
0.1412 0.1255 0.3490
0.5020 0.1255 0.3451
0.7059 0.1255 0.3451
0.8118 0.1255 0.3451
0.8745 0.1255 0.3451
0.0000 0.2784 0.3451
0.0000 0.2784 0.3451
0.0039 0.2745 0.3412
0.1373 0.2784 0.3451
0.4941 0.2824 0.3451
0.7020 0.2784 0.3451
0.8118 0.2784 0.3451
0.8706 0.2745 0.3412
0.0039 0.4784 0.3490
0.0000 0.4784 0.3451
0.0000 0.4706 0.3373
0.1451 0.4745 0.3451
0.4980 0.4784 0.3412
0.7059 0.4745 0.3412
0.8157 0.4784 0.3490
0.8706 0.4745 0.3412
0.0000 0.6902 0.3451
0.0000 0.6902 0.3451
0.0000 0.6941 0.3490
0.1294 0.6980 0.3451
0.5059 0.6863 0.3451
0.7059 0.6941 0.3490
0.8118 0.6902 0.3451
0.8706 0.6902 0.3451
0.0000 0.8353 0.3451
0.0000 0.8353 0.3451
0.0000 0.8392 0.3412
0.1373 0.8392 0.3412
0.5020 0.8392 0.3451
0.7059 0.8431 0.3529
0.8157 0.8353 0.3451
0.8706 0.8353 0.3451
0.0000 0.9255 0.3412
0.0000 0.9255 0.3412
0.0000 0.9255 0.3412
0.1333 0.9255 0.3412
0.4941 0.9294 0.3412
0.7020 0.9294 0.3451
0.8078 0.9294 0.3373
0.8667 0.9294 0.3412
0.0000 0.0000 0.4824
0.0000 0.0000 0.4784
0.0000 0.0000 0.4824
0.1412 0.0039 0.4863
0.5020 0.0000 0.4824
0.7020 0.0000 0.4784
0.8118 0.0000 0.4784
0.8745 0.0000 0.4784
0.0000 0.0275 0.4706
0.0000 0.0275 0.4745
0.0000 0.0314 0.4824
0.1294 0.0275 0.4706
0.4941 0.0275 0.4667
0.6980 0.0275 0.4784
0.8078 0.0275 0.4667
0.8745 0.0275 0.4706
0.0000 0.1255 0.4784
0.0000 0.1255 0.4824
0.0039 0.1255 0.4706
0.1490 0.1255 0.4745
0.4941 0.1255 0.4784
0.7020 0.1216 0.4824
0.8118 0.1255 0.4824
0.8706 0.1255 0.4784
0.0000 0.2784 0.4706
0.0000 0.2784 0.4745
0.0000 0.2784 0.4824
0.1294 0.2824 0.4745
0.5020 0.2784 0.4745
0.7020 0.2784 0.4863
0.8078 0.2784 0.4706
0.8745 0.2784 0.4706
0.0039 0.4902 0.4824
0.0000 0.4784 0.4824
0.0039 0.4784 0.4745
0.1451 0.4784 0.4824
0.5020 0.4784 0.4784
0.7059 0.4745 0.4784
0.8078 0.4706 0.4784
0.8706 0.4706 0.4706
0.0000 0.6902 0.4745
0.0000 0.6902 0.4784
0.0000 0.6941 0.4784
0.1412 0.6941 0.4784
0.4980 0.6902 0.4745
0.7020 0.6863 0.4706
0.8118 0.6902 0.4745
0.8706 0.6863 0.4745
0.0000 0.8353 0.4824
0.0000 0.8392 0.4824
0.0000 0.8353 0.4784
0.1373 0.8431 0.4824
0.4980 0.8392 0.4706
0.6980 0.8353 0.4863
0.8118 0.8392 0.4863
0.8706 0.8353 0.4784
0.0000 0.9255 0.4706
0.0000 0.9294 0.4784
0.0000 0.9255 0.4706
0.1294 0.9294 0.4784
0.4941 0.9333 0.4824
0.7020 0.9294 0.4784
0.8078 0.9294 0.4745
0.8706 0.9294 0.4824
0.0000 0.0000 0.6118
0.0000 0.0000 0.6078
0.0039 0.0000 0.6078
0.1333 0.0000 0.6078
0.4980 0.0000 0.5961
0.7020 0.0000 0.6118
0.8118 0.0000 0.6078
0.8706 0.0000 0.6157
0.0000 0.0314 0.6000
0.0000 0.0275 0.6078
0.0000 0.0275 0.6000
0.1255 0.0314 0.6118
0.4941 0.0275 0.6078
0.7020 0.0275 0.6157
0.8118 0.0275 0.6039
0.8706 0.0275 0.6078
0.0000 0.1294 0.6000
0.0000 0.1255 0.6000
0.0000 0.1255 0.5961
0.1412 0.1255 0.6078
0.5020 0.1255 0.6039
0.7020 0.1255 0.6078
0.8118 0.1255 0.6000
0.8706 0.1255 0.6078
0.0000 0.2784 0.6000
0.0000 0.2745 0.6196
0.0000 0.2863 0.6000
0.1412 0.2824 0.6078
0.4941 0.2784 0.5961
0.7020 0.2745 0.6118
0.8118 0.2784 0.5922
0.8667 0.2745 0.6039
0.0000 0.4784 0.6078
0.0000 0.4784 0.6000
0.0000 0.4824 0.5922
0.1333 0.4784 0.6078
0.4980 0.4824 0.6039
0.7020 0.4784 0.6078
0.8118 0.4784 0.5922
0.8745 0.4745 0.6078
0.0000 0.6902 0.5961
0.0000 0.6902 0.5961
0.0000 0.6863 0.6000
0.1255 0.6902 0.5882
0.4941 0.6863 0.6039
0.7020 0.6863 0.6078
0.8118 0.6941 0.5922
0.8706 0.6863 0.6078
0.0000 0.8392 0.6039
0.0000 0.8353 0.6118
0.0000 0.8353 0.6039
0.1412 0.8353 0.6118
0.4980 0.8353 0.6039
0.7020 0.8353 0.6078
0.8118 0.8314 0.6078
0.8706 0.8353 0.6000
0.0000 0.9294 0.6000
0.0000 0.9255 0.6078
0.0000 0.9294 0.6039
0.1412 0.9294 0.6078
0.4941 0.9255 0.6078
0.7020 0.9255 0.6000
0.8078 0.9255 0.6000
0.8667 0.9255 0.6039
0.0000 0.0000 0.7059
0.0000 0.0000 0.7059
0.0000 0.0000 0.7020
0.1451 0.0039 0.7098
0.4980 0.0000 0.7059
0.7020 0.0000 0.7059
0.8118 0.0000 0.7059
0.8706 0.0000 0.7059
0.0000 0.0275 0.7059
0.0000 0.0275 0.7020
0.0039 0.0275 0.7059
0.1451 0.0275 0.7059
0.4980 0.0235 0.6980
0.7020 0.0275 0.7059
0.8118 0.0275 0.7059
0.8706 0.0275 0.7059
0.0000 0.1255 0.7020
0.0000 0.1255 0.7059
0.0000 0.1294 0.7020
0.1294 0.1255 0.7020
0.4980 0.1294 0.7020
0.7020 0.1255 0.7059
0.8118 0.1255 0.7059
0.8745 0.1255 0.7059
0.0000 0.2784 0.7020
0.0000 0.2784 0.7020
0.0000 0.2784 0.7020
0.1294 0.2824 0.7020
0.4941 0.2824 0.7020
0.7059 0.2784 0.7059
0.8118 0.2824 0.7059
0.8706 0.2745 0.7020
0.0000 0.4824 0.7059
0.0000 0.4784 0.7020
0.0039 0.4784 0.7059
0.1529 0.4824 0.7098
0.4980 0.4784 0.7020
0.7020 0.4745 0.7059
0.8157 0.4784 0.7020
0.8784 0.4824 0.7098
0.0000 0.6902 0.7020
0.0000 0.6902 0.7020
0.0000 0.6902 0.7020
0.1333 0.6902 0.7020
0.5020 0.6902 0.7059
0.7020 0.6941 0.7020
0.8118 0.6902 0.7020
0.8745 0.6902 0.7059
0.0000 0.8392 0.7059
0.0000 0.8353 0.7059
0.0078 0.8392 0.7098
0.1333 0.8353 0.7020
0.4980 0.8431 0.7059
0.7020 0.8353 0.7098
0.8118 0.8353 0.7020
0.8745 0.8353 0.7059
0.0000 0.9294 0.7059
0.0000 0.9294 0.7020
0.0000 0.9255 0.7020
0.1333 0.9255 0.6980
0.4941 0.9333 0.7020
0.6980 0.9255 0.7020
0.8078 0.9294 0.7020
0.8706 0.9255 0.7020
0.0039 0.0000 0.7882
0.0039 0.0000 0.7882
0.0039 0.0000 0.7843
0.1333 0.0000 0.7804
0.4980 0.0000 0.7843
0.7020 0.0000 0.7843
0.8118 0.0000 0.7843
0.8745 0.0000 0.7843
0.0000 0.0275 0.7843
0.0000 0.0275 0.7843
0.0000 0.0275 0.7804
0.1412 0.0275 0.7804
0.4941 0.0275 0.7804
0.6980 0.0275 0.7804
0.8118 0.0275 0.7765
0.8745 0.0235 0.7804
0.0000 0.1255 0.7843
0.0000 0.1255 0.7804
0.0000 0.1255 0.7804
0.1529 0.1294 0.7882
0.4980 0.1255 0.7843
0.7059 0.1255 0.7843
0.8118 0.1255 0.7843
0.8706 0.1255 0.7804
0.0000 0.2784 0.7804
0.0000 0.2784 0.7843
0.0000 0.2824 0.7843
0.1294 0.2784 0.7765
0.4980 0.2784 0.7804
0.7020 0.2784 0.7843
0.8118 0.2784 0.7765
0.8745 0.2784 0.7804
0.0039 0.4784 0.7804
0.0000 0.4784 0.7843
0.0000 0.4784 0.7804
0.1373 0.4745 0.7843
0.4980 0.4784 0.7804
0.7020 0.4745 0.7804
0.8157 0.4784 0.7843
0.8745 0.4784 0.7843
0.0000 0.6902 0.7804
0.0000 0.6941 0.7804
0.0000 0.6863 0.7804
0.1451 0.6941 0.7882
0.4941 0.6941 0.7804
0.7059 0.6863 0.7843
0.8118 0.6902 0.7804
0.8745 0.6902 0.7804
0.0039 0.8353 0.7843
0.0000 0.8353 0.7843
0.0039 0.8392 0.7843
0.1373 0.8431 0.7922
0.4980 0.8353 0.7804
0.7020 0.8353 0.7843
0.8157 0.8431 0.7843
0.8706 0.8314 0.7804
0.0000 0.9294 0.7804
0.0000 0.9294 0.7804
0.0000 0.9216 0.7804
0.1255 0.9294 0.7765
0.4980 0.9255 0.7804
0.7020 0.9294 0.7804
0.8039 0.9255 0.7765
0.8706 0.9294 0.7843
