examples/graphics/lutFilterExample/bin/data/LUTs/Brannan.cube
TITLE "test 1"
LUT_3D_SIZE 5
DOMAIN_MIN 0.000000 0.000000 0.000000
DOMAIN_MAX 0.903226 0.903226 0.903226
0.0980 0.0392 0.0863
0.2196 0.0588 0.1059
0.3569 0.0824 0.1137
0.5725 0.1020 0.1451
0.8039 0.1333 0.1725
0.1176 0.1412 0.1059
0.2157 0.1373 0.1020
0.3608 0.1765 0.1098
0.5765 0.2314 0.1490
0.8000 0.2667 0.1686
0.1412 0.2980 0.1137
0.2471 0.2980 0.1176
0.3569 0.2980 0.1137
0.5725 0.3608 0.1412
0.8039 0.4275 0.1686
0.1686 0.5216 0.1412
0.2863 0.5255 0.1451
0.4157 0.5255 0.1412
0.5686 0.5216 0.1373
0.8000 0.6039 0.1686
0.2078 0.7804 0.1765
0.3373 0.7765 0.1725
0.4824 0.7804 0.1725
0.6392 0.7765 0.1725
0.8039 0.7765 0.1725
0.1216 0.0588 0.1843
0.2118 0.0549 0.1804
0.3569 0.0824 0.2157
0.5725 0.1020 0.2431
0.8000 0.1333 0.2745
0.1216 0.1490 0.1804
0.2471 0.1804 0.2039
0.4157 0.2275 0.2471
0.6431 0.2667 0.2784
0.8706 0.3333 0.3333
0.1412 0.2980 0.2039
0.2902 0.3608 0.2471
0.4157 0.3608 0.2431
0.6471 0.4314 0.2824
0.8784 0.5020 0.3333
0.1686 0.5255 0.2353
0.3333 0.6235 0.2824
0.4902 0.6157 0.2824
0.6431 0.6078 0.2745
0.8745 0.6667 0.3294
0.2078 0.7804 0.2784
0.3961 0.8431 0.3373
0.5451 0.8431 0.3255
0.6980 0.8471 0.3294
0.8745 0.8471 0.3333
0.1412 0.0784 0.3020
0.2549 0.0784 0.3059
0.3529 0.0784 0.2980
0.5686 0.1020 0.3529
0.8000 0.1333 0.4078
0.1412 0.1804 0.2980
0.2863 0.2196 0.3529
0.4078 0.2196 0.3490
0.6471 0.2745 0.4118
0.8784 0.3333 0.4902
0.1451 0.2941 0.3059
0.2902 0.3608 0.3608
0.4824 0.4353 0.4157
0.6980 0.5137 0.4863
0.9294 0.5843 0.5412
0.1686 0.5255 0.3569
0.3412 0.6118 0.4157
0.5529 0.6667 0.4824
0.6980 0.6706 0.4824
0.9412 0.7333 0.5451
0.2000 0.7765 0.4078
0.3961 0.8510 0.4863
0.6196 0.8980 0.5373
0.7647 0.9020 0.5451
0.9255 0.8980 0.5451
0.1725 0.1020 0.5020
0.2863 0.1020 0.5059
0.4118 0.0980 0.4941
0.5765 0.1059 0.5020
0.8000 0.1373 0.5647
0.1725 0.2235 0.4980
0.3333 0.2667 0.5647
0.4863 0.2745 0.5686
0.6431 0.2667 0.5569
0.8706 0.3294 0.6235
0.1686 0.3529 0.4980
0.3412 0.4314 0.5725
0.5490 0.5137 0.6196
0.7020 0.5098 0.6235
0.9373 0.5922 0.6784
0.1647 0.5216 0.5020
0.3451 0.6157 0.5725
0.5490 0.6667 0.6196
0.7608 0.7373 0.6784
1.0000 0.7961 0.7294
0.2078 0.7804 0.5608
0.3922 0.8392 0.6196
0.6314 0.8941 0.6784
0.8235 0.9569 0.7333
0.9961 0.9451 0.7176
0.2118 0.1333 0.7137
0.3412 0.1294 0.7216
0.4863 0.1333 0.7176
0.6431 0.1333 0.7216
0.8039 0.1294 0.7137
0.2078 0.2706 0.7137
0.3922 0.3333 0.7686
0.5490 0.3333 0.7647
0.7020 0.3294 0.7647
0.8784 0.3333 0.7686
0.2039 0.4314 0.7176
0.3882 0.5098 0.7686
0.6275 0.5922 0.8353
0.7647 0.5922 0.8353
0.9294 0.5882 0.8314
0.2078 0.6039 0.7137
0.3922 0.6627 0.7686
0.6235 0.7333 0.8275
0.8157 0.7961 0.8706
0.9961 0.7961 0.8745
0.2039 0.7804 0.7098
0.3961 0.8471 0.7686
0.6314 0.8902 0.8314
0.8157 0.9569 0.8706
1.0000 0.9725 0.9333
