examples/graphics/lutFilterExample/bin/data/LUTs/Earlybird.cube
TITLE "Earlybird"
LUT_3D_SIZE 5
DOMAIN_MIN 0.000000 0.000000 0.000000
DOMAIN_MAX 0.903226 0.903226 0.903226
0.1216 0.0196 0.0196
0.3255 0.0706 0.0706
0.5529 0.1255 0.1098
0.7490 0.1725 0.1569
0.8902 0.2235 0.1961
0.1647 0.2157 0.0549
0.3216 0.2196 0.0588
0.5490 0.2784 0.1098
0.7490 0.3373 0.1529
0.8941 0.3922 0.2000
0.2314 0.4471 0.1059
0.3765 0.4431 0.1020
0.5569 0.4510 0.1098
0.7490 0.5098 0.1529
0.8902 0.5686 0.2000
0.2784 0.6784 0.1529
0.4392 0.6784 0.1569
0.5961 0.6784 0.1529
0.7490 0.6784 0.1569
0.8902 0.7216 0.2000
0.3294 0.8510 0.1922
0.4980 0.8510 0.1961
0.6627 0.8471 0.2000
0.7961 0.8510 0.2000
0.8902 0.8510 0.2000
0.1647 0.0667 0.1961
0.3216 0.0667 0.1961
0.5490 0.1255 0.2471
0.7529 0.1765 0.2980
0.8902 0.2235 0.3412
0.1725 0.2235 0.1961
0.3922 0.2863 0.2510
0.6157 0.3529 0.3098
0.8078 0.4000 0.3529
0.9333 0.4510 0.4000
0.2314 0.4549 0.2549
0.4471 0.5137 0.3059
0.6196 0.5216 0.3098
0.8157 0.5843 0.3608
0.9373 0.6314 0.4039
0.2863 0.6902 0.3020
0.5176 0.7412 0.3647
0.6706 0.7451 0.3569
0.8157 0.7412 0.3529
0.9412 0.7843 0.4039
0.3451 0.8627 0.3490
0.5569 0.8980 0.4000
0.7137 0.8941 0.4000
0.8431 0.8941 0.4000
0.9373 0.8941 0.4000
0.2235 0.1176 0.3961
0.3725 0.1176 0.3961
0.5490 0.1255 0.4000
0.7529 0.1765 0.4510
0.8980 0.2275 0.5020
0.2275 0.2706 0.3882
0.4353 0.3333 0.4510
0.6118 0.3412 0.4510
0.8157 0.4000 0.5137
0.9373 0.4549 0.5529
0.2353 0.4549 0.4039
0.4588 0.5176 0.4627
0.6745 0.5843 0.5216
0.8627 0.6471 0.5725
0.9765 0.6941 0.6118
0.2902 0.6902 0.4588
0.5216 0.7451 0.5255
0.7255 0.7961 0.5686
0.8627 0.8039 0.5765
0.9804 0.8353 0.6078
0.3373 0.8549 0.5059
0.5725 0.9059 0.5725
0.7725 0.9373 0.6118
0.8902 0.9373 0.6039
0.9765 0.9412 0.6078
0.2745 0.1725 0.6039
0.4353 0.1725 0.6039
0.6000 0.1725 0.6000
0.7490 0.1765 0.5961
0.8863 0.2196 0.6392
0.2941 0.3490 0.6039
0.5098 0.3961 0.6549
0.6627 0.3961 0.6471
0.8078 0.4039 0.6471
0.9333 0.4510 0.6863
0.2863 0.5176 0.6078
0.5216 0.5961 0.6706
0.7255 0.6431 0.7020
0.8549 0.6431 0.7020
0.9804 0.6980 0.7373
0.2863 0.6863 0.6000
0.5216 0.7490 0.6627
0.7255 0.7961 0.6980
0.9020 0.8431 0.7451
0.9882 0.8902 0.7843
0.3451 0.8627 0.6549
0.5647 0.8980 0.6980
0.7843 0.9412 0.7451
0.9412 0.9569 0.7843
0.9882 0.9529 0.7804
0.3333 0.2235 0.7451
0.4980 0.2196 0.7490
0.6588 0.2235 0.7490
0.7961 0.2275 0.7490
0.9020 0.2235 0.7490
0.3412 0.4000 0.7490
0.5647 0.4588 0.7961
0.7216 0.4549 0.7882
0.8392 0.4510 0.7843
0.9412 0.4549 0.7843
0.3529 0.5804 0.7569
0.5725 0.6431 0.7961
0.7686 0.6941 0.8235
0.8902 0.6902 0.8235
0.9765 0.6902 0.8235
0.3490 0.7373 0.7529
0.5647 0.7961 0.7961
0.7765 0.8392 0.8275
0.9373 0.8863 0.8431
0.9882 0.8863 0.8392
0.3451 0.8588 0.7490
0.5686 0.9059 0.7922
0.7804 0.9412 0.8275
0.9412 0.9529 0.8392
0.9882 0.9529 0.8392
