examples/graphics/lutFilterExample/bin/data/LUTs/Gotham.cube
TITLE "Gotham"
LUT_3D_SIZE 8
DOMAIN_MIN 0.000000 0.000000 0.000000
DOMAIN_MAX 0.903226 0.903226 0.903226
0.0000 0.0000 0.0000
0.0000 0.0000 0.0000
0.0000 0.0000 0.0000
0.0000 0.0000 0.0000
0.0000 0.0000 0.0000
0.0000 0.0000 0.0000
0.1882 0.2314 0.2549
0.3765 0.3804 0.3843
0.0000 0.0000 0.0000
0.0000 0.0000 0.0000
0.0000 0.0000 0.0000
0.0000 0.0000 0.0000
0.0000 0.0000 0.0000
0.0000 0.0000 0.0000
0.1765 0.2196 0.2431
0.3765 0.3765 0.3843
0.0000 0.0000 0.0000
0.0000 0.0000 0.0000
0.0000 0.0000 0.0000
0.0000 0.0000 0.0000
0.0039 0.0000 0.0000
0.0000 0.0000 0.0000
0.1882 0.2314 0.2549
0.3725 0.3765 0.3843
0.0000 0.0000 0.0000
0.0000 0.0000 0.0000
0.0000 0.0000 0.0000
0.0000 0.0000 0.0000
0.0000 0.0000 0.0000
0.0000 0.0000 0.0000
0.1765 0.2196 0.2431
0.3725 0.3765 0.3843
0.0000 0.0039 0.0039
0.0000 0.0000 0.0000
0.0000 0.0000 0.0000
0.0000 0.0000 0.0000
0.0000 0.0000 0.0000
0.0039 0.0000 0.0000
0.1843 0.2275 0.2510
0.3686 0.3765 0.3804
0.0000 0.0000 0.0000
0.0039 0.0039 0.0000
0.0000 0.0000 0.0039
0.0000 0.0000 0.0039
0.0000 0.0000 0.0078
0.0000 0.0000 0.0000
0.1765 0.2196 0.2431
0.3608 0.3686 0.3725
0.1922 0.2275 0.2510
0.1725 0.2157 0.2392
0.1922 0.2275 0.2510
0.1922 0.2275 0.2510
0.1765 0.2157 0.2392
0.1725 0.2157 0.2392
0.1922 0.2275 0.2510
0.3686 0.3765 0.3804
0.3725 0.3765 0.3843
0.3725 0.3725 0.3843
0.3725 0.3765 0.3804
0.3725 0.3765 0.3843
0.3725 0.3765 0.3843
0.3725 0.3765 0.3843
0.3686 0.3765 0.3843
0.3686 0.3804 0.3843
0.0000 0.0000 0.0000
0.0000 0.0000 0.0000
0.0000 0.0000 0.0000
0.0000 0.0000 0.0000
0.0000 0.0039 0.0078
0.0039 0.0000 0.0157
0.1922 0.2275 0.2549
0.3647 0.3804 0.3843
0.0000 0.0000 0.0000
0.0000 0.0000 0.0000
0.0000 0.0000 0.0000
0.0000 0.0000 0.0000
0.0000 0.0039 0.0000
0.1882 0.2275 0.2588
0.3608 0.3725 0.3725
0.4980 0.5059 0.5020
0.0000 0.0000 0.0000
0.0000 0.0000 0.0000
0.0000 0.0000 0.0000
0.0000 0.0000 0.0000
0.0000 0.0000 0.0000
0.2000 0.2431 0.2627
0.3686 0.3765 0.3804
0.5020 0.4980 0.4941
0.0000 0.0000 0.0000
0.0000 0.0000 0.0000
0.0000 0.0000 0.0000
0.0000 0.0000 0.0000
0.0039 0.0000 0.0039
0.1765 0.2157 0.2392
0.3608 0.3725 0.3765
0.5020 0.4980 0.4941
0.0039 0.0000 0.0039
0.0039 0.0000 0.0000
0.0000 0.0000 0.0000
0.0039 0.0039 0.0000
0.0000 0.0000 0.0000
0.2039 0.2431 0.2627
0.3569 0.3725 0.3725
0.5020 0.5020 0.4980
0.0039 0.0000 0.0078
0.1686 0.2157 0.2471
0.1765 0.2157 0.2431
0.1882 0.2314 0.2510
0.1804 0.2157 0.2392
0.1882 0.2235 0.2510
0.3725 0.3804 0.3843
0.4980 0.4980 0.4941
0.1961 0.2275 0.2549
0.3608 0.3686 0.3725
0.3725 0.3765 0.3843
0.3725 0.3725 0.3843
0.3725 0.3765 0.3843
0.3686 0.3725 0.3804
0.3765 0.3804 0.3804
0.5098 0.5059 0.5020
0.3647 0.3804 0.3804
0.5020 0.5059 0.5020
0.5059 0.5059 0.4980
0.5059 0.5059 0.5020
0.4980 0.4980 0.4941
0.4941 0.4941 0.4863
0.4980 0.4980 0.4941
0.5020 0.4980 0.4902
0.0000 0.0000 0.0000
0.0000 0.0000 0.0000
0.0039 0.0039 0.0000
0.0000 0.0000 0.0039
0.0000 0.0000 0.0078
0.0000 0.0000 0.0039
0.1725 0.2196 0.2431
0.3686 0.3804 0.3843
0.0000 0.0000 0.0000
0.0000 0.0000 0.0000
0.0000 0.0000 0.0039
0.0000 0.0000 0.0078
0.0039 0.0000 0.0000
0.1725 0.2196 0.2353
0.3686 0.3765 0.3843
0.4941 0.4980 0.4941
0.0000 0.0039 0.0000
0.0000 0.0039 0.0000
0.0039 0.0000 0.0000
0.0000 0.0039 0.0078
0.1922 0.2314 0.2549
0.3765 0.3843 0.3882
0.4980 0.4980 0.4941
0.6039 0.6000 0.5765
0.0000 0.0039 0.0000
0.0000 0.0000 0.0000
0.0000 0.0039 0.0039
0.0039 0.0000 0.0078
0.1882 0.2275 0.2510
0.3725 0.3765 0.3843
0.4980 0.4980 0.4902
0.5961 0.5922 0.5686
0.0000 0.0000 0.0000
0.0000 0.0000 0.0000
0.1882 0.2235 0.2510
0.1882 0.2275 0.2510
0.1922 0.2275 0.2549
0.3686 0.3765 0.3804
0.4980 0.4980 0.4902
0.6078 0.6039 0.5765
0.0000 0.0000 0.0118
0.1961 0.2275 0.2431
0.3725 0.3765 0.3843
0.3725 0.3765 0.3843
0.3804 0.3882 0.3961
0.3686 0.3804 0.3804
0.4941 0.4980 0.4902
0.6000 0.5961 0.5725
0.1725 0.2196 0.2431
0.3725 0.3765 0.3804
0.4980 0.4980 0.4902
0.4980 0.4980 0.4902
0.5020 0.5020 0.4941
0.5020 0.5020 0.4980
0.5020 0.4980 0.4941
0.6039 0.5961 0.5765
0.3647 0.3804 0.3843
0.4980 0.5059 0.4941
0.6000 0.5922 0.5725
0.6039 0.6039 0.5765
0.6000 0.5961 0.5725
0.6078 0.6039 0.5804
0.6000 0.5961 0.5765
0.6078 0.6000 0.5804
0.0000 0.0000 0.0000
0.0000 0.0000 0.0000
0.0039 0.0039 0.0000
0.0000 0.0000 0.0039
0.0000 0.0000 0.0000
0.0078 0.0000 0.0118
0.1922 0.2235 0.2549
0.3647 0.3804 0.3804
0.0000 0.0000 0.0000
0.0000 0.0000 0.0000
0.0000 0.0000 0.0039
0.0000 0.0000 0.0078
0.0000 0.0039 0.0000
0.1961 0.2235 0.2588
0.3647 0.3765 0.3804
0.4941 0.4980 0.4941
0.0039 0.0039 0.0000
0.0000 0.0000 0.0039
0.0000 0.0000 0.0000
0.0000 0.0000 0.0039
0.1843 0.2157 0.2353
0.3686 0.3804 0.3843
0.4980 0.4980 0.4941
0.6078 0.6000 0.5765
0.0000 0.0000 0.0039
0.0000 0.0000 0.0078
0.0039 0.0000 0.0000
0.2000 0.2235 0.2588
0.3686 0.3686 0.3765
0.5020 0.5059 0.5059
0.6000 0.5922 0.5725
0.7020 0.6941 0.6510
0.0039 0.0000 0.0078
0.0000 0.0000 0.0000
0.1765 0.2157 0.2431
0.3686 0.3765 0.3804
0.3765 0.3765 0.3843
0.5020 0.5020 0.5059
0.6078 0.6000 0.5804
0.7059 0.6941 0.6549
0.0000 0.0000 0.0039
0.1922 0.2235 0.2431
0.3686 0.3804 0.3882
0.5020 0.5059 0.5020
0.4980 0.4980 0.4902
0.5098 0.5059 0.5020
0.6000 0.5922 0.5725
0.7020 0.6902 0.6471
0.1961 0.2275 0.2510
0.3765 0.3765 0.3843
0.5020 0.5020 0.4980
0.6078 0.6000 0.5804
0.6157 0.6078 0.5843
0.6118 0.6039 0.5843
0.6118 0.6000 0.5804
0.7137 0.7020 0.6588
0.3686 0.3804 0.3843
0.4941 0.4980 0.4941
0.6000 0.5922 0.5686
0.7020 0.6902 0.6510
0.7137 0.7020 0.6588
0.7098 0.6980 0.6549
0.6980 0.6902 0.6471
0.7059 0.6941 0.6510
0.0000 0.0039 0.0000
0.0000 0.0000 0.0078
0.0000 0.0000 0.0000
0.0039 0.0000 0.0039
0.0078 0.0000 0.0000
0.0000 0.0000 0.0039
0.1765 0.2196 0.2392
0.3647 0.3804 0.3804
0.0000 0.0000 0.0000
0.0039 0.0000 0.0000
0.0000 0.0000 0.0000
0.0000 0.0000 0.0039
0.0039 0.0000 0.0039
0.1922 0.2275 0.2588
0.3725 0.3804 0.3843
0.5020 0.5059 0.5020
0.0039 0.0000 0.0039
0.0039 0.0000 0.0000
0.1686 0.2196 0.2431
0.1765 0.2196 0.2431
0.1725 0.2196 0.2392
0.3686 0.3765 0.3843
0.5020 0.4980 0.4980
0.6039 0.5961 0.5765
0.0039 0.0039 0.0000
0.0039 0.0000 0.0000
0.1961 0.2314 0.2510
0.3725 0.3804 0.3843
0.3725 0.3843 0.3922
0.5020 0.5020 0.5020
0.6000 0.5922 0.5725
0.7020 0.6941 0.6510
0.0000 0.0000 0.0000
0.0000 0.0000 0.0039
0.1961 0.2314 0.2471
0.3725 0.3882 0.3882
0.5020 0.4980 0.4941
0.6078 0.6000 0.5804
0.7020 0.6941 0.6510
0.7961 0.7843 0.7294
0.0000 0.0000 0.0157
0.1961 0.2275 0.2549
0.3765 0.3882 0.3922
0.4941 0.5020 0.5020
0.6078 0.6039 0.5804
0.6118 0.6000 0.5804
0.7098 0.7020 0.6588
0.7922 0.7765 0.7216
0.1961 0.2275 0.2549
0.3686 0.3804 0.3843
0.5059 0.5020 0.4980
0.6078 0.6000 0.5804
0.7059 0.6941 0.6549
0.7020 0.6941 0.6510
0.7098 0.7020 0.6588
0.7961 0.7882 0.7294
0.3725 0.3804 0.3843
0.4941 0.5020 0.4980
0.6078 0.6000 0.5804
0.7098 0.7020 0.6588
0.8000 0.7882 0.7294
0.8000 0.7843 0.7294
0.7961 0.7843 0.7294
0.8000 0.7882 0.7333
0.0000 0.0039 0.0000
0.0000 0.0000 0.0000
0.0039 0.0000 0.0039
0.0039 0.0000 0.0039
0.0000 0.0039 0.0000
0.0039 0.0000 0.0000
0.1804 0.2157 0.2431
0.3686 0.3804 0.3882
0.0039 0.0000 0.0000
0.1882 0.2275 0.2549
0.1725 0.2196 0.2353
0.1882 0.2314 0.2588
0.1882 0.2275 0.2588
0.1961 0.2431 0.2627
0.3725 0.3804 0.3882
0.4941 0.5020 0.4980
0.0039 0.0039 0.0000
0.1765 0.2196 0.2471
0.3725 0.3765 0.3843
0.3686 0.3725 0.3804
0.3765 0.3725 0.3843
0.3804 0.3843 0.3922
0.4980 0.4941 0.4863
0.6039 0.6000 0.5765
0.0039 0.0000 0.0039
0.1882 0.2314 0.2431
0.3725 0.3765 0.3843
0.4941 0.5020 0.4980
0.5020 0.4980 0.4941
0.4980 0.4980 0.4941
0.6078 0.6000 0.5804
0.7020 0.6941 0.6510
0.0000 0.0039 0.0000
0.1608 0.2196 0.2431
0.3725 0.3765 0.3843
0.5059 0.5020 0.5020
0.6039 0.6000 0.5804
0.6157 0.6039 0.5882
0.7059 0.6980 0.6549
0.7961 0.7843 0.7294
0.0078 0.0000 0.0039
0.1686 0.2157 0.2471
0.3725 0.3804 0.3843
0.4980 0.5020 0.4980
0.6078 0.6000 0.5765
0.7098 0.7020 0.6588
0.7922 0.7765 0.7255
0.8745 0.8588 0.7922
0.1961 0.2275 0.2549
0.3608 0.3725 0.3765
0.4980 0.4980 0.4902
0.6078 0.6000 0.5804
0.7059 0.6980 0.6510
0.7961 0.7843 0.7333
0.8000 0.7843 0.7333
0.8784 0.8667 0.7961
0.3647 0.3804 0.3843
0.4980 0.5059 0.5020
0.6078 0.6000 0.5804
0.7098 0.6980 0.6549
0.7882 0.7765 0.7255
0.8706 0.8588 0.7882
0.8706 0.8588 0.7882
0.8745 0.8588 0.7961
0.1804 0.2275 0.2510
0.1804 0.2196 0.2471
0.1725 0.2196 0.2471
0.1765 0.2196 0.2431
0.1725 0.2196 0.2471
0.1882 0.2275 0.2549
0.1804 0.2196 0.2431
0.3686 0.3765 0.3804
0.1765 0.2235 0.2471
0.3765 0.3843 0.3843
0.3725 0.3765 0.3843
0.3725 0.3804 0.3843
0.3647 0.3725 0.3765
0.3725 0.3804 0.3843
0.3725 0.3725 0.3804
0.4863 0.4941 0.4902
0.1725 0.2157 0.2431
0.3725 0.3804 0.3843
0.5020 0.4980 0.4941
0.5020 0.4980 0.4941
0.4980 0.4941 0.4902
0.5020 0.5020 0.4941
0.5020 0.4980 0.4941
0.6078 0.6000 0.5804
0.1765 0.2196 0.2392
0.3608 0.3686 0.3725
0.4902 0.4902 0.4863
0.6039 0.6000 0.5765
0.6000 0.5922 0.5725
0.6078 0.6039 0.5804
0.6078 0.6000 0.5804
0.7059 0.6980 0.6549
0.1765 0.2196 0.2471
0.3725 0.3765 0.3804
0.4980 0.4941 0.4902
0.6118 0.6039 0.5843
0.7059 0.6980 0.6549
0.7059 0.6980 0.6549
0.7098 0.7020 0.6549
0.8000 0.7843 0.7294
0.1569 0.2000 0.2275
0.3725 0.3765 0.3804
0.5020 0.4980 0.4941
0.6078 0.6039 0.5843
0.7059 0.6941 0.6549
0.7922 0.7804 0.7255
0.7882 0.7765 0.7216
0.8745 0.8627 0.7922
0.1961 0.2275 0.2471
0.3686 0.3765 0.3843
0.5020 0.4980 0.4902
0.6078 0.6000 0.5843
0.7098 0.7020 0.6549
0.8000 0.7882 0.7333
0.8745 0.8627 0.7922
0.9529 0.9373 0.8549
0.3686 0.3765 0.3843
0.4941 0.5020 0.4980
0.6000 0.5882 0.5725
0.7059 0.6980 0.6549
0.7961 0.7843 0.7294
0.8706 0.8588 0.7882
0.9451 0.9255 0.8510
0.9490 0.9333 0.8549
0.3686 0.3804 0.3843
0.3765 0.3804 0.3843
0.3725 0.3765 0.3843
0.3725 0.3765 0.3843
0.3725 0.3765 0.3843
0.3804 0.3843 0.3922
0.3765 0.3765 0.3843
0.3686 0.3804 0.3843
0.3725 0.3804 0.3843
0.4980 0.4980 0.4980
0.4980 0.4980 0.4902
0.4980 0.4980 0.4902
0.4980 0.4980 0.4902
0.5020 0.4980 0.4941
0.4902 0.4902 0.4863
0.5020 0.5020 0.4941
0.3725 0.3765 0.3843
0.5059 0.5020 0.4980
0.6078 0.6000 0.5804
0.6078 0.6000 0.5804
0.6000 0.5922 0.5765
0.6000 0.5882 0.5725
0.6078 0.6000 0.5804
0.6078 0.6000 0.5843
0.3569 0.3686 0.3725
0.4980 0.4980 0.4902
0.6118 0.6000 0.5804
0.7020 0.6941 0.6549
0.7020 0.6941 0.6510
0.7098 0.7020 0.6588
0.7020 0.6941 0.6510
0.7020 0.6941 0.6510
0.3686 0.3804 0.3843
0.4980 0.4980 0.4941
0.6000 0.5922 0.5725
0.7059 0.6941 0.6510
0.7961 0.7843 0.7294
0.7922 0.7804 0.7255
0.7961 0.7843 0.7294
0.7961 0.7843 0.7255
0.3608 0.3686 0.3765
0.4980 0.4941 0.4902
0.6118 0.6000 0.5804
0.7020 0.6941 0.6510
0.7922 0.7804 0.7255
0.8745 0.8667 0.7961
0.8745 0.8627 0.7922
0.8745 0.8627 0.7961
0.3765 0.3804 0.3882
0.4980 0.4980 0.4941
0.6157 0.6039 0.5843
0.7020 0.6941 0.6510
0.7922 0.7804 0.7216
0.8745 0.8627 0.7922
0.9451 0.9333 0.8588
0.9451 0.9294 0.8588
0.3686 0.3765 0.3843
0.4980 0.5020 0.4941
0.6078 0.6000 0.5804
0.7020 0.6941 0.6549
0.8000 0.7882 0.7294
0.8745 0.8627 0.7922
0.9490 0.9333 0.8510
1.0000 0.9961 0.9176
