examples/graphics/lutFilterExample/bin/data/LUTs/Gotham.cube
TITLE "Gotham"
LUT_3D_SIZE 5
DOMAIN_MIN 0.000000 0.000000 0.000000
DOMAIN_MAX 0.903226 0.903226 0.903226
0.0000 0.0000 0.0000
0.0000 0.0000 0.0000
0.0000 0.0000 0.0000
0.0039 0.0039 0.0549
0.3765 0.3804 0.3843
0.0000 0.0000 0.0000
0.0000 0.0000 0.0000
0.0000 0.0000 0.0000
0.0039 0.0039 0.0627
0.3765 0.3804 0.3843
0.0000 0.0000 0.0000
0.0000 0.0000 0.0000
0.0000 0.0000 0.0000
0.0000 0.0000 0.0588
0.3765 0.3804 0.3882
0.0000 0.0000 0.0471
0.0000 0.0000 0.0431
0.0000 0.0000 0.0431
0.0000 0.0039 0.0431
0.3725 0.3804 0.3843
0.3725 0.3765 0.3843
0.3725 0.3765 0.3882
0.3765 0.3804 0.3843
0.3725 0.3765 0.3843
0.3686 0.3804 0.3843
0.0000 0.0000 0.0000
0.0000 0.0000 0.0000
0.0000 0.0000 0.0039
0.0000 0.0039 0.0627
0.3725 0.3804 0.3804
0.0000 0.0000 0.0000
0.0000 0.0000 0.0000
0.0000 0.0078 0.0431
0.3765 0.3765 0.3765
0.5843 0.5804 0.5647
0.0000 0.0000 0.0039
0.0000 0.0078 0.0431
0.0000 0.0039 0.0667
0.3804 0.3843 0.3922
0.5804 0.5804 0.5608
0.0000 0.0000 0.0431
0.3804 0.3804 0.3882
0.3804 0.3882 0.3961
0.3725 0.3765 0.3804
0.5804 0.5765 0.5608
0.3686 0.3765 0.3843
0.5765 0.5804 0.5569
0.5725 0.5686 0.5490
0.5725 0.5725 0.5490
0.5843 0.5804 0.5608
0.0000 0.0000 0.0039
0.0000 0.0000 0.0000
0.0000 0.0000 0.0000
0.0000 0.0000 0.0431
0.3647 0.3843 0.3843
0.0000 0.0000 0.0000
0.0000 0.0000 0.0196
0.0000 0.0078 0.0549
0.3725 0.3725 0.3804
0.5804 0.5804 0.5608
0.0039 0.0000 0.0000
0.0000 0.0118 0.0627
0.3843 0.3765 0.3843
0.5843 0.5804 0.5608
0.7490 0.7373 0.6902
0.0039 0.0039 0.0667
0.3725 0.3765 0.3725
0.5843 0.5804 0.5647
0.5843 0.5804 0.5569
0.7490 0.7373 0.6902
0.3686 0.3804 0.3843
0.5804 0.5804 0.5608
0.7451 0.7373 0.6863
0.7490 0.7412 0.6902
0.7451 0.7333 0.6863
0.0039 0.0000 0.0549
0.0000 0.0000 0.0353
0.0000 0.0000 0.0510
0.0000 0.0000 0.0706
0.3686 0.3765 0.3843
0.0000 0.0000 0.0627
0.3725 0.3804 0.3882
0.3725 0.3765 0.3843
0.3725 0.3765 0.3804
0.5725 0.5686 0.5490
0.0000 0.0000 0.0431
0.3804 0.3804 0.3882
0.5804 0.5765 0.5569
0.5843 0.5804 0.5647
0.7490 0.7373 0.6863
0.0000 0.0000 0.0471
0.3765 0.3804 0.3961
0.5843 0.5804 0.5608
0.7490 0.7412 0.6941
0.8902 0.8784 0.8078
0.3686 0.3804 0.3804
0.5725 0.5686 0.5529
0.7451 0.7333 0.6863
0.8941 0.8824 0.8118
0.8941 0.8784 0.8118
0.3686 0.3804 0.3843
0.3804 0.3804 0.3882
0.3725 0.3765 0.3843
0.3725 0.3765 0.3843
0.3686 0.3804 0.3843
0.3647 0.3686 0.3725
0.5765 0.5804 0.5569
0.5804 0.5804 0.5569
0.5725 0.5686 0.5451
0.5804 0.5804 0.5529
0.3725 0.3765 0.3804
0.5804 0.5804 0.5569
0.7451 0.7373 0.6863
0.7529 0.7451 0.6902
0.7412 0.7333 0.6824
0.3608 0.3686 0.3725
0.5804 0.5765 0.5569
0.7373 0.7294 0.6784
0.8902 0.8784 0.8078
0.8863 0.8745 0.8078
0.3686 0.3765 0.3843
0.5804 0.5804 0.5569
0.7490 0.7412 0.6902
0.8902 0.8745 0.8078
1.0000 0.9961 0.9176
