examples/graphics/lutFilterExample/bin/data/LUTs/Hefe.cube
TITLE "Hefe"
LUT_3D_SIZE 5
DOMAIN_MIN 0.000000 0.000000 0.000000
DOMAIN_MAX 0.903226 0.903226 0.903226
0.0000 0.0000 0.0000
0.1333 0.0157 0.0118
0.4471 0.0510 0.0235
0.7373 0.0784 0.0431
0.8549 0.0902 0.0510
0.0118 0.1333 0.0196
0.1255 0.1333 0.0078
0.4392 0.1843 0.0235
0.7373 0.2314 0.0471
0.8510 0.2471 0.0510
0.0275 0.4471 0.0510
0.1294 0.4392 0.0235
0.3922 0.4431 0.0314
0.7333 0.5373 0.0392
0.8510 0.5647 0.0510
0.0431 0.7333 0.0784
0.1333 0.7333 0.0471
0.4000 0.7333 0.0471
0.6706 0.7294 0.0392
0.8510 0.8039 0.0471
0.0510 0.8549 0.0941
0.1373 0.8549 0.0549
0.4078 0.8549 0.0510
0.6667 0.8549 0.0510
0.7804 0.8549 0.0471
0.0196 0.0118 0.1333
0.1373 0.0118 0.1294
0.4471 0.0275 0.1294
0.7333 0.0431 0.1373
0.8549 0.0510 0.1333
0.0157 0.1255 0.1412
0.1529 0.1529 0.1569
0.4745 0.1961 0.1765
0.7490 0.2314 0.1922
0.8824 0.2549 0.2118
0.0275 0.4431 0.1882
0.1804 0.4745 0.2039
0.4510 0.4745 0.1725
0.7569 0.5529 0.2000
0.8784 0.5725 0.2118
0.0471 0.7333 0.2314
0.2000 0.7490 0.2392
0.4549 0.7529 0.1961
0.7176 0.7608 0.2000
0.8824 0.8157 0.2118
0.0510 0.8549 0.2471
0.2118 0.8784 0.2549
0.4471 0.8784 0.2078
0.7098 0.8784 0.2157
0.8275 0.8784 0.2078
0.0549 0.0314 0.4431
0.1961 0.0275 0.4549
0.4471 0.0353 0.3882
0.7333 0.0431 0.4000
0.8549 0.0510 0.4039
0.0275 0.1255 0.4392
0.2000 0.1725 0.4706
0.4667 0.1765 0.4353
0.7529 0.2000 0.4431
0.8784 0.2078 0.4471
0.0314 0.3961 0.4510
0.1804 0.4431 0.4784
0.5137 0.5137 0.5059
0.7961 0.5686 0.5451
0.9098 0.5765 0.5529
0.0431 0.7294 0.5373
0.1961 0.7529 0.5490
0.5373 0.7882 0.5647
0.7686 0.7882 0.5373
0.9176 0.8235 0.5569
0.0471 0.8588 0.5569
0.2118 0.8824 0.5804
0.5490 0.9176 0.5804
0.7686 0.9216 0.5569
0.8863 0.9216 0.5451
0.0784 0.0431 0.7333
0.2314 0.0431 0.7294
0.5490 0.0431 0.7333
0.7373 0.0431 0.6745
0.8549 0.0471 0.6706
0.0471 0.1333 0.7373
0.2353 0.1922 0.7608
0.5529 0.1961 0.7529
0.7490 0.1922 0.7020
0.8824 0.2118 0.7137
0.0392 0.4000 0.7333
0.2000 0.4510 0.7608
0.5608 0.5373 0.7804
0.7882 0.5451 0.7686
0.9176 0.5569 0.7725
0.0392 0.6706 0.7294
0.1961 0.7059 0.7569
0.5412 0.7647 0.7843
0.8157 0.8118 0.8157
0.9490 0.8392 0.8275
0.0510 0.8588 0.8118
0.2157 0.8824 0.8275
0.5569 0.9176 0.8235
0.8275 0.9490 0.8353
0.9333 0.9490 0.8196
0.0980 0.0510 0.8510
0.2471 0.0510 0.8431
0.5686 0.0510 0.8549
0.8078 0.0510 0.8549
0.8588 0.0510 0.7843
0.0549 0.1373 0.8510
0.2549 0.2118 0.8745
0.5725 0.2118 0.8745
0.8196 0.2118 0.8784
0.8784 0.2118 0.8235
0.0510 0.4039 0.8549
0.2157 0.4510 0.8824
0.5882 0.5529 0.9137
0.8314 0.5569 0.9216
0.9137 0.5529 0.8863
0.0510 0.6706 0.8471
0.2078 0.7098 0.8706
0.5529 0.7725 0.9137
0.8431 0.8314 0.9490
0.9451 0.8235 0.9333
0.0510 0.7804 0.8549
0.2157 0.8235 0.8824
0.5529 0.8863 0.9216
0.8235 0.9373 0.9490
0.9608 0.9647 0.9647
