examples/graphics/lutFilterExample/bin/data/LUTs/Inkwell.cube
TITLE "Inkwell"
LUT_3D_SIZE 5
DOMAIN_MIN 0.000000 0.000000 0.000000
DOMAIN_MAX 0.903226 0.903226 0.903226
0.0000 0.0000 0.0000
0.0745 0.0745 0.0745
0.2078 0.2078 0.2078
0.3765 0.3765 0.3765
0.5490 0.5490 0.5490
0.0706 0.0706 0.0706
0.0706 0.0706 0.0706
0.2078 0.2078 0.2078
0.3804 0.3804 0.3804
0.5451 0.5451 0.5451
0.2157 0.2157 0.2157
0.2157 0.2157 0.2157
0.2118 0.2118 0.2118
0.3765 0.3765 0.3765
0.5451 0.5451 0.5451
0.3765 0.3765 0.3765
0.3725 0.3725 0.3725
0.3725 0.3725 0.3725
0.3725 0.3725 0.3725
0.5490 0.5490 0.5490
0.5451 0.5451 0.5451
0.5451 0.5451 0.5451
0.5451 0.5451 0.5451
0.5412 0.5412 0.5412
0.5490 0.5490 0.5490
0.0706 0.0706 0.0706
0.0706 0.0706 0.0706
0.2078 0.2078 0.2078
0.3765 0.3765 0.3765
0.5451 0.5451 0.5451
0.0706 0.0706 0.0706
0.2118 0.2118 0.2118
0.3725 0.3725 0.3725
0.5451 0.5451 0.5451
0.6745 0.6745 0.6745
0.2078 0.2078 0.2078
0.3725 0.3725 0.3725
0.3804 0.3804 0.3804
0.5529 0.5529 0.5529
0.6745 0.6745 0.6745
0.3725 0.3725 0.3725
0.5490 0.5490 0.5490
0.5490 0.5490 0.5490
0.5490 0.5490 0.5490
0.6745 0.6745 0.6745
0.5451 0.5451 0.5451
0.6745 0.6745 0.6745
0.6667 0.6667 0.6667
0.6745 0.6745 0.6745
0.6745 0.6745 0.6745
0.2157 0.2157 0.2157
0.2118 0.2118 0.2118
0.2118 0.2118 0.2118
0.3725 0.3725 0.3725
0.5451 0.5451 0.5451
0.2078 0.2078 0.2078
0.3725 0.3725 0.3725
0.3725 0.3725 0.3725
0.5412 0.5412 0.5412
0.6745 0.6745 0.6745
0.2118 0.2118 0.2118
0.3765 0.3765 0.3765
0.5451 0.5451 0.5451
0.6745 0.6745 0.6745
0.7569 0.7569 0.7569
0.3765 0.3765 0.3765
0.5451 0.5451 0.5451
0.6745 0.6745 0.6745
0.6784 0.6784 0.6784
0.7569 0.7569 0.7569
0.5412 0.5412 0.5412
0.6745 0.6745 0.6745
0.7608 0.7608 0.7608
0.7569 0.7569 0.7569
0.7569 0.7569 0.7569
0.3804 0.3804 0.3804
0.3765 0.3765 0.3765
0.3725 0.3725 0.3725
0.3765 0.3765 0.3765
0.5451 0.5451 0.5451
0.3765 0.3765 0.3765
0.5451 0.5451 0.5451
0.5451 0.5451 0.5451
0.5451 0.5451 0.5451
0.6745 0.6745 0.6745
0.3725 0.3725 0.3725
0.5490 0.5490 0.5490
0.6745 0.6745 0.6745
0.6784 0.6784 0.6784
0.7608 0.7608 0.7608
0.3725 0.3725 0.3725
0.5490 0.5490 0.5490
0.6706 0.6706 0.6706
0.7647 0.7647 0.7647
0.8078 0.8078 0.8078
0.5451 0.5451 0.5451
0.6706 0.6706 0.6706
0.7569 0.7569 0.7569
0.8118 0.8118 0.8118
0.8118 0.8118 0.8118
0.5451 0.5451 0.5451
0.5490 0.5490 0.5490
0.5451 0.5451 0.5451
0.5451 0.5451 0.5451
0.5451 0.5451 0.5451
0.5412 0.5412 0.5412
0.6745 0.6745 0.6745
0.6745 0.6745 0.6745
0.6706 0.6706 0.6706
0.6745 0.6745 0.6745
0.5451 0.5451 0.5451
0.6745 0.6745 0.6745
0.7569 0.7569 0.7569
0.7569 0.7569 0.7569
0.7569 0.7569 0.7569
0.5412 0.5412 0.5412
0.6745 0.6745 0.6745
0.7569 0.7569 0.7569
0.8078 0.8078 0.8078
0.8118 0.8118 0.8118
0.5451 0.5451 0.5451
0.6745 0.6745 0.6745
0.7608 0.7608 0.7608
0.8078 0.8078 0.8078
0.8392 0.8392 0.8392
