examples/graphics/lutFilterExample/bin/data/LUTs/Inkwell.cube
TITLE "Inkwell"
LUT_3D_SIZE 8
DOMAIN_MIN 0.000000 0.000000 0.000000
DOMAIN_MAX 0.903226 0.903226 0.903226
0.0000 0.0000 0.0000
0.0235 0.0235 0.0235
0.0863 0.0863 0.0863
0.1725 0.1725 0.1725
0.2549 0.2549 0.2549
0.3529 0.3529 0.3529
0.4510 0.4510 0.4510
0.5490 0.5490 0.5490
0.0196 0.0196 0.0196
0.0235 0.0235 0.0235
0.0863 0.0863 0.0863
0.1686 0.1686 0.1686
0.2588 0.2588 0.2588
0.3529 0.3529 0.3529
0.4471 0.4471 0.4471
0.5451 0.5451 0.5451
0.0863 0.0863 0.0863
0.0863 0.0863 0.0863
0.0863 0.0863 0.0863
0.1647 0.1647 0.1647
0.2588 0.2588 0.2588
0.3490 0.3490 0.3490
0.4510 0.4510 0.4510
0.5451 0.5451 0.5451
0.1686 0.1686 0.1686
0.1608 0.1608 0.1608
0.1686 0.1686 0.1686
0.1608 0.1608 0.1608
0.2549 0.2549 0.2549
0.3490 0.3490 0.3490
0.4471 0.4471 0.4471
0.5451 0.5451 0.5451
0.2510 0.2510 0.2510
0.2549 0.2549 0.2549
0.2588 0.2588 0.2588
0.2588 0.2588 0.2588
0.2588 0.2588 0.2588
0.3529 0.3529 0.3529
0.4510 0.4510 0.4510
0.5451 0.5451 0.5451
0.3451 0.3451 0.3451
0.3529 0.3529 0.3529
0.3490 0.3490 0.3490
0.3529 0.3529 0.3529
0.3490 0.3490 0.3490
0.3529 0.3529 0.3529
0.4471 0.4471 0.4471
0.5451 0.5451 0.5451
0.4510 0.4510 0.4510
0.4471 0.4471 0.4471
0.4510 0.4510 0.4510
0.4510 0.4510 0.4510
0.4471 0.4471 0.4471
0.4471 0.4471 0.4471
0.4510 0.4510 0.4510
0.5451 0.5451 0.5451
0.5451 0.5451 0.5451
0.5451 0.5451 0.5451
0.5451 0.5451 0.5451
0.5451 0.5451 0.5451
0.5451 0.5451 0.5451
0.5451 0.5451 0.5451
0.5451 0.5451 0.5451
0.5490 0.5490 0.5490
0.0196 0.0196 0.0196
0.0235 0.0235 0.0235
0.0863 0.0863 0.0863
0.1725 0.1725 0.1725
0.2471 0.2471 0.2471
0.3490 0.3490 0.3490
0.4510 0.4510 0.4510
0.5490 0.5490 0.5490
0.0235 0.0235 0.0235
0.0824 0.0824 0.0824
0.1608 0.1608 0.1608
0.2588 0.2588 0.2588
0.3451 0.3451 0.3451
0.4510 0.4510 0.4510
0.5412 0.5412 0.5412
0.6235 0.6235 0.6235
0.0824 0.0824 0.0824
0.1647 0.1647 0.1647
0.1647 0.1647 0.1647
0.2627 0.2627 0.2627
0.3490 0.3490 0.3490
0.4549 0.4549 0.4549
0.5451 0.5451 0.5451
0.6235 0.6235 0.6235
0.1647 0.1647 0.1647
0.2588 0.2588 0.2588
0.2510 0.2510 0.2510
0.2627 0.2627 0.2627
0.3490 0.3490 0.3490
0.4471 0.4471 0.4471
0.5412 0.5412 0.5412
0.6235 0.6235 0.6235
0.2588 0.2588 0.2588
0.3490 0.3490 0.3490
0.3529 0.3529 0.3529
0.3490 0.3490 0.3490
0.3490 0.3490 0.3490
0.4549 0.4549 0.4549
0.5412 0.5412 0.5412
0.6275 0.6275 0.6275
0.3529 0.3529 0.3529
0.4471 0.4471 0.4471
0.4471 0.4471 0.4471
0.4549 0.4549 0.4549
0.4471 0.4471 0.4471
0.4510 0.4510 0.4510
0.5412 0.5412 0.5412
0.6235 0.6235 0.6235
0.4510 0.4510 0.4510
0.5412 0.5412 0.5412
0.5451 0.5451 0.5451
0.5451 0.5451 0.5451
0.5451 0.5451 0.5451
0.5451 0.5451 0.5451
0.5451 0.5451 0.5451
0.6275 0.6275 0.6275
0.5451 0.5451 0.5451
0.6275 0.6275 0.6275
0.6275 0.6275 0.6275
0.6275 0.6275 0.6275
0.6275 0.6275 0.6275
0.6235 0.6235 0.6235
0.6235 0.6235 0.6235
0.6235 0.6235 0.6235
0.0824 0.0824 0.0824
0.0863 0.0863 0.0863
0.0863 0.0863 0.0863
0.1686 0.1686 0.1686
0.2588 0.2588 0.2588
0.3490 0.3490 0.3490
0.4471 0.4471 0.4471
0.5490 0.5490 0.5490
0.0863 0.0863 0.0863
0.1686 0.1686 0.1686
0.1725 0.1725 0.1725
0.2588 0.2588 0.2588
0.3451 0.3451 0.3451
0.4471 0.4471 0.4471
0.5451 0.5451 0.5451
0.6196 0.6196 0.6196
0.0863 0.0863 0.0863
0.1725 0.1725 0.1725
0.2588 0.2588 0.2588
0.3490 0.3490 0.3490
0.4510 0.4510 0.4510
0.5451 0.5451 0.5451
0.6235 0.6235 0.6235
0.6863 0.6863 0.6863
0.1725 0.1725 0.1725
0.2510 0.2510 0.2510
0.3490 0.3490 0.3490
0.3490 0.3490 0.3490
0.4510 0.4510 0.4510
0.5451 0.5451 0.5451
0.6235 0.6235 0.6235
0.6824 0.6824 0.6824
0.2588 0.2588 0.2588
0.3490 0.3490 0.3490
0.4510 0.4510 0.4510
0.4510 0.4510 0.4510
0.4549 0.4549 0.4549
0.5490 0.5490 0.5490
0.6235 0.6235 0.6235
0.6863 0.6863 0.6863
0.3529 0.3529 0.3529
0.4510 0.4510 0.4510
0.5451 0.5451 0.5451
0.5451 0.5451 0.5451
0.5451 0.5451 0.5451
0.5451 0.5451 0.5451
0.6235 0.6235 0.6235
0.6824 0.6824 0.6824
0.4471 0.4471 0.4471
0.5451 0.5451 0.5451
0.6235 0.6235 0.6235
0.6235 0.6235 0.6235
0.6275 0.6275 0.6275
0.6275 0.6275 0.6275
0.6235 0.6235 0.6235
0.6863 0.6863 0.6863
0.5451 0.5451 0.5451
0.6275 0.6275 0.6275
0.6824 0.6824 0.6824
0.6863 0.6863 0.6863
0.6824 0.6824 0.6824
0.6863 0.6863 0.6863
0.6824 0.6824 0.6824
0.6863 0.6863 0.6863
0.1725 0.1725 0.1725
0.1647 0.1647 0.1647
0.1647 0.1647 0.1647
0.1725 0.1725 0.1725
0.2549 0.2549 0.2549
0.3529 0.3529 0.3529
0.4510 0.4510 0.4510
0.5451 0.5451 0.5451
0.1647 0.1647 0.1647
0.2549 0.2549 0.2549
0.2510 0.2510 0.2510
0.2510 0.2510 0.2510
0.3490 0.3490 0.3490
0.4510 0.4510 0.4510
0.5412 0.5412 0.5412
0.6275 0.6275 0.6275
0.1647 0.1647 0.1647
0.2588 0.2588 0.2588
0.3490 0.3490 0.3490
0.3529 0.3529 0.3529
0.4471 0.4471 0.4471
0.5451 0.5451 0.5451
0.6235 0.6235 0.6235
0.6863 0.6863 0.6863
0.1686 0.1686 0.1686
0.2627 0.2627 0.2627
0.3529 0.3529 0.3529
0.4471 0.4471 0.4471
0.5412 0.5412 0.5412
0.6314 0.6314 0.6314
0.6824 0.6824 0.6824
0.7373 0.7373 0.7373
0.2627 0.2627 0.2627
0.3529 0.3529 0.3529
0.4471 0.4471 0.4471
0.5451 0.5451 0.5451
0.5451 0.5451 0.5451
0.6275 0.6275 0.6275
0.6863 0.6863 0.6863
0.7373 0.7373 0.7373
0.3490 0.3490 0.3490
0.4510 0.4510 0.4510
0.5451 0.5451 0.5451
0.6275 0.6275 0.6275
0.6235 0.6235 0.6235
0.6314 0.6314 0.6314
0.6824 0.6824 0.6824
0.7373 0.7373 0.7373
0.4510 0.4510 0.4510
0.5451 0.5451 0.5451
0.6275 0.6275 0.6275
0.6863 0.6863 0.6863
0.6863 0.6863 0.6863
0.6902 0.6902 0.6902
0.6863 0.6863 0.6863
0.7412 0.7412 0.7412
0.5451 0.5451 0.5451
0.6275 0.6275 0.6275
0.6824 0.6824 0.6824
0.7373 0.7373 0.7373
0.7412 0.7412 0.7412
0.7412 0.7412 0.7412
0.7333 0.7333 0.7333
0.7373 0.7373 0.7373
0.2588 0.2588 0.2588
0.2588 0.2588 0.2588
0.2588 0.2588 0.2588
0.2627 0.2627 0.2627
0.2667 0.2667 0.2667
0.3529 0.3529 0.3529
0.4471 0.4471 0.4471
0.5451 0.5451 0.5451
0.2549 0.2549 0.2549
0.3490 0.3490 0.3490
0.3490 0.3490 0.3490
0.3490 0.3490 0.3490
0.3490 0.3490 0.3490
0.4510 0.4510 0.4510
0.5451 0.5451 0.5451
0.6275 0.6275 0.6275
0.2549 0.2549 0.2549
0.3647 0.3647 0.3647
0.4471 0.4471 0.4471
0.4471 0.4471 0.4471
0.4471 0.4471 0.4471
0.5451 0.5451 0.5451
0.6275 0.6275 0.6275
0.6824 0.6824 0.6824
0.2549 0.2549 0.2549
0.3490 0.3490 0.3490
0.4510 0.4510 0.4510
0.5490 0.5490 0.5490
0.5490 0.5490 0.5490
0.6314 0.6314 0.6314
0.6824 0.6824 0.6824
0.7373 0.7373 0.7373
0.2588 0.2588 0.2588
0.3490 0.3490 0.3490
0.4510 0.4510 0.4510
0.5490 0.5490 0.5490
0.6275 0.6275 0.6275
0.6863 0.6863 0.6863
0.7373 0.7373 0.7373
0.7765 0.7765 0.7765
0.3529 0.3529 0.3529
0.4510 0.4510 0.4510
0.5529 0.5529 0.5529
0.6275 0.6275 0.6275
0.6863 0.6863 0.6863
0.6863 0.6863 0.6863
0.7412 0.7412 0.7412
0.7725 0.7725 0.7725
0.4510 0.4510 0.4510
0.5451 0.5451 0.5451
0.6275 0.6275 0.6275
0.6863 0.6863 0.6863
0.7373 0.7373 0.7373
0.7412 0.7412 0.7412
0.7412 0.7412 0.7412
0.7765 0.7765 0.7765
0.5412 0.5412 0.5412
0.6275 0.6275 0.6275
0.6863 0.6863 0.6863
0.7412 0.7412 0.7412
0.7765 0.7765 0.7765
0.7765 0.7765 0.7765
0.7765 0.7765 0.7765
0.7765 0.7765 0.7765
0.3529 0.3529 0.3529
0.3490 0.3490 0.3490
0.3490 0.3490 0.3490
0.3569 0.3569 0.3569
0.3451 0.3451 0.3451
0.3490 0.3490 0.3490
0.4471 0.4471 0.4471
0.5451 0.5451 0.5451
0.3490 0.3490 0.3490
0.4471 0.4471 0.4471
0.4471 0.4471 0.4471
0.4510 0.4510 0.4510
0.4549 0.4549 0.4549
0.4549 0.4549 0.4549
0.5451 0.5451 0.5451
0.6235 0.6235 0.6235
0.3490 0.3490 0.3490
0.4510 0.4510 0.4510
0.5451 0.5451 0.5451
0.5451 0.5451 0.5451
0.5451 0.5451 0.5451
0.5490 0.5490 0.5490
0.6235 0.6235 0.6235
0.6863 0.6863 0.6863
0.3451 0.3451 0.3451
0.4549 0.4549 0.4549
0.5451 0.5451 0.5451
0.6275 0.6275 0.6275
0.6275 0.6275 0.6275
0.6275 0.6275 0.6275
0.6863 0.6863 0.6863
0.7333 0.7333 0.7333
0.3529 0.3529 0.3529
0.4471 0.4471 0.4471
0.5451 0.5451 0.5451
0.6275 0.6275 0.6275
0.6863 0.6863 0.6863
0.6863 0.6863 0.6863
0.7412 0.7412 0.7412
0.7765 0.7765 0.7765
0.3529 0.3529 0.3529
0.4510 0.4510 0.4510
0.5451 0.5451 0.5451
0.6275 0.6275 0.6275
0.6863 0.6863 0.6863
0.7412 0.7412 0.7412
0.7725 0.7725 0.7725
0.8039 0.8039 0.8039
0.4549 0.4549 0.4549
0.5412 0.5412 0.5412
0.6235 0.6235 0.6235
0.6863 0.6863 0.6863
0.7373 0.7373 0.7373
0.7765 0.7765 0.7765
0.7765 0.7765 0.7765
0.8039 0.8039 0.8039
0.5451 0.5451 0.5451
0.6275 0.6275 0.6275
0.6863 0.6863 0.6863
0.7412 0.7412 0.7412
0.7725 0.7725 0.7725
0.8039 0.8039 0.8039
0.8000 0.8000 0.8000
0.8039 0.8039 0.8039
0.4510 0.4510 0.4510
0.4471 0.4471 0.4471
0.4471 0.4471 0.4471
0.4471 0.4471 0.4471
0.4471 0.4471 0.4471
0.4510 0.4510 0.4510
0.4471 0.4471 0.4471
0.5451 0.5451 0.5451
0.4471 0.4471 0.4471
0.5451 0.5451 0.5451
0.5451 0.5451 0.5451
0.5412 0.5412 0.5412
0.5373 0.5373 0.5373
0.5451 0.5451 0.5451
0.5451 0.5451 0.5451
0.6196 0.6196 0.6196
0.4471 0.4471 0.4471
0.5451 0.5451 0.5451
0.6235 0.6235 0.6235
0.6235 0.6235 0.6235
0.6235 0.6235 0.6235
0.6275 0.6275 0.6275
0.6235 0.6235 0.6235
0.6863 0.6863 0.6863
0.4471 0.4471 0.4471
0.5451 0.5451 0.5451
0.6196 0.6196 0.6196
0.6863 0.6863 0.6863
0.6824 0.6824 0.6824
0.6824 0.6824 0.6824
0.6824 0.6824 0.6824
0.7412 0.7412 0.7412
0.4471 0.4471 0.4471
0.5451 0.5451 0.5451
0.6235 0.6235 0.6235
0.6902 0.6902 0.6902
0.7373 0.7373 0.7373
0.7412 0.7412 0.7412
0.7412 0.7412 0.7412
0.7765 0.7765 0.7765
0.4392 0.4392 0.4392
0.5451 0.5451 0.5451
0.6275 0.6275 0.6275
0.6863 0.6863 0.6863
0.7373 0.7373 0.7373
0.7765 0.7765 0.7765
0.7765 0.7765 0.7765
0.8039 0.8039 0.8039
0.4510 0.4510 0.4510
0.5451 0.5451 0.5451
0.6235 0.6235 0.6235
0.6863 0.6863 0.6863
0.7412 0.7412 0.7412
0.7765 0.7765 0.7765
0.8039 0.8039 0.8039
0.8235 0.8235 0.8235
0.5451 0.5451 0.5451
0.6235 0.6235 0.6235
0.6824 0.6824 0.6824
0.7412 0.7412 0.7412
0.7765 0.7765 0.7765
0.8039 0.8039 0.8039
0.8235 0.8235 0.8235
0.8235 0.8235 0.8235
0.5451 0.5451 0.5451
0.5451 0.5451 0.5451
0.5451 0.5451 0.5451
0.5451 0.5451 0.5451
0.5451 0.5451 0.5451
0.5490 0.5490 0.5490
0.5451 0.5451 0.5451
0.5451 0.5451 0.5451
0.5490 0.5490 0.5490
0.6235 0.6235 0.6235
0.6275 0.6275 0.6275
0.6235 0.6235 0.6235
0.6275 0.6275 0.6275
0.6275 0.6275 0.6275
0.6235 0.6235 0.6235
0.6275 0.6275 0.6275
0.5490 0.5490 0.5490
0.6275 0.6275 0.6275
0.6863 0.6863 0.6863
0.6863 0.6863 0.6863
0.6824 0.6824 0.6824
0.6824 0.6824 0.6824
0.6863 0.6863 0.6863
0.6863 0.6863 0.6863
0.5412 0.5412 0.5412
0.6196 0.6196 0.6196
0.6863 0.6863 0.6863
0.7373 0.7373 0.7373
0.7373 0.7373 0.7373
0.7373 0.7373 0.7373
0.7333 0.7333 0.7333
0.7333 0.7333 0.7333
0.5412 0.5412 0.5412
0.6235 0.6235 0.6235
0.6824 0.6824 0.6824
0.7412 0.7412 0.7412
0.7804 0.7804 0.7804
0.7725 0.7725 0.7725
0.7765 0.7765 0.7765
0.7765 0.7765 0.7765
0.5451 0.5451 0.5451
0.6235 0.6235 0.6235
0.6863 0.6863 0.6863
0.7412 0.7412 0.7412
0.7725 0.7725 0.7725
0.8039 0.8039 0.8039
0.8039 0.8039 0.8039
0.8039 0.8039 0.8039
0.5490 0.5490 0.5490
0.6275 0.6275 0.6275
0.6902 0.6902 0.6902
0.7373 0.7373 0.7373
0.7725 0.7725 0.7725
0.8039 0.8039 0.8039
0.8235 0.8235 0.8235
0.8235 0.8235 0.8235
0.5451 0.5451 0.5451
0.6235 0.6235 0.6235
0.6863 0.6863 0.6863
0.7373 0.7373 0.7373
0.7765 0.7765 0.7765
0.8039 0.8039 0.8039
0.8235 0.8235 0.8235
0.8392 0.8392 0.8392
