examples/graphics/lutFilterExample/bin/data/LUTs/Lomo-fi.cube
TITLE "Lomo-fi"
LUT_3D_SIZE 32
0.0000 0.0000 0.0000
0.0078 0.0000 0.0000
0.0118 0.0000 0.0000
0.0235 0.0000 0.0000
0.0353 0.0000 0.0000
0.0471 0.0000 0.0000
0.0667 0.0000 0.0000
0.1020 0.0000 0.0000
0.1451 0.0000 0.0000
0.1922 0.0000 0.0000
0.2667 0.0039 0.0000
0.3686 0.0000 0.0000
0.5059 0.0000 0.0000
0.6039 0.0000 0.0000
0.6824 0.0000 0.0000
0.7490 0.0000 0.0000
0.8078 0.0000 0.0000
0.8392 0.0000 0.0039
0.8745 0.0000 0.0000
0.9020 0.0000 0.0000
0.9216 0.0000 0.0000
0.9412 0.0000 0.0039
0.9569 0.0000 0.0000
0.9647 0.0000 0.0000
0.9725 0.0000 0.0000
0.9804 0.0000 0.0000
0.9843 0.0000 0.0000
0.9922 0.0000 0.0000
0.9922 0.0000 0.0000
0.9961 0.0000 0.0000
1.0000 0.0000 0.0000
1.0000 0.0000 0.0000
0.0000 0.0039 0.0000
0.0039 0.0039 0.0000
0.0078 0.0039 0.0000
0.0196 0.0039 0.0000
0.0314 0.0039 0.0000
0.0431 0.0039 0.0039
0.0667 0.0039 0.0000
0.0980 0.0039 0.0000
0.1333 0.0039 0.0000
0.1922 0.0039 0.0000
0.2627 0.0039 0.0000
0.3608 0.0000 0.0000
0.4902 0.0039 0.0000
0.5922 0.0039 0.0000
0.6784 0.0039 0.0039
0.7490 0.0039 0.0000
0.8000 0.0039 0.0000
0.8314 0.0078 0.0039
0.8667 0.0039 0.0000
0.8941 0.0039 0.0000
0.9137 0.0039 0.0000
0.9333 0.0039 0.0039
0.9529 0.0078 0.0039
0.9608 0.0039 0.0000
0.9765 0.0039 0.0000
0.9804 0.0039 0.0000
0.9882 0.0039 0.0000
0.9922 0.0039 0.0000
0.9922 0.0039 0.0000
0.9961 0.0039 0.0000
1.0000 0.0039 0.0000
1.0000 0.0039 0.0039
0.0000 0.0118 0.0000
0.0078 0.0118 0.0039
0.0118 0.0118 0.0039
0.0235 0.0118 0.0000
0.0353 0.0118 0.0039
0.0431 0.0118 0.0039
0.0706 0.0118 0.0039
0.1020 0.0118 0.0039
0.1333 0.0118 0.0000
0.2000 0.0118 0.0000
0.2706 0.0118 0.0000
0.3647 0.0078 0.0000
0.4941 0.0157 0.0000
0.6000 0.0118 0.0039
0.6863 0.0118 0.0039
0.7490 0.0078 0.0000
0.8039 0.0118 0.0000
0.8353 0.0118 0.0039
0.8745 0.0118 0.0039
0.8980 0.0118 0.0000
0.9216 0.0118 0.0039
0.9373 0.0118 0.0039
0.9529 0.0118 0.0000
0.9608 0.0118 0.0000
0.9725 0.0118 0.0000
0.9804 0.0118 0.0000
0.9882 0.0118 0.0000
0.9922 0.0118 0.0000
0.9922 0.0118 0.0000
0.9961 0.0118 0.0000
1.0000 0.0118 0.0000
1.0000 0.0078 0.0000
0.0000 0.0196 0.0000
0.0078 0.0196 0.0000
0.0118 0.0196 0.0000
0.0235 0.0196 0.0000
0.0353 0.0196 0.0000
0.0471 0.0196 0.0039
0.0706 0.0196 0.0000
0.1020 0.0196 0.0000
0.1412 0.0196 0.0000
0.2039 0.0196 0.0000
0.2745 0.0196 0.0000
0.3647 0.0235 0.0000
0.5020 0.0235 0.0000
0.6157 0.0196 0.0039
0.6902 0.0196 0.0039
0.7412 0.0196 0.0000
0.8078 0.0196 0.0000
0.8392 0.0196 0.0000
0.8745 0.0196 0.0000
0.9020 0.0196 0.0000
0.9216 0.0196 0.0000
0.9412 0.0196 0.0000
0.9569 0.0196 0.0000
0.9647 0.0196 0.0000
0.9725 0.0235 0.0000
0.9765 0.0196 0.0000
0.9843 0.0196 0.0000
0.9922 0.0196 0.0000
0.9922 0.0196 0.0000
0.9961 0.0196 0.0000
1.0000 0.0235 0.0000
1.0000 0.0196 0.0000
0.0000 0.0314 0.0000
0.0000 0.0314 0.0000
0.0078 0.0314 0.0000
0.0196 0.0353 0.0000
0.0314 0.0314 0.0000
0.0431 0.0314 0.0039
0.0667 0.0353 0.0039
0.0980 0.0314 0.0000
0.1373 0.0314 0.0000
0.1961 0.0314 0.0000
0.2667 0.0314 0.0000
0.3608 0.0314 0.0000
0.4941 0.0314 0.0000
0.6039 0.0275 0.0000
0.6824 0.0314 0.0039
0.7373 0.0353 0.0000
0.8039 0.0314 0.0000
0.8353 0.0314 0.0000
0.8706 0.0314 0.0000
0.8980 0.0314 0.0000
0.9176 0.0314 0.0000
0.9373 0.0314 0.0000
0.9529 0.0314 0.0000
0.9608 0.0314 0.0000
0.9725 0.0314 0.0000
0.9804 0.0314 0.0000
0.9882 0.0314 0.0000
0.9922 0.0314 0.0000
0.9922 0.0314 0.0000
0.9961 0.0314 0.0000
1.0000 0.0314 0.0000
1.0000 0.0314 0.0000
0.0000 0.0471 0.0000
0.0039 0.0471 0.0039
0.0118 0.0471 0.0039
0.0235 0.0471 0.0039
0.0353 0.0471 0.0000
0.0431 0.0471 0.0039
0.0706 0.0510 0.0039
0.1020 0.0471 0.0039
0.1333 0.0510 0.0039
0.1961 0.0471 0.0000
0.2706 0.0471 0.0039
0.3647 0.0471 0.0000
0.4902 0.0471 0.0000
0.5961 0.0471 0.0000
0.6784 0.0471 0.0039
0.7451 0.0510 0.0039
0.8000 0.0431 0.0000
0.8353 0.0471 0.0000
0.8706 0.0471 0.0000
0.8980 0.0471 0.0000
0.9176 0.0471 0.0039
0.9373 0.0471 0.0000
0.9529 0.0471 0.0000
0.9608 0.0431 0.0000
0.9725 0.0471 0.0039
0.9804 0.0471 0.0000
0.9882 0.0471 0.0039
0.9922 0.0471 0.0039
0.9922 0.0471 0.0000
0.9961 0.0471 0.0000
1.0000 0.0471 0.0039
1.0000 0.0471 0.0039
0.0000 0.0667 0.0000
0.0039 0.0627 0.0000
0.0078 0.0667 0.0000
0.0235 0.0667 0.0000
0.0353 0.0667 0.0000
0.0431 0.0667 0.0000
0.0667 0.0706 0.0000
0.0980 0.0627 0.0000
0.1373 0.0706 0.0000
0.1922 0.0667 0.0000
0.2706 0.0667 0.0000
0.3686 0.0667 0.0000
0.4980 0.0706 0.0000
0.5922 0.0667 0.0000
0.6745 0.0667 0.0000
0.7451 0.0667 0.0000
0.8039 0.0667 0.0000
0.8353 0.0706 0.0039
0.8706 0.0667 0.0000
0.8980 0.0667 0.0000
0.9176 0.0667 0.0000
0.9373 0.0667 0.0000
0.9529 0.0706 0.0000
0.9608 0.0706 0.0000
0.9725 0.0706 0.0000
0.9765 0.0667 0.0000
0.9843 0.0667 0.0000
0.9882 0.0706 0.0000
0.9882 0.0667 0.0000
0.9922 0.0667 0.0000
0.9961 0.0706 0.0000
1.0000 0.0667 0.0000
0.0000 0.0980 0.0000
0.0039 0.0941 0.0000
0.0118 0.0980 0.0039
0.0235 0.0980 0.0039
0.0314 0.0980 0.0000
0.0431 0.0980 0.0039
0.0667 0.1020 0.0039
0.1020 0.0941 0.0000
0.1490 0.0980 0.0039
0.1961 0.0980 0.0000
0.2627 0.0980 0.0000
0.3725 0.0941 0.0039
0.5059 0.0980 0.0039
0.6039 0.0980 0.0000
0.6784 0.0980 0.0000
0.7412 0.0980 0.0000
0.8039 0.0941 0.0000
0.8353 0.0980 0.0039
0.8706 0.0941 0.0039
0.8980 0.0941 0.0000
0.9216 0.0980 0.0039
0.9373 0.0941 0.0039
0.9529 0.0941 0.0039
0.9608 0.0941 0.0000
0.9765 0.0980 0.0000
0.9804 0.0980 0.0000
0.9882 0.0980 0.0039
0.9922 0.0980 0.0000
0.9961 0.0941 0.0000
0.9961 0.0980 0.0000
1.0000 0.0980 0.0039
1.0000 0.0941 0.0000
0.0039 0.1373 0.0000
0.0039 0.1373 0.0039
0.0157 0.1373 0.0039
0.0196 0.1373 0.0000
0.0314 0.1373 0.0000
0.0471 0.1373 0.0039
0.0706 0.1294 0.0000
0.0980 0.1333 0.0000
0.1412 0.1333 0.0000
0.2000 0.1373 0.0078
0.2627 0.1373 0.0000
0.3686 0.1451 0.0039
0.4941 0.1373 0.0000
0.5961 0.1373 0.0000
0.6745 0.1412 0.0000
0.7490 0.1451 0.0039
0.8039 0.1333 0.0000
0.8431 0.1373 0.0039
0.8706 0.1373 0.0000
0.8902 0.1412 0.0000
0.9176 0.1412 0.0000
0.9373 0.1373 0.0039
0.9529 0.1373 0.0039
0.9647 0.1373 0.0039
0.9765 0.1373 0.0039
0.9765 0.1333 0.0000
0.9882 0.1373 0.0000
0.9922 0.1373 0.0039
0.9922 0.1333 0.0000
1.0000 0.1373 0.0039
1.0000 0.1412 0.0039
1.0000 0.1373 0.0000
0.0000 0.2000 0.0000
0.0078 0.1961 0.0000
0.0039 0.1961 0.0000
0.0196 0.2078 0.0000
0.0235 0.1882 0.0000
0.0510 0.2039 0.0039
0.0627 0.1961 0.0000
0.0980 0.1922 0.0000
0.1373 0.1961 0.0039
0.1843 0.1882 0.0000
0.2667 0.2000 0.0039
0.3686 0.1961 0.0000
0.5059 0.1961 0.0078
0.5922 0.1882 0.0000
0.6745 0.2039 0.0000
0.7373 0.1961 0.0000
0.8000 0.1961 0.0000
0.8431 0.1961 0.0000
0.8706 0.1922 0.0000
0.8980 0.1961 0.0000
0.9216 0.1961 0.0000
0.9412 0.1922 0.0000
0.9529 0.1961 0.0000
0.9608 0.1961 0.0000
0.9686 0.1922 0.0000
0.9765 0.1961 0.0000
0.9843 0.1961 0.0000
0.9882 0.1961 0.0000
0.9961 0.2000 0.0039
1.0000 0.2000 0.0078
0.9961 0.1961 0.0000
1.0000 0.1961 0.0039
0.0000 0.2706 0.0000
0.0039 0.2588 0.0000
0.0118 0.2745 0.0039
0.0118 0.2706 0.0000
0.0353 0.2706 0.0000
0.0431 0.2706 0.0000
0.0706 0.2784 0.0078
0.1020 0.2706 0.0039
0.1412 0.2706 0.0039
0.1961 0.2667 0.0039
0.2667 0.2745 0.0039
0.3569 0.2706 0.0000
0.4941 0.2706 0.0000
0.5961 0.2706 0.0000
0.6824 0.2784 0.0039
0.7490 0.2667 0.0000
0.8078 0.2745 0.0000
0.8431 0.2706 0.0000
0.8667 0.2745 0.0000
0.8941 0.2824 0.0000
0.9216 0.2824 0.0039
0.9373 0.2706 0.0000
0.9529 0.2706 0.0000
0.9686 0.2706 0.0000
0.9725 0.2706 0.0000
0.9804 0.2706 0.0000
0.9843 0.2706 0.0000
0.9922 0.2706 0.0000
0.9922 0.2667 0.0000
0.9961 0.2706 0.0000
1.0000 0.2706 0.0000
1.0000 0.2706 0.0000
0.0000 0.3647 0.0000
0.0039 0.3725 0.0039
0.0118 0.3686 0.0000
0.0314 0.3804 0.0118
0.0275 0.3686 0.0000
0.0471 0.3725 0.0078
0.0627 0.3569 0.0000
0.0980 0.3686 0.0000
0.1333 0.3725 0.0000
0.1882 0.3647 0.0000
0.2627 0.3725 0.0000
0.3686 0.3765 0.0000
0.5020 0.3686 0.0039
0.6000 0.3686 0.0000
0.6706 0.3725 0.0000
0.7451 0.3686 0.0000
0.7961 0.3647 0.0000
0.8431 0.3686 0.0078
0.8706 0.3686 0.0039
0.8902 0.3647 0.0000
0.9176 0.3608 0.0000
0.9412 0.3647 0.0039
0.9569 0.3686 0.0078
0.9569 0.3608 0.0000
0.9725 0.3686 0.0000
0.9804 0.3686 0.0000
0.9843 0.3686 0.0000
0.9922 0.3686 0.0000
0.9922 0.3647 0.0000
0.9961 0.3647 0.0000
1.0000 0.3686 0.0000
1.0000 0.3686 0.0000
0.0039 0.5020 0.0000
0.0039 0.4980 0.0000
0.0118 0.4980 0.0000
0.0196 0.4980 0.0000
0.0275 0.4980 0.0000
0.0392 0.4941 0.0000
0.0667 0.4941 0.0000
0.1020 0.5059 0.0039
0.1373 0.5020 0.0039
0.1922 0.4941 0.0039
0.2706 0.5059 0.0078
0.3647 0.4980 0.0000
0.4980 0.4902 0.0000
0.6000 0.4941 0.0000
0.6824 0.5059 0.0078
0.7451 0.4941 0.0000
0.8000 0.5098 0.0000
0.8353 0.5020 0.0000
0.8627 0.4980 0.0000
0.8941 0.5059 0.0000
0.9216 0.5059 0.0000
0.9333 0.4941 0.0000
0.9490 0.4980 0.0000
0.9608 0.5059 0.0000
0.9725 0.4980 0.0039
0.9804 0.5020 0.0078
0.9882 0.4980 0.0039
0.9961 0.4980 0.0039
0.9922 0.4941 0.0000
0.9961 0.4941 0.0000
1.0000 0.4941 0.0039
1.0000 0.4941 0.0000
0.0000 0.6039 0.0000
0.0078 0.5961 0.0000
0.0118 0.6000 0.0000
0.0196 0.6039 0.0000
0.0314 0.5961 0.0000
0.0471 0.6000 0.0000
0.0667 0.6039 0.0000
0.0980 0.6000 0.0000
0.1451 0.6000 0.0039
0.1961 0.5922 0.0000
0.2627 0.6000 0.0000
0.3725 0.6078 0.0039
0.5059 0.6000 0.0078
0.6039 0.5961 0.0000
0.6784 0.5961 0.0000
0.7529 0.5961 0.0000
0.8000 0.5922 0.0000
0.8392 0.5961 0.0039
0.8706 0.5961 0.0000
0.8902 0.5961 0.0000
0.9176 0.5961 0.0000
0.9412 0.5922 0.0000
0.9569 0.5922 0.0039
0.9608 0.5882 0.0000
0.9725 0.5961 0.0000
0.9765 0.5961 0.0000
0.9843 0.5961 0.0000
0.9922 0.6000 0.0000
0.9882 0.5922 0.0000
0.9961 0.5961 0.0000
1.0000 0.6000 0.0039
1.0000 0.6000 0.0000
0.0000 0.6824 0.0000
0.0078 0.6745 0.0000
0.0078 0.6745 0.0000
0.0157 0.6824 0.0039
0.0314 0.6667 0.0000
0.0471 0.6784 0.0039
0.0667 0.6824 0.0039
0.0980 0.6784 0.0000
0.1333 0.6824 0.0000
0.2000 0.6824 0.0039
0.2667 0.6784 0.0000
0.3725 0.6745 0.0000
0.5059 0.6706 0.0000
0.6078 0.6784 0.0039
0.6745 0.6784 0.0000
0.7451 0.6784 0.0000
0.7961 0.6824 0.0000
0.8392 0.6824 0.0039
0.8706 0.6784 0.0000
0.8980 0.6784 0.0000
0.9255 0.6784 0.0000
0.9412 0.6745 0.0000
0.9529 0.6824 0.0039
0.9608 0.6784 0.0039
0.9765 0.6784 0.0000
0.9765 0.6745 0.0000
0.9843 0.6784 0.0000
0.9961 0.6824 0.0000
0.9882 0.6745 0.0000
0.9961 0.6784 0.0000
1.0000 0.6824 0.0039
1.0000 0.6745 0.0000
0.0000 0.7451 0.0000
0.0039 0.7490 0.0000
0.0118 0.7451 0.0000
0.0235 0.7451 0.0000
0.0314 0.7451 0.0000
0.0471 0.7451 0.0039
0.0706 0.7451 0.0000
0.0980 0.7490 0.0000
0.1333 0.7451 0.0000
0.1922 0.7412 0.0000
0.2667 0.7529 0.0078
0.3569 0.7451 0.0000
0.5020 0.7451 0.0078
0.5922 0.7412 0.0000
0.6745 0.7490 0.0000
0.7412 0.7412 0.0000
0.8000 0.7490 0.0000
0.8392 0.7451 0.0000
0.8667 0.7451 0.0000
0.8941 0.7490 0.0000
0.9216 0.7490 0.0000
0.9412 0.7451 0.0000
0.9529 0.7490 0.0039
0.9647 0.7451 0.0039
0.9725 0.7451 0.0000
0.9804 0.7451 0.0000
0.9843 0.7451 0.0000
0.9922 0.7451 0.0000
0.9922 0.7451 0.0000
1.0000 0.7490 0.0039
0.9961 0.7451 0.0000
1.0000 0.7451 0.0000
0.0000 0.8000 0.0000
0.0039 0.8000 0.0000
0.0078 0.8000 0.0000
0.0196 0.8000 0.0000
0.0314 0.7961 0.0000
0.0471 0.8039 0.0000
0.0667 0.8000 0.0000
0.1020 0.8000 0.0000
0.1412 0.7961 0.0000
0.2000 0.8000 0.0000
0.2706 0.8039 0.0039
0.3686 0.7922 0.0000
0.5059 0.7961 0.0000
0.6157 0.8039 0.0039
0.6824 0.8000 0.0000
0.7333 0.8039 0.0000
0.8000 0.8000 0.0000
0.8392 0.8000 0.0000
0.8745 0.8000 0.0039
0.8980 0.8000 0.0000
0.9255 0.8000 0.0000
0.9373 0.7961 0.0000
0.9529 0.8000 0.0000
0.9647 0.8000 0.0000
0.9725 0.8000 0.0000
0.9804 0.8039 0.0000
0.9843 0.8000 0.0000
0.9922 0.8000 0.0000
0.9922 0.8000 0.0000
0.9961 0.8000 0.0000
1.0000 0.8000 0.0000
1.0000 0.8039 0.0000
0.0000 0.8353 0.0000
0.0039 0.8392 0.0000
0.0078 0.8392 0.0039
0.0196 0.8392 0.0039
0.0353 0.8392 0.0039
0.0471 0.8431 0.0039
0.0627 0.8392 0.0000
0.0980 0.8392 0.0039
0.1412 0.8431 0.0039
0.1922 0.8392 0.0000
0.2627 0.8431 0.0039
0.3608 0.8392 0.0000
0.4941 0.8392 0.0000
0.6000 0.8353 0.0000
0.6784 0.8314 0.0000
0.7451 0.8392 0.0039
0.8000 0.8431 0.0039
0.8353 0.8392 0.0039
0.8706 0.8392 0.0039
0.8941 0.8392 0.0000
0.9255 0.8392 0.0039
0.9412 0.8392 0.0039
0.9529 0.8431 0.0039
0.9647 0.8392 0.0039
0.9725 0.8392 0.0039
0.9804 0.8392 0.0039
0.9843 0.8392 0.0000
0.9922 0.8392 0.0039
0.9922 0.8392 0.0000
1.0000 0.8392 0.0039
1.0000 0.8392 0.0039
1.0000 0.8392 0.0039
0.0000 0.8706 0.0000
0.0039 0.8706 0.0000
0.0078 0.8706 0.0000
0.0157 0.8706 0.0000
0.0314 0.8706 0.0000
0.0431 0.8745 0.0000
0.0627 0.8706 0.0000
0.0980 0.8706 0.0000
0.1333 0.8706 0.0000
0.1961 0.8706 0.0000
0.2706 0.8706 0.0000
0.3686 0.8667 0.0000
0.5020 0.8706 0.0000
0.6039 0.8706 0.0000
0.6824 0.8706 0.0000
0.7490 0.8745 0.0039
0.8000 0.8706 0.0000
0.8353 0.8706 0.0000
0.8706 0.8706 0.0000
0.8941 0.8706 0.0000
0.9216 0.8706 0.0000
0.9373 0.8706 0.0000
0.9490 0.8745 0.0000
0.9608 0.8706 0.0000
0.9725 0.8706 0.0000
0.9765 0.8706 0.0000
0.9843 0.8706 0.0000
0.9922 0.8706 0.0000
0.9882 0.8667 0.0000
0.9961 0.8706 0.0000
1.0000 0.8745 0.0000
1.0000 0.8706 0.0000
0.0000 0.8980 0.0000
0.0078 0.8980 0.0000
0.0118 0.8980 0.0000
0.0196 0.8980 0.0000
0.0353 0.8941 0.0000
0.0471 0.8980 0.0000
0.0667 0.8980 0.0000
0.1020 0.8980 0.0039
0.1333 0.8980 0.0000
0.2000 0.8980 0.0000
0.2745 0.8980 0.0039
0.3686 0.8941 0.0000
0.4941 0.8980 0.0000
0.5961 0.9020 0.0000
0.6706 0.8980 0.0000
0.7333 0.8980 0.0000
0.8039 0.8980 0.0000
0.8392 0.8980 0.0039
0.8745 0.8980 0.0039
0.8980 0.8980 0.0000
0.9216 0.8980 0.0000
0.9373 0.8980 0.0000
0.9490 0.8980 0.0000
0.9647 0.8980 0.0000
0.9765 0.8980 0.0000
0.9804 0.8980 0.0000
0.9882 0.8980 0.0000
0.9961 0.9020 0.0000
0.9922 0.8941 0.0000
1.0000 0.8980 0.0000
1.0000 0.8980 0.0039
1.0000 0.8980 0.0000
0.0000 0.9176 0.0000
0.0039 0.9176 0.0000
0.0078 0.9216 0.0000
0.0196 0.9216 0.0000
0.0353 0.9176 0.0039
0.0471 0.9216 0.0039
0.0667 0.9176 0.0000
0.0980 0.9176 0.0000
0.1451 0.9137 0.0000
0.2000 0.9137 0.0000
0.2706 0.9137 0.0000
0.3647 0.9176 0.0000
0.4902 0.9216 0.0000
0.5922 0.9216 0.0000
0.6745 0.9176 0.0000
0.7490 0.9176 0.0039
0.8000 0.9176 0.0000
0.8392 0.9176 0.0039
0.8706 0.9216 0.0039
0.8941 0.9216 0.0000
0.9176 0.9176 0.0000
0.9333 0.9176 0.0000
0.9490 0.9216 0.0000
0.9608 0.9216 0.0039
0.9725 0.9216 0.0039
0.9765 0.9176 0.0000
0.9843 0.9176 0.0000
0.9882 0.9216 0.0000
0.9922 0.9176 0.0000
0.9961 0.9216 0.0039
1.0000 0.9216 0.0039
1.0000 0.9176 0.0000
0.0000 0.9373 0.0000
0.0078 0.9373 0.0000
0.0078 0.9373 0.0000
0.0196 0.9373 0.0000
0.0353 0.9373 0.0000
0.0471 0.9412 0.0039
0.0667 0.9373 0.0000
0.1020 0.9373 0.0000
0.1333 0.9373 0.0000
0.1922 0.9412 0.0000
0.2627 0.9412 0.0039
0.3608 0.9373 0.0000
0.4902 0.9412 0.0000
0.5961 0.9373 0.0000
0.6784 0.9373 0.0000
0.7451 0.9373 0.0039
0.8039 0.9373 0.0000
0.8392 0.9373 0.0000
0.8706 0.9373 0.0000
0.8941 0.9412 0.0000
0.9176 0.9373 0.0000
0.9373 0.9373 0.0000
0.9490 0.9373 0.0000
0.9647 0.9373 0.0000
0.9725 0.9373 0.0000
0.9765 0.9373 0.0000
0.9843 0.9373 0.0000
0.9882 0.9373 0.0000
0.9922 0.9373 0.0000
0.9961 0.9373 0.0000
1.0000 0.9373 0.0000
1.0000 0.9373 0.0000
0.0000 0.9490 0.0000
0.0078 0.9490 0.0000
0.0118 0.9529 0.0000
0.0196 0.9490 0.0000
0.0353 0.9490 0.0000
0.0471 0.9529 0.0000
0.0667 0.9529 0.0000
0.1020 0.9490 0.0000
0.1373 0.9529 0.0000
0.1961 0.9569 0.0000
0.2706 0.9569 0.0039
0.3686 0.9529 0.0000
0.5020 0.9529 0.0000
0.6118 0.9490 0.0000
0.6863 0.9490 0.0039
0.7451 0.9490 0.0000
0.8039 0.9529 0.0000
0.8392 0.9529 0.0000
0.8706 0.9529 0.0000
0.8980 0.9529 0.0000
0.9216 0.9529 0.0000
0.9412 0.9529 0.0000
0.9529 0.9529 0.0000
0.9686 0.9529 0.0000
0.9765 0.9490 0.0000
0.9804 0.9529 0.0000
0.9882 0.9529 0.0000
0.9961 0.9529 0.0000
0.9961 0.9490 0.0000
1.0000 0.9529 0.0000
1.0000 0.9529 0.0000
1.0000 0.9529 0.0000
0.0000 0.9608 0.0000
0.0039 0.9608 0.0000
0.0078 0.9647 0.0000
0.0157 0.9647 0.0000
0.0314 0.9608 0.0039
0.0431 0.9647 0.0039
0.0627 0.9608 0.0000
0.0980 0.9608 0.0039
0.1490 0.9608 0.0039
0.1922 0.9608 0.0000
0.2549 0.9608 0.0000
0.3529 0.9647 0.0000
0.4941 0.9686 0.0039
0.5961 0.9608 0.0000
0.6745 0.9608 0.0000
0.7373 0.9647 0.0039
0.7961 0.9608 0.0000
0.8353 0.9608 0.0039
0.8667 0.9647 0.0039
0.8941 0.9647 0.0000
0.9137 0.9608 0.0000
0.9373 0.9608 0.0039
0.9490 0.9608 0.0000
0.9647 0.9608 0.0000
0.9725 0.9608 0.0039
0.9765 0.9608 0.0000
0.9843 0.9608 0.0000
0.9922 0.9608 0.0000
0.9922 0.9608 0.0000
0.9961 0.9608 0.0039
1.0000 0.9608 0.0039
1.0000 0.9608 0.0000
0.0000 0.9725 0.0000
0.0078 0.9725 0.0000
0.0118 0.9725 0.0000
0.0196 0.9725 0.0000
0.0353 0.9725 0.0000
0.0471 0.9725 0.0000
0.0667 0.9725 0.0000
0.0980 0.9725 0.0000
0.1373 0.9725 0.0000
0.1961 0.9725 0.0000
0.2667 0.9725 0.0000
0.3686 0.9765 0.0000
0.5020 0.9725 0.0000
0.6078 0.9725 0.0000
0.6824 0.9725 0.0000
0.7490 0.9725 0.0000
0.8000 0.9725 0.0000
0.8392 0.9725 0.0000
0.8706 0.9725 0.0000
0.8941 0.9725 0.0000
0.9216 0.9725 0.0000
0.9373 0.9725 0.0000
0.9490 0.9725 0.0000
0.9608 0.9725 0.0000
0.9725 0.9725 0.0000
0.9765 0.9725 0.0000
0.9843 0.9725 0.0000
0.9882 0.9725 0.0000
0.9922 0.9725 0.0000
0.9961 0.9725 0.0000
1.0000 0.9725 0.0000
1.0000 0.9725 0.0000
0.0000 0.9804 0.0039
0.0078 0.9804 0.0000
0.0118 0.9804 0.0000
0.0196 0.9804 0.0000
0.0353 0.9804 0.0039
0.0471 0.9804 0.0000
0.0706 0.9804 0.0000
0.0980 0.9804 0.0000
0.1490 0.9804 0.0078
0.1922 0.9804 0.0000
0.2706 0.9765 0.0000
0.3804 0.9765 0.0039
0.4980 0.9843 0.0039
0.5882 0.9804 0.0000
0.6745 0.9765 0.0000
0.7490 0.9804 0.0000
0.8000 0.9804 0.0000
0.8392 0.9804 0.0039
0.8706 0.9804 0.0000
0.8941 0.9804 0.0000
0.9216 0.9765 0.0000
0.9373 0.9804 0.0000
0.9529 0.9804 0.0000
0.9647 0.9765 0.0000
0.9765 0.9804 0.0039
0.9804 0.9804 0.0000
0.9882 0.9804 0.0039
0.9922 0.9804 0.0039
0.9961 0.9804 0.0000
0.9961 0.9804 0.0000
1.0000 0.9804 0.0039
1.0000 0.9804 0.0039
0.0000 0.9843 0.0000
0.0078 0.9843 0.0000
0.0118 0.9843 0.0000
0.0196 0.9882 0.0000
0.0314 0.9843 0.0039
0.0431 0.9843 0.0000
0.0667 0.9843 0.0000
0.0980 0.9843 0.0000
0.1373 0.9843 0.0000
0.2000 0.9804 0.0000
0.2627 0.9843 0.0000
0.3569 0.9843 0.0000
0.4980 0.9804 0.0000
0.6039 0.9843 0.0000
0.6745 0.9882 0.0000
0.7373 0.9882 0.0000
0.8000 0.9843 0.0000
0.8392 0.9843 0.0039
0.8706 0.9843 0.0000
0.8941 0.9843 0.0000
0.9216 0.9843 0.0000
0.9373 0.9843 0.0000
0.9490 0.9882 0.0000
0.9608 0.9843 0.0000
0.9725 0.9843 0.0000
0.9765 0.9843 0.0000
0.9843 0.9843 0.0000
0.9922 0.9843 0.0000
0.9922 0.9843 0.0000
0.9961 0.9843 0.0000
1.0000 0.9843 0.0000
1.0000 0.9843 0.0000
0.0000 0.9922 0.0039
0.0078 0.9922 0.0000
0.0118 0.9922 0.0000
0.0196 0.9922 0.0000
0.0353 0.9922 0.0039
0.0471 0.9922 0.0000
0.0706 0.9922 0.0000
0.0980 0.9922 0.0000
0.1373 0.9922 0.0039
0.1882 0.9922 0.0000
0.2627 0.9922 0.0000
0.3725 0.9882 0.0039
0.4980 0.9922 0.0039
0.6000 0.9922 0.0000
0.6824 0.9922 0.0039
0.7569 0.9922 0.0039
0.8000 0.9922 0.0000
0.8392 0.9922 0.0039
0.8706 0.9922 0.0000
0.8941 0.9922 0.0000
0.9216 0.9922 0.0039
0.9373 0.9922 0.0039
0.9529 0.9922 0.0039
0.9647 0.9922 0.0000
0.9725 0.9922 0.0000
0.9765 0.9922 0.0000
0.9843 0.9922 0.0000
0.9922 0.9922 0.0000
0.9922 0.9922 0.0000
0.9961 0.9922 0.0000
1.0000 0.9922 0.0039
1.0000 0.9922 0.0039
0.0000 0.9922 0.0000
0.0039 0.9922 0.0000
0.0078 0.9922 0.0000
0.0157 0.9922 0.0000
