examples/graphics/lutFilterExample/bin/data/LUTs/Lomo-fi.cube
TITLE "Lomo-fi"
LUT_3D_SIZE 5
DOMAIN_MIN 0.000000 0.000000 0.000000
DOMAIN_MAX 0.903226 0.903226 0.903226
0.0000 0.0000 0.0000
0.1020 0.0000 0.0000
0.6824 0.0000 0.0000
0.9412 0.0000 0.0039
0.9922 0.0000 0.0000
0.0000 0.0980 0.0000
0.1020 0.0941 0.0000
0.6784 0.0980 0.0000
0.9373 0.0941 0.0039
0.9961 0.0941 0.0000
0.0000 0.6824 0.0000
0.0980 0.6784 0.0000
0.6745 0.6784 0.0000
0.9412 0.6745 0.0000
0.9882 0.6745 0.0000
0.0000 0.9373 0.0000
0.1020 0.9373 0.0000
0.6784 0.9373 0.0000
0.9373 0.9373 0.0000
0.9922 0.9373 0.0000
0.0000 0.9922 0.0000
0.0941 0.9922 0.0000
0.6824 0.9882 0.0000
0.9373 0.9922 0.0000
0.9922 0.9922 0.0000
0.0000 0.0000 0.0980
0.0980 0.0000 0.1020
0.6863 0.0000 0.1020
0.9373 0.0000 0.1020
0.9922 0.0000 0.0980
0.0000 0.1020 0.0941
0.0980 0.0980 0.0980
0.6863 0.0980 0.0980
0.9373 0.0980 0.0941
0.9961 0.0941 0.0980
0.0039 0.6745 0.1020
0.1020 0.6784 0.1059
0.6824 0.6784 0.1020
0.9412 0.6824 0.1059
0.9961 0.6784 0.1020
0.0000 0.9412 0.0941
0.0980 0.9373 0.1020
0.6824 0.9373 0.0980
0.9412 0.9373 0.0980
0.9922 0.9373 0.0980
0.0000 0.9922 0.0941
0.0980 0.9922 0.0980
0.6784 0.9882 0.0941
0.9373 0.9922 0.0941
0.9922 0.9922 0.0980
0.0000 0.0000 0.6824
0.0980 0.0000 0.6824
0.6784 0.0000 0.6784
0.9373 0.0000 0.6824
0.9961 0.0000 0.6784
0.0000 0.0941 0.6706
0.1020 0.0941 0.6824
0.6784 0.0941 0.6784
0.9373 0.0941 0.6784
0.9922 0.0941 0.6706
0.0039 0.6784 0.6824
0.1020 0.6784 0.6863
0.6824 0.6784 0.6784
0.9412 0.6824 0.6902
0.9922 0.6745 0.6824
0.0000 0.9373 0.6745
0.0980 0.9412 0.6824
0.6824 0.9373 0.6745
0.9373 0.9373 0.6784
0.9922 0.9333 0.6824
0.0000 0.9922 0.6667
0.0980 0.9922 0.6824
0.6745 0.9922 0.6627
0.9333 0.9922 0.6745
0.9922 0.9922 0.6706
0.0000 0.0000 0.9373
0.0980 0.0000 0.9373
0.6863 0.0000 0.9412
0.9373 0.0000 0.9373
0.9922 0.0000 0.9333
0.0000 0.0980 0.9412
0.0980 0.0941 0.9412
0.6784 0.0980 0.9412
0.9373 0.0980 0.9373
0.9922 0.0941 0.9373
0.0000 0.6784 0.9412
0.0980 0.6824 0.9412
0.6784 0.6824 0.9373
0.9412 0.6784 0.9373
0.9922 0.6745 0.9373
0.0000 0.9412 0.9412
0.0980 0.9373 0.9412
0.6824 0.9333 0.9373
0.9373 0.9373 0.9373
0.9922 0.9373 0.9333
0.0000 0.9922 0.9373
0.0941 0.9922 0.9373
0.6824 0.9882 0.9333
0.9373 0.9922 0.9373
0.9922 0.9922 0.9333
0.0000 0.0000 0.9922
0.1020 0.0000 0.9922
0.6863 0.0000 0.9922
0.9412 0.0000 0.9922
0.9922 0.0000 0.9882
0.0000 0.0980 0.9922
0.0980 0.0980 0.9961
0.6863 0.0941 0.9922
0.9373 0.0980 0.9961
0.9922 0.0941 0.9922
0.0039 0.6824 0.9922
0.1020 0.6745 0.9922
0.6784 0.6784 0.9922
0.9373 0.6784 0.9961
0.9922 0.6745 0.9843
0.0000 0.9373 0.9922
0.0980 0.9373 0.9922
0.6824 0.9373 0.9922
0.9373 0.9373 0.9922
0.9922 0.9333 0.9882
0.0000 0.9922 0.9922
0.0980 0.9922 0.9922
0.6745 0.9922 0.9961
0.9373 0.9922 0.9922
0.9882 0.9922 0.9882
