examples/graphics/lutFilterExample/bin/data/LUTs/Lomo-fi.cube
TITLE "Lomo-fi"
LUT_3D_SIZE 8
DOMAIN_MIN 0.000000 0.000000 0.000000
DOMAIN_MAX 0.903226 0.903226 0.903226
0.0000 0.0000 0.0000
0.0353 0.0000 0.0000
0.1451 0.0000 0.0000
0.5059 0.0000 0.0000
0.8078 0.0000 0.0000
0.9216 0.0000 0.0000
0.9725 0.0000 0.0000
0.9922 0.0000 0.0000
0.0000 0.0314 0.0000
0.0314 0.0314 0.0000
0.1373 0.0314 0.0000
0.4941 0.0314 0.0000
0.8039 0.0314 0.0000
0.9176 0.0314 0.0000
0.9725 0.0314 0.0000
0.9922 0.0314 0.0000
0.0039 0.1373 0.0000
0.0314 0.1373 0.0000
0.1412 0.1333 0.0000
0.4941 0.1373 0.0000
0.8039 0.1333 0.0000
0.9176 0.1412 0.0000
0.9765 0.1373 0.0039
0.9922 0.1333 0.0000
0.0039 0.5020 0.0000
0.0275 0.4980 0.0000
0.1373 0.5020 0.0039
0.4980 0.4902 0.0000
0.8000 0.5098 0.0000
0.9216 0.5059 0.0000
0.9725 0.4980 0.0039
0.9922 0.4941 0.0000
0.0000 0.8000 0.0000
0.0314 0.7961 0.0000
0.1412 0.7961 0.0000
0.5059 0.7961 0.0000
0.8000 0.8000 0.0000
0.9255 0.8000 0.0000
0.9725 0.8000 0.0000
0.9922 0.8000 0.0000
0.0000 0.9176 0.0000
0.0353 0.9176 0.0039
0.1451 0.9137 0.0000
0.4902 0.9216 0.0000
0.8000 0.9176 0.0000
0.9176 0.9176 0.0000
0.9725 0.9216 0.0039
0.9922 0.9176 0.0000
0.0000 0.9725 0.0000
0.0353 0.9725 0.0000
0.1373 0.9725 0.0000
0.5020 0.9725 0.0000
0.8000 0.9725 0.0000
0.9216 0.9725 0.0000
0.9725 0.9725 0.0000
0.9922 0.9725 0.0000
0.0000 0.9922 0.0000
0.0314 0.9922 0.0000
0.1333 0.9922 0.0000
0.4980 0.9922 0.0000
0.8000 0.9922 0.0000
0.9176 0.9922 0.0000
0.9725 0.9922 0.0000
0.9922 0.9922 0.0000
0.0000 0.0000 0.0314
0.0314 0.0000 0.0314
0.1373 0.0000 0.0314
0.5020 0.0000 0.0314
0.8000 0.0000 0.0275
0.9216 0.0000 0.0314
0.9725 0.0000 0.0314
0.9922 0.0000 0.0275
0.0000 0.0314 0.0314
0.0275 0.0314 0.0314
0.1294 0.0314 0.0314
0.4941 0.0314 0.0314
0.8000 0.0314 0.0314
0.9176 0.0314 0.0314
0.9765 0.0314 0.0314
0.9961 0.0314 0.0314
0.0000 0.1373 0.0314
0.0314 0.1373 0.0314
0.1373 0.1373 0.0275
0.5059 0.1333 0.0314
0.8000 0.1373 0.0314
0.9255 0.1373 0.0353
0.9725 0.1333 0.0314
0.9882 0.1333 0.0314
0.0000 0.4941 0.0314
0.0314 0.5020 0.0353
0.1451 0.4980 0.0431
0.4941 0.5098 0.0392
0.8039 0.4941 0.0275
0.9176 0.4941 0.0275
0.9765 0.5020 0.0314
0.9882 0.4824 0.0275
0.0000 0.8000 0.0314
0.0353 0.8000 0.0314
0.1412 0.7961 0.0314
0.5020 0.8000 0.0314
0.8000 0.8000 0.0314
0.9216 0.8000 0.0314
0.9765 0.8000 0.0314
0.9922 0.7961 0.0275
0.0000 0.9216 0.0314
0.0314 0.9176 0.0314
0.1373 0.9176 0.0314
0.4941 0.9216 0.0314
0.8000 0.9176 0.0275
0.9176 0.9176 0.0314
0.9686 0.9176 0.0314
0.9922 0.9176 0.0314
0.0000 0.9725 0.0314
0.0314 0.9725 0.0314
0.1373 0.9725 0.0314
0.4941 0.9686 0.0275
0.8000 0.9725 0.0275
0.9216 0.9725 0.0314
0.9765 0.9725 0.0314
0.9961 0.9725 0.0314
0.0000 0.9922 0.0314
0.0314 0.9922 0.0314
0.1373 0.9961 0.0314
0.4902 0.9961 0.0275
0.8000 0.9922 0.0275
0.9176 0.9922 0.0314
0.9725 0.9922 0.0314
0.9922 0.9922 0.0314
0.0000 0.0000 0.1412
0.0353 0.0000 0.1451
0.1412 0.0000 0.1412
0.5020 0.0000 0.1451
0.8039 0.0000 0.1373
0.9255 0.0000 0.1412
0.9725 0.0000 0.1412
0.9922 0.0000 0.1412
0.0000 0.0314 0.1333
0.0314 0.0314 0.1373
0.1412 0.0314 0.1412
0.4902 0.0314 0.1333
0.8000 0.0314 0.1294
0.9216 0.0314 0.1373
0.9725 0.0314 0.1294
0.9922 0.0314 0.1333
0.0039 0.1333 0.1333
0.0314 0.1333 0.1412
0.1373 0.1373 0.1333
0.5098 0.1412 0.1451
0.8039 0.1373 0.1490
0.9216 0.1373 0.1412
0.9725 0.1333 0.1333
0.9961 0.1373 0.1373
0.0039 0.5059 0.1373
0.0235 0.4784 0.1255
0.1333 0.4902 0.1373
0.5020 0.4941 0.1412
0.8000 0.4941 0.1373
0.9176 0.4941 0.1373
0.9765 0.5020 0.1333
0.9922 0.4980 0.1333
0.0000 0.8000 0.1373
0.0314 0.8000 0.1412
0.1451 0.8000 0.1373
0.5059 0.8000 0.1451
0.8039 0.8000 0.1412
0.9216 0.8000 0.1373
0.9725 0.8000 0.1412
0.9922 0.8000 0.1373
0.0000 0.9216 0.1373
0.0275 0.9176 0.1412
0.1373 0.9176 0.1333
0.4941 0.9176 0.1373
0.7961 0.9176 0.1373
0.9176 0.9176 0.1373
0.9725 0.9176 0.1294
0.9922 0.9176 0.1373
0.0000 0.9725 0.1412
0.0353 0.9725 0.1412
0.1333 0.9765 0.1412
0.5059 0.9725 0.1451
0.8000 0.9725 0.1373
0.9216 0.9725 0.1412
0.9725 0.9725 0.1333
0.9922 0.9725 0.1373
0.0000 0.9922 0.1294
0.0314 0.9922 0.1333
0.1333 0.9922 0.1333
0.4941 0.9922 0.1412
0.8000 0.9922 0.1373
0.9176 0.9922 0.1373
0.9686 0.9922 0.1373
0.9922 0.9922 0.1373
0.0000 0.0000 0.5137
0.0314 0.0000 0.4902
0.1373 0.0000 0.4745
0.5098 0.0000 0.4941
0.8000 0.0000 0.4980
0.9216 0.0039 0.5059
0.9725 0.0000 0.4863
0.9961 0.0000 0.4941
0.0000 0.0314 0.4902
0.0314 0.0314 0.4784
0.1255 0.0353 0.4784
0.4941 0.0314 0.4980
0.8000 0.0314 0.4863
0.9176 0.0353 0.4941
0.9725 0.0275 0.4863
0.9922 0.0314 0.4941
0.0039 0.1373 0.4824
0.0314 0.1373 0.4863
0.1412 0.1373 0.4824
0.5059 0.1373 0.4980
0.8000 0.1294 0.4824
0.9176 0.1333 0.4941
0.9725 0.1412 0.4863
0.9961 0.1333 0.5059
0.0000 0.4941 0.4824
0.0353 0.4980 0.4902
0.1333 0.4980 0.4824
0.4902 0.4941 0.4941
0.7961 0.5020 0.4824
0.9216 0.4941 0.5059
0.9686 0.4941 0.4902
0.9922 0.4863 0.5020
0.0000 0.8000 0.4980
0.0314 0.8039 0.4824
0.1373 0.8000 0.4824
0.5020 0.8000 0.4941
0.8039 0.8000 0.4824
0.9216 0.7961 0.4863
0.9725 0.8000 0.4902
0.9882 0.7961 0.4980
0.0000 0.9216 0.4706
0.0314 0.9176 0.4902
0.1333 0.9176 0.4824
0.4941 0.9216 0.4941
0.8000 0.9216 0.4863
0.9216 0.9216 0.5059
0.9725 0.9176 0.4824
0.9922 0.9176 0.4980
0.0000 0.9725 0.4980
0.0314 0.9725 0.5098
0.1412 0.9725 0.4941
0.5059 0.9725 0.5098
0.8039 0.9725 0.5059
0.9216 0.9725 0.5255
0.9725 0.9725 0.4941
0.9922 0.9725 0.4980
0.0000 0.9922 0.4824
0.0275 0.9922 0.4941
0.1412 0.9961 0.5020
0.4941 0.9922 0.4863
0.8000 0.9922 0.4902
0.9176 0.9961 0.4941
0.9686 0.9961 0.4627
0.9922 0.9922 0.4863
0.0039 0.0000 0.8000
0.0353 0.0000 0.8078
0.1373 0.0039 0.8039
0.5059 0.0039 0.8118
0.8039 0.0000 0.8078
0.9255 0.0000 0.8078
0.9725 0.0000 0.8039
0.9922 0.0000 0.8039
0.0000 0.0314 0.8039
0.0275 0.0353 0.8039
0.1294 0.0314 0.8000
0.4941 0.0314 0.8000
0.7961 0.0314 0.8000
0.9176 0.0314 0.8000
0.9725 0.0314 0.7922
0.9922 0.0314 0.7961
0.0039 0.1333 0.7961
0.0353 0.1373 0.8078
0.1412 0.1373 0.8000
0.5020 0.1373 0.8000
0.8039 0.1333 0.8000
0.9176 0.1333 0.8000
0.9765 0.1373 0.8000
0.9922 0.1333 0.7961
0.0000 0.4980 0.8000
0.0353 0.4902 0.7961
0.1373 0.4941 0.8000
0.4902 0.5137 0.8039
0.8039 0.4980 0.7922
0.9216 0.5059 0.8000
0.9765 0.4902 0.7961
0.9882 0.4980 0.7922
0.0039 0.8039 0.8039
0.0353 0.8000 0.8000
0.1373 0.8000 0.7961
0.5059 0.7961 0.8039
0.8000 0.7961 0.7922
0.9216 0.8000 0.7961
0.9725 0.8000 0.8000
0.9882 0.7961 0.7961
0.0000 0.9216 0.7961
0.0314 0.9216 0.8000
0.1333 0.9255 0.7961
0.5059 0.9176 0.8039
0.7961 0.9176 0.7961
0.9176 0.9176 0.7922
0.9725 0.9176 0.7961
0.9922 0.9176 0.7961
0.0000 0.9725 0.8039
0.0314 0.9725 0.8039
0.1412 0.9725 0.8039
0.4941 0.9725 0.8078
0.8000 0.9725 0.8000
0.9216 0.9725 0.8039
0.9725 0.9725 0.8000
0.9922 0.9725 0.8000
0.0000 0.9922 0.7961
0.0314 0.9922 0.8039
0.1333 0.9922 0.7961
0.4902 0.9882 0.8000
0.8000 0.9922 0.8000
0.9216 0.9922 0.8039
0.9725 0.9922 0.8000
0.9922 0.9922 0.8000
0.0000 0.0000 0.9216
0.0353 0.0000 0.9216
0.1490 0.0000 0.9137
0.4941 0.0039 0.9216
0.8000 0.0000 0.9176
0.9216 0.0000 0.9176
0.9725 0.0000 0.9176
0.9922 0.0000 0.9176
0.0000 0.0353 0.9176
0.0314 0.0314 0.9176
0.1373 0.0314 0.9216
0.4863 0.0314 0.9176
0.8000 0.0314 0.9176
0.9216 0.0314 0.9216
0.9725 0.0314 0.9176
0.9922 0.0314 0.9176
0.0039 0.1412 0.9255
0.0275 0.1333 0.9176
0.1373 0.1373 0.9176
0.5059 0.1333 0.9216
0.8039 0.1373 0.9216
0.9216 0.1373 0.9216
0.9686 0.1333 0.9176
0.9922 0.1373 0.9216
0.0000 0.4980 0.9216
0.0275 0.4941 0.9176
0.1451 0.4980 0.9216
0.5098 0.4941 0.9216
0.8039 0.4941 0.9176
0.9216 0.4784 0.9176
0.9725 0.4941 0.9176
0.9882 0.4863 0.9137
0.0000 0.8000 0.9176
0.0314 0.8000 0.9176
0.1412 0.7961 0.9176
0.4941 0.8000 0.9176
0.8078 0.8000 0.9176
0.9255 0.8000 0.9216
0.9765 0.8000 0.9176
0.9922 0.7961 0.9137
0.0000 0.9216 0.9176
0.0314 0.9176 0.9176
0.1412 0.9176 0.9216
0.4902 0.9176 0.9176
0.8000 0.9176 0.9137
0.9176 0.9176 0.9176
0.9725 0.9216 0.9176
0.9922 0.9176 0.9137
0.0000 0.9725 0.9176
0.0314 0.9725 0.9176
0.1412 0.9725 0.9216
0.5020 0.9725 0.9216
0.8000 0.9725 0.9176
0.9216 0.9725 0.9176
0.9725 0.9725 0.9176
0.9922 0.9725 0.9176
0.0000 0.9922 0.9176
0.0314 0.9922 0.9176
0.1373 0.9882 0.9137
0.4980 0.9961 0.9216
0.7961 0.9922 0.9176
0.9176 0.9922 0.9176
0.9725 0.9922 0.9176
0.9922 0.9922 0.9176
0.0000 0.0000 0.9725
0.0353 0.0000 0.9725
0.1373 0.0000 0.9686
0.5059 0.0000 0.9725
0.8000 0.0000 0.9686
0.9255 0.0000 0.9725
0.9765 0.0000 0.9725
0.9961 0.0000 0.9686
0.0000 0.0314 0.9725
0.0353 0.0314 0.9725
0.1373 0.0314 0.9725
0.5059 0.0314 0.9725
0.8000 0.0314 0.9725
0.9176 0.0314 0.9725
0.9725 0.0314 0.9725
0.9922 0.0314 0.9725
0.0000 0.1373 0.9686
0.0314 0.1373 0.9725
0.1451 0.1333 0.9765
0.4941 0.1373 0.9725
0.8039 0.1412 0.9725
0.9255 0.1373 0.9725
0.9725 0.1373 0.9725
0.9961 0.1373 0.9765
0.0000 0.4980 0.9765
0.0353 0.4941 0.9765
0.1373 0.4941 0.9765
0.4902 0.4902 0.9686
0.7922 0.4980 0.9686
0.9176 0.4902 0.9725
0.9765 0.5059 0.9804
0.9882 0.4863 0.9686
0.0000 0.8039 0.9725
0.0314 0.8000 0.9725
0.1451 0.8000 0.9765
0.5255 0.8000 0.9765
0.8000 0.8000 0.9725
0.9216 0.8000 0.9725
0.9686 0.8000 0.9725
0.9922 0.8000 0.9686
0.0000 0.9176 0.9725
0.0353 0.9176 0.9725
0.1451 0.9137 0.9765
0.4824 0.9216 0.9725
0.8000 0.9176 0.9725
0.9176 0.9176 0.9725
0.9725 0.9176 0.9725
0.9961 0.9176 0.9725
0.0000 0.9725 0.9725
0.0314 0.9725 0.9725
0.1294 0.9725 0.9725
0.4941 0.9725 0.9686
0.8000 0.9725 0.9686
0.9216 0.9725 0.9725
0.9765 0.9725 0.9725
0.9922 0.9725 0.9725
0.0000 0.9922 0.9725
0.0314 0.9922 0.9725
0.1294 0.9961 0.9725
0.4941 0.9922 0.9686
0.7961 0.9922 0.9686
0.9176 0.9922 0.9725
0.9725 0.9922 0.9686
0.9922 0.9922 0.9686
0.0000 0.0000 0.9922
0.0353 0.0000 0.9922
0.1373 0.0000 0.9922
0.4980 0.0000 0.9882
0.8000 0.0000 0.9882
0.9216 0.0000 0.9922
0.9765 0.0000 0.9922
0.9922 0.0000 0.9882
0.0000 0.0314 0.9922
0.0314 0.0314 0.9922
0.1333 0.0275 0.9922
0.4941 0.0314 0.9922
0.7961 0.0314 0.9882
0.9176 0.0314 0.9922
0.9725 0.0314 0.9922
0.9882 0.0314 0.9882
0.0000 0.1373 0.9882
0.0353 0.1333 0.9922
0.1373 0.1373 0.9922
0.5255 0.1373 1.0000
0.8000 0.1333 0.9922
0.9176 0.1333 0.9922
0.9725 0.1373 0.9922
0.9922 0.1333 0.9882
0.0000 0.4941 0.9961
0.0353 0.4941 0.9961
0.1333 0.4980 0.9961
0.4941 0.4941 0.9922
0.8039 0.4941 0.9922
0.9216 0.5020 0.9961
0.9725 0.4941 0.9922
0.9882 0.4941 0.9882
0.0000 0.8000 0.9922
0.0353 0.8000 0.9922
0.1412 0.8000 0.9922
0.5020 0.7961 0.9922
0.8000 0.8000 0.9882
0.9216 0.8000 0.9922
0.9765 0.8000 0.9922
0.9922 0.8000 0.9882
0.0000 0.9216 0.9922
0.0314 0.9176 0.9922
0.1412 0.9176 0.9961
0.5098 0.9176 0.9961
0.7961 0.9176 0.9922
0.9216 0.9176 0.9922
0.9725 0.9176 0.9961
0.9922 0.9176 0.9922
0.0000 0.9725 0.9922
0.0314 0.9725 0.9922
0.1451 0.9725 0.9922
0.4941 0.9725 0.9922
0.8000 0.9725 0.9922
0.9216 0.9725 0.9922
0.9725 0.9725 0.9922
0.9922 0.9725 0.9882
0.0000 0.9922 0.9922
0.0314 0.9922 0.9922
0.1333 0.9922 0.9922
0.4824 0.9922 0.9882
0.8000 0.9922 0.9882
0.9176 0.9922 0.9922
0.9725 0.9922 0.9922
0.9882 0.9922 0.9882
