examples/graphics/lutFilterExample/bin/data/LUTs/Lord Kelvin.cube
TITLE "Lord Kelvin"
LUT_3D_SIZE 5
DOMAIN_MIN 0.000000 0.000000 0.000000
DOMAIN_MAX 0.903226 0.903226 0.903226
0.1569 0.0902 0.3059
0.5529 0.0902 0.3098
0.8000 0.0902 0.3059
0.9216 0.0902 0.3059
0.9686 0.0902 0.3059
0.1569 0.3216 0.3020
0.5490 0.3176 0.3020
0.7961 0.3216 0.3020
0.9216 0.3216 0.3059
0.9686 0.3176 0.3059
0.1647 0.5255 0.3059
0.5412 0.5333 0.3098
0.8000 0.5294 0.3098
0.9216 0.5294 0.3098
0.9686 0.5255 0.3059
0.1608 0.7098 0.3059
0.5490 0.7098 0.3059
0.7961 0.7098 0.3059
0.9176 0.7098 0.3059
0.9686 0.7098 0.3059
0.1569 0.8353 0.3059
0.5412 0.8353 0.3059
0.7961 0.8353 0.3059
0.9176 0.8353 0.3059
0.9725 0.8353 0.3098
0.1608 0.0902 0.3059
0.5451 0.0941 0.3059
0.7961 0.0902 0.3059
0.9216 0.0902 0.3098
0.9686 0.0902 0.3059
0.1608 0.3216 0.3098
0.5451 0.3216 0.3059
0.7961 0.3216 0.3098
0.9176 0.3216 0.3059
0.9686 0.3216 0.3059
0.1569 0.5255 0.3059
0.5451 0.5294 0.3098
0.7961 0.5294 0.3098
0.9216 0.5294 0.3098
0.9686 0.5255 0.3059
0.1608 0.7098 0.3059
0.5490 0.7098 0.3098
0.8000 0.7098 0.3020
0.9216 0.7098 0.3059
0.9686 0.7098 0.3059
0.1569 0.8353 0.3059
0.5451 0.8353 0.3098
0.7922 0.8353 0.3059
0.9176 0.8353 0.3059
0.9725 0.8353 0.3059
0.1569 0.0902 0.3451
0.5451 0.0902 0.3490
0.7961 0.0902 0.3490
0.9176 0.0902 0.3490
0.9686 0.0902 0.3529
0.1647 0.3216 0.3490
0.5412 0.3216 0.3490
0.7922 0.3176 0.3451
0.9176 0.3216 0.3490
0.9686 0.3216 0.3490
0.1647 0.5294 0.3529
0.5490 0.5294 0.3529
0.7961 0.5255 0.3490
0.9255 0.5294 0.3529
0.9647 0.5255 0.3490
0.1608 0.7098 0.3490
0.5451 0.7059 0.3490
0.7961 0.7098 0.3490
0.9176 0.7098 0.3490
0.9686 0.7059 0.3451
0.1529 0.8353 0.3451
0.5412 0.8353 0.3529
0.7922 0.8353 0.3451
0.9216 0.8353 0.3490
0.9686 0.8353 0.3451
0.1608 0.0863 0.5137
0.5451 0.0902 0.5137
0.7961 0.0941 0.5176
0.9216 0.0902 0.5216
0.9686 0.0902 0.5137
0.1647 0.3255 0.5137
0.5451 0.3176 0.5176
0.7961 0.3216 0.5176
0.9216 0.3216 0.5137
0.9686 0.3176 0.5098
0.1569 0.5294 0.5176
0.5490 0.5294 0.5216
0.8000 0.5294 0.5176
0.9216 0.5294 0.5176
0.9725 0.5294 0.5176
0.1569 0.7059 0.5059
0.5490 0.7137 0.5176
0.7961 0.7098 0.5137
0.9176 0.7098 0.5137
0.9686 0.7098 0.5137
0.1529 0.8353 0.5137
0.5412 0.8353 0.5176
0.7961 0.8353 0.5098
0.9176 0.8353 0.5137
0.9686 0.8353 0.5098
0.1608 0.0902 0.6275
0.5451 0.0902 0.6275
0.7922 0.0902 0.6235
0.9176 0.0902 0.6275
0.9686 0.0902 0.6275
0.1608 0.3216 0.6314
0.5451 0.3216 0.6314
0.7961 0.3216 0.6235
0.9176 0.3216 0.6275
0.9686 0.3216 0.6275
0.1569 0.5294 0.6314
0.5490 0.5255 0.6314
0.7961 0.5255 0.6275
0.9176 0.5294 0.6314
0.9686 0.5294 0.6314
0.1569 0.7098 0.6275
0.5451 0.7098 0.6275
0.7961 0.7098 0.6275
0.9216 0.7098 0.6275
0.9686 0.7098 0.6275
0.1608 0.8353 0.6275
0.5412 0.8392 0.6275
0.7922 0.8353 0.6275
0.9176 0.8353 0.6275
0.9686 0.8353 0.6275
