examples/graphics/lutFilterExample/bin/data/LUTs/Lord Kelvin.cube
TITLE "Lord Kelvin"
LUT_3D_SIZE 8
DOMAIN_MIN 0.000000 0.000000 0.000000
DOMAIN_MAX 0.903226 0.903226 0.903226
0.1569 0.0902 0.3059
0.4000 0.0902 0.3098
0.5961 0.0902 0.3059
0.7412 0.0863 0.3059
0.8431 0.0902 0.3059
0.9059 0.0902 0.3059
0.9451 0.0902 0.3059
0.9686 0.0902 0.3059
0.1569 0.2314 0.3059
0.3922 0.2275 0.3059
0.5922 0.2275 0.3059
0.7373 0.2275 0.3059
0.8431 0.2314 0.3059
0.9020 0.2275 0.3059
0.9412 0.2275 0.3020
0.9647 0.2275 0.3020
0.1608 0.3529 0.3098
0.3922 0.3529 0.3098
0.5961 0.3529 0.3059
0.7373 0.3529 0.3059
0.8471 0.3529 0.3098
0.9020 0.3529 0.3059
0.9490 0.3529 0.3098
0.9686 0.3529 0.3098
0.1647 0.4824 0.3098
0.3922 0.4784 0.3059
0.5922 0.4784 0.3020
0.7373 0.4784 0.3020
0.8431 0.4824 0.3059
0.9020 0.4824 0.3059
0.9490 0.4784 0.3059
0.9686 0.4784 0.3059
0.1608 0.5804 0.3059
0.3961 0.5843 0.3098
0.5961 0.5843 0.3020
0.7412 0.5804 0.3059
0.8431 0.5843 0.3059
0.9059 0.5843 0.3059
0.9451 0.5843 0.3059
0.9686 0.5843 0.3059
0.1608 0.6863 0.3059
0.3922 0.6863 0.3098
0.5922 0.6863 0.3020
0.7373 0.6863 0.3059
0.8431 0.6863 0.3059
0.9020 0.6863 0.3059
0.9490 0.6863 0.3059
0.9725 0.6863 0.3098
0.1608 0.7843 0.3059
0.3882 0.7804 0.3059
0.5922 0.7843 0.3059
0.7373 0.7843 0.3059
0.8431 0.7843 0.3059
0.8980 0.7843 0.3020
0.9451 0.7843 0.3059
0.9686 0.7843 0.3059
0.1569 0.8353 0.3059
0.3882 0.8353 0.3098
0.5922 0.8353 0.3059
0.7373 0.8353 0.3059
0.8431 0.8353 0.3059
0.9020 0.8353 0.3059
0.9490 0.8353 0.3059
0.9725 0.8353 0.3098
0.1608 0.0941 0.3059
0.3922 0.0941 0.3059
0.5961 0.0902 0.3098
0.7412 0.0902 0.3098
0.8431 0.0902 0.3059
0.9020 0.0902 0.3059
0.9451 0.0863 0.3059
0.9686 0.0902 0.3059
0.1569 0.2275 0.3059
0.3843 0.2235 0.3059
0.5922 0.2275 0.3059
0.7373 0.2235 0.3059
0.8431 0.2275 0.3059
0.9020 0.2275 0.3059
0.9490 0.2275 0.3059
0.9686 0.2275 0.3020
0.1647 0.3569 0.3098
0.4000 0.3490 0.3098
0.5922 0.3529 0.3059
0.7373 0.3490 0.3020
0.8392 0.3529 0.3059
0.9059 0.3529 0.3059
0.9451 0.3529 0.3059
0.9686 0.3490 0.3059
0.1608 0.4784 0.3059
0.4000 0.4745 0.3059
0.6000 0.4784 0.3059
0.7412 0.4824 0.3059
0.8431 0.4784 0.3059
0.9020 0.4784 0.3020
0.9490 0.4824 0.3059
0.9647 0.4745 0.3020
0.1608 0.5843 0.3059
0.3961 0.5843 0.3098
0.5961 0.5843 0.3059
0.7373 0.5843 0.3059
0.8431 0.5843 0.3059
0.9059 0.5843 0.3059
0.9451 0.5843 0.3020
0.9647 0.5843 0.3020
0.1529 0.6863 0.3059
0.3922 0.6824 0.3059
0.5922 0.6863 0.3059
0.7373 0.6863 0.3059
0.8431 0.6863 0.3059
0.9059 0.6863 0.3059
0.9490 0.6863 0.3059
0.9686 0.6863 0.3059
0.1725 0.7843 0.3098
0.3882 0.7843 0.3059
0.5922 0.7843 0.3059
0.7373 0.7843 0.3059
0.8431 0.7843 0.3059
0.9020 0.7843 0.3020
0.9451 0.7843 0.3059
0.9686 0.7843 0.3059
0.1529 0.8353 0.3059
0.3882 0.8353 0.3098
0.5922 0.8353 0.3059
0.7333 0.8353 0.3059
0.8431 0.8353 0.3059
0.9020 0.8353 0.3059
0.9490 0.8353 0.3059
0.9686 0.8353 0.3059
0.1608 0.0941 0.3098
0.3961 0.0902 0.3098
0.5961 0.0902 0.3059
0.7373 0.0902 0.3098
0.8431 0.0902 0.3098
0.9020 0.0902 0.3098
0.9490 0.0902 0.3098
0.9686 0.0902 0.3098
0.1608 0.2235 0.3098
0.3882 0.2275 0.3137
0.5961 0.2275 0.3059
0.7373 0.2275 0.3098
0.8392 0.2275 0.3098
0.9020 0.2275 0.3059
0.9490 0.2275 0.3098
0.9686 0.2275 0.3059
0.1608 0.3529 0.3098
0.3961 0.3490 0.3098
0.5961 0.3490 0.3098
0.7373 0.3529 0.3098
0.8431 0.3490 0.3098
0.9020 0.3529 0.3098
0.9451 0.3490 0.3098
0.9647 0.3490 0.3059
0.1608 0.4824 0.3137
0.3961 0.4706 0.3059
0.5961 0.4784 0.3098
0.7412 0.4784 0.3098
0.8471 0.4784 0.3098
0.9020 0.4784 0.3059
0.9490 0.4784 0.3098
0.9686 0.4784 0.3059
0.1686 0.5843 0.3137
0.3882 0.5843 0.3098
0.5961 0.5843 0.3059
0.7412 0.5843 0.3098
0.8392 0.5843 0.3098
0.9020 0.5843 0.3059
0.9451 0.5843 0.3098
0.9686 0.5843 0.3098
0.1608 0.6902 0.3137
0.3843 0.6863 0.3098
0.5922 0.6863 0.3098
0.7373 0.6863 0.3098
0.8431 0.6863 0.3098
0.9020 0.6863 0.3098
0.9451 0.6863 0.3098
0.9686 0.6863 0.3098
0.1608 0.7843 0.3098
0.3882 0.7843 0.3098
0.5882 0.7843 0.3098
0.7412 0.7843 0.3098
0.8431 0.7843 0.3098
0.9059 0.7843 0.3098
0.9451 0.7843 0.3098
0.9686 0.7843 0.3098
0.1569 0.8353 0.3098
0.3882 0.8353 0.3098
0.5882 0.8353 0.3098
0.7373 0.8353 0.3098
0.8431 0.8353 0.3098
0.9020 0.8353 0.3098
0.9451 0.8353 0.3098
0.9686 0.8353 0.3098
0.1569 0.0902 0.3294
0.3961 0.0902 0.3294
0.5922 0.0941 0.3294
0.7373 0.0902 0.3294
0.8431 0.0902 0.3294
0.9059 0.0941 0.3294
0.9451 0.0902 0.3294
0.9686 0.0902 0.3255
0.1569 0.2314 0.3255
0.3882 0.2235 0.3255
0.5922 0.2275 0.3255
0.7412 0.2275 0.3255
0.8431 0.2275 0.3255
0.9059 0.2275 0.3294
0.9490 0.2235 0.3255
0.9686 0.2275 0.3255
0.1608 0.3490 0.3255
0.3882 0.3529 0.3255
0.5961 0.3529 0.3255
0.7412 0.3529 0.3255
0.8431 0.3529 0.3255
0.9059 0.3529 0.3255
0.9451 0.3529 0.3255
0.9686 0.3529 0.3255
0.1647 0.4784 0.3294
0.3882 0.4784 0.3255
0.5922 0.4784 0.3216
0.7373 0.4784 0.3255
0.8431 0.4784 0.3255
0.9020 0.4784 0.3255
0.9451 0.4784 0.3216
0.9647 0.4784 0.3216
0.1608 0.5843 0.3255
0.3961 0.5843 0.3255
0.5961 0.5843 0.3255
0.7412 0.5843 0.3255
0.8431 0.5843 0.3255
0.9059 0.5843 0.3216
0.9451 0.5843 0.3216
0.9686 0.5843 0.3255
0.1647 0.6863 0.3294
0.3961 0.6824 0.3294
0.5922 0.6863 0.3255
0.7373 0.6863 0.3294
0.8431 0.6863 0.3255
0.9020 0.6863 0.3255
0.9451 0.6863 0.3255
0.9686 0.6824 0.3255
0.1608 0.7843 0.3255
0.3882 0.7843 0.3255
0.5961 0.7843 0.3216
0.7373 0.7843 0.3294
0.8392 0.7843 0.3294
0.9020 0.7843 0.3255
0.9451 0.7843 0.3255
0.9647 0.7843 0.3294
0.1569 0.8353 0.3255
0.3882 0.8353 0.3255
0.5961 0.8353 0.3255
0.7373 0.8353 0.3294
0.8431 0.8353 0.3255
0.9059 0.8353 0.3294
0.9451 0.8314 0.3255
0.9686 0.8353 0.3255
0.1647 0.0902 0.3882
0.3922 0.0941 0.3882
0.5922 0.0902 0.3843
0.7412 0.0902 0.3882
0.8471 0.0941 0.3882
0.9059 0.0902 0.3843
0.9451 0.0902 0.3882
0.9686 0.0902 0.3843
0.1608 0.2275 0.3804
0.3882 0.2275 0.3804
0.5922 0.2275 0.3843
0.7373 0.2275 0.3804
0.8431 0.2275 0.3843
0.9020 0.2275 0.3804
0.9451 0.2275 0.3804
0.9647 0.2275 0.3804
0.1647 0.3529 0.3882
0.4039 0.3529 0.3882
0.5922 0.3529 0.3804
0.7373 0.3490 0.3804
0.8431 0.3529 0.3843
0.9020 0.3529 0.3843
0.9490 0.3529 0.3804
0.9686 0.3529 0.3804
0.1647 0.4784 0.3843
0.3961 0.4745 0.3804
0.5961 0.4745 0.3804
0.7373 0.4784 0.3843
0.8431 0.4784 0.3843
0.9020 0.4784 0.3843
0.9490 0.4784 0.3804
0.9686 0.4784 0.3804
0.1608 0.5843 0.3804
0.3922 0.5804 0.3804
0.5961 0.5843 0.3804
0.7373 0.5843 0.3804
0.8431 0.5843 0.3882
0.9020 0.5843 0.3843
0.9451 0.5804 0.3804
0.9647 0.5804 0.3804
0.1529 0.6863 0.3804
0.3882 0.6863 0.3843
0.5961 0.6824 0.3804
0.7412 0.6824 0.3843
0.8431 0.6863 0.3804
0.9059 0.6863 0.3804
0.9451 0.6824 0.3843
0.9686 0.6824 0.3804
0.1647 0.7843 0.3843
0.3882 0.7843 0.3843
0.6000 0.7843 0.3804
0.7373 0.7843 0.3843
0.8392 0.7843 0.3804
0.9020 0.7843 0.3843
0.9490 0.7804 0.3804
0.9686 0.7843 0.3843
0.1608 0.8353 0.3843
0.3843 0.8353 0.3843
0.5882 0.8353 0.3804
0.7373 0.8353 0.3843
0.8431 0.8353 0.3843
0.9020 0.8353 0.3843
0.9490 0.8353 0.3843
0.9686 0.8353 0.3882
0.1647 0.0902 0.4902
0.3922 0.0902 0.4941
0.5961 0.0902 0.4902
0.7373 0.0941 0.4941
0.8431 0.0902 0.4902
0.9020 0.0902 0.4902
0.9490 0.0863 0.4902
0.9686 0.0902 0.4902
0.1569 0.2235 0.4863
0.3882 0.2235 0.4863
0.5922 0.2275 0.4863
0.7373 0.2275 0.4863
0.8392 0.2275 0.4902
0.9020 0.2314 0.4941
0.9451 0.2275 0.4863
0.9686 0.2275 0.4863
0.1608 0.3569 0.4902
0.3882 0.3490 0.4863
0.5922 0.3529 0.4824
0.7373 0.3490 0.4902
0.8431 0.3529 0.4863
0.9020 0.3529 0.4902
0.9490 0.3529 0.4863
0.9686 0.3529 0.4902
0.1608 0.4784 0.4902
0.3882 0.4784 0.4902
0.5922 0.4784 0.4863
0.7412 0.4784 0.4902
0.8431 0.4784 0.4902
0.9020 0.4745 0.4863
0.9451 0.4784 0.4863
0.9686 0.4745 0.4863
0.1686 0.5804 0.4902
0.3922 0.5843 0.4902
0.5961 0.5843 0.4863
0.7373 0.5843 0.4902
0.8431 0.5843 0.4863
0.9020 0.5843 0.4863
0.9490 0.5804 0.4902
0.9686 0.5804 0.4863
0.1608 0.6863 0.4863
0.3882 0.6863 0.4902
0.5922 0.6863 0.4863
0.7373 0.6863 0.4902
0.8431 0.6863 0.4902
0.9020 0.6863 0.4902
0.9451 0.6863 0.4863
0.9686 0.6863 0.4863
0.1569 0.7843 0.4902
0.3882 0.7843 0.4902
0.5922 0.7843 0.4863
0.7373 0.7843 0.4902
0.8431 0.7843 0.4902
0.9059 0.7843 0.4902
0.9451 0.7843 0.4941
0.9686 0.7843 0.4902
0.1608 0.8353 0.4902
0.3922 0.8353 0.4941
0.5961 0.8353 0.4902
0.7412 0.8353 0.4941
0.8431 0.8353 0.4902
0.9059 0.8353 0.4902
0.9490 0.8353 0.4863
0.9686 0.8353 0.4863
0.1647 0.0902 0.6118
0.3882 0.0902 0.6078
0.5961 0.0902 0.6039
0.7412 0.0902 0.6118
0.8431 0.0902 0.6078
0.9059 0.0902 0.6118
0.9451 0.0902 0.6039
0.9686 0.0902 0.6078
0.1608 0.2275 0.6078
0.3922 0.2275 0.6078
0.5961 0.2275 0.6078
0.7412 0.2275 0.6078
0.8431 0.2275 0.6039
0.9059 0.2275 0.6118
0.9451 0.2275 0.6039
0.9647 0.2275 0.6078
0.1647 0.3529 0.6039
0.3882 0.3529 0.6078
0.5961 0.3529 0.6039
0.7412 0.3529 0.6078
0.8431 0.3529 0.6078
0.9059 0.3529 0.6078
0.9451 0.3529 0.6039
0.9686 0.3529 0.6039
0.1608 0.4784 0.6039
0.3882 0.4784 0.6118
0.5922 0.4784 0.6039
0.7373 0.4784 0.6078
0.8431 0.4784 0.6039
0.9059 0.4784 0.6078
0.9490 0.4824 0.6078
0.9686 0.4745 0.6039
0.1569 0.5843 0.6078
0.3922 0.5843 0.6078
0.5961 0.5843 0.6039
0.7451 0.5843 0.6078
0.8431 0.5843 0.6078
0.9020 0.5843 0.6078
0.9451 0.5843 0.6039
0.9686 0.5843 0.6078
0.1569 0.6863 0.6039
0.3961 0.6824 0.6078
0.5961 0.6863 0.6078
0.7373 0.6902 0.6118
0.8431 0.6863 0.6039
0.9020 0.6863 0.6039
0.9451 0.6863 0.6039
0.9686 0.6863 0.6078
0.1647 0.7843 0.6039
0.3882 0.7843 0.6078
0.5882 0.7843 0.6078
0.7373 0.7843 0.6118
0.8392 0.7843 0.6078
0.9020 0.7843 0.6118
0.9451 0.7843 0.6078
0.9686 0.7843 0.6118
0.1569 0.8353 0.6078
0.3882 0.8353 0.6078
0.5882 0.8353 0.6000
0.7373 0.8353 0.6039
0.8431 0.8353 0.6078
0.9059 0.8353 0.6039
0.9490 0.8353 0.6039
0.9686 0.8353 0.6078
0.1608 0.0902 0.6275
0.3882 0.0902 0.6275
0.5922 0.0902 0.6275
0.7373 0.0902 0.6275
0.8471 0.0902 0.6275
0.9020 0.0902 0.6275
0.9490 0.0863 0.6275
0.9686 0.0902 0.6275
0.1569 0.2275 0.6314
0.3882 0.2275 0.6314
0.5922 0.2275 0.6235
0.7373 0.2275 0.6275
0.8392 0.2275 0.6275
0.9020 0.2275 0.6235
0.9490 0.2275 0.6275
0.9686 0.2235 0.6235
0.1608 0.3529 0.6314
0.3961 0.3490 0.6275
0.5961 0.3569 0.6275
0.7451 0.3569 0.6314
0.8392 0.3529 0.6275
0.9020 0.3490 0.6275
0.9451 0.3529 0.6275
0.9686 0.3529 0.6275
0.1608 0.4784 0.6275
0.3961 0.4784 0.6275
0.5961 0.4784 0.6235
0.7373 0.4784 0.6235
0.8431 0.4784 0.6275
0.9020 0.4784 0.6275
0.9451 0.4784 0.6275
0.9686 0.4784 0.6275
0.1569 0.5843 0.6275
0.3882 0.5843 0.6275
0.5922 0.5843 0.6275
0.7412 0.5843 0.6275
0.8392 0.5843 0.6235
0.9020 0.5843 0.6275
0.9451 0.5843 0.6275
0.9686 0.5843 0.6275
0.1569 0.6863 0.6275
0.3882 0.6824 0.6275
0.5961 0.6863 0.6275
0.7412 0.6863 0.6275
0.8431 0.6863 0.6275
0.9059 0.6863 0.6275
0.9451 0.6863 0.6275
0.9686 0.6863 0.6275
0.1569 0.7843 0.6275
0.3961 0.7843 0.6314
0.6000 0.7843 0.6275
0.7412 0.7843 0.6275
0.8392 0.7843 0.6275
0.9020 0.7843 0.6235
0.9451 0.7843 0.6235
0.9647 0.7843 0.6275
0.1608 0.8353 0.6275
0.3882 0.8392 0.6314
0.5922 0.8353 0.6275
0.7333 0.8353 0.6275
0.8431 0.8353 0.6275
0.9020 0.8353 0.6275
0.9451 0.8353 0.6275
0.9686 0.8353 0.6275
