examples/graphics/lutFilterExample/bin/data/LUTs/Toaster.cube
TITLE "Toaster"
LUT_3D_SIZE 8
DOMAIN_MIN 0.000000 0.000000 0.000000
DOMAIN_MAX 0.903226 0.903226 0.903226
0.2784 0.1059 0.0000
0.3647 0.1059 0.0039
0.4627 0.1059 0.0039
0.5961 0.1098 0.0078
0.7255 0.1059 0.0039
0.8510 0.1098 0.0078
0.8902 0.1059 0.0078
0.8902 0.1059 0.0000
0.2824 0.1059 0.0000
0.3647 0.1059 0.0000
0.4667 0.1059 0.0000
0.5922 0.1059 0.0000
0.7255 0.1059 0.0000
0.8471 0.1059 0.0000
0.8902 0.1059 0.0000
0.8941 0.1059 0.0039
0.2784 0.2902 0.0000
0.3647 0.2902 0.0000
0.4667 0.2902 0.0000
0.5922 0.2902 0.0000
0.7216 0.2902 0.0000
0.8392 0.2941 0.0000
0.8902 0.2902 0.0000
0.8863 0.2902 0.0000
0.2824 0.4431 0.0000
0.3608 0.4431 0.0000
0.4627 0.4471 0.0000
0.5961 0.4431 0.0000
0.7255 0.4471 0.0039
0.8431 0.4431 0.0000
0.8902 0.4431 0.0000
0.8902 0.4431 0.0000
0.2784 0.5529 0.0000
0.3608 0.5490 0.0000
0.4667 0.5529 0.0000
0.5922 0.5490 0.0000
0.7216 0.5529 0.0039
0.8431 0.5529 0.0039
0.8902 0.5529 0.0000
0.8902 0.5529 0.0039
0.2784 0.6667 0.0000
0.3647 0.6667 0.0039
0.4667 0.6667 0.0000
0.5922 0.6667 0.0000
0.7216 0.6667 0.0000
0.8431 0.6706 0.0039
0.8941 0.6706 0.0039
0.8902 0.6667 0.0000
0.2784 0.7961 0.0000
0.3608 0.7961 0.0000
0.4667 0.8000 0.0039
0.5961 0.8000 0.0078
0.7216 0.7961 0.0039
0.8431 0.8000 0.0039
0.8902 0.8000 0.0000
0.8902 0.7961 0.0039
0.2784 0.8706 0.0000
0.3608 0.8706 0.0000
0.4667 0.8706 0.0000
0.5961 0.8706 0.0039
0.7216 0.8667 0.0039
0.8431 0.8706 0.0039
0.8902 0.8706 0.0000
0.8902 0.8706 0.0000
0.2824 0.1098 0.1255
0.3647 0.1059 0.1255
0.4667 0.1059 0.1255
0.5961 0.1098 0.1333
0.7216 0.1059 0.1255
0.8431 0.1059 0.1255
0.8902 0.1059 0.1255
0.8902 0.1059 0.1255
0.2784 0.1059 0.1176
0.3608 0.1020 0.1176
0.4667 0.1020 0.1255
0.5922 0.1059 0.1255
0.7216 0.1059 0.1294
0.8431 0.1059 0.1333
0.8941 0.1059 0.1255
0.8941 0.1059 0.1255
0.2824 0.2902 0.1255
0.3647 0.2863 0.1255
0.4667 0.2941 0.1216
0.5961 0.2902 0.1216
0.7216 0.2941 0.1216
0.8431 0.2941 0.1255
0.8863 0.2863 0.1216
0.8863 0.2902 0.1216
0.2824 0.4431 0.1255
0.3647 0.4431 0.1255
0.4706 0.4431 0.1255
0.5961 0.4471 0.1294
0.7216 0.4431 0.1216
0.8431 0.4431 0.1255
0.8902 0.4471 0.1255
0.8863 0.4431 0.1216
0.2824 0.5529 0.1294
0.3647 0.5529 0.1255
0.4667 0.5529 0.1255
0.5961 0.5529 0.1255
0.7216 0.5529 0.1216
0.8431 0.5569 0.1255
0.8902 0.5529 0.1216
0.8902 0.5490 0.1216
0.2784 0.6667 0.1216
0.3608 0.6667 0.1216
0.4667 0.6667 0.1216
0.5922 0.6667 0.1216
0.7216 0.6667 0.1255
0.8431 0.6667 0.1216
0.8902 0.6667 0.1216
0.8902 0.6667 0.1216
0.2784 0.7961 0.1255
0.3608 0.7922 0.1255
0.4667 0.7961 0.1294
0.5961 0.7961 0.1333
0.7255 0.7961 0.1255
0.8431 0.7961 0.1255
0.8902 0.7961 0.1294
0.8902 0.7961 0.1294
0.2824 0.8706 0.1294
0.3647 0.8667 0.1294
0.4667 0.8706 0.1216
0.5961 0.8706 0.1255
0.7216 0.8706 0.1216
0.8431 0.8706 0.1216
0.8902 0.8706 0.1176
0.8902 0.8706 0.1176
0.2824 0.1059 0.2431
0.3686 0.1059 0.2510
0.4706 0.1059 0.2471
0.5922 0.1059 0.2510
0.7216 0.1059 0.2510
0.8431 0.1059 0.2510
0.8902 0.1059 0.2510
0.8902 0.1020 0.2471
0.2784 0.1059 0.2471
0.3608 0.1059 0.2471
0.4667 0.1059 0.2510
0.5961 0.1059 0.2510
0.7216 0.1059 0.2431
0.8431 0.1059 0.2471
0.8941 0.1098 0.2431
0.8902 0.1059 0.2431
0.2824 0.2941 0.2471
0.3647 0.2902 0.2471
0.4667 0.2863 0.2431
0.5922 0.2902 0.2471
0.7216 0.2902 0.2471
0.8431 0.2902 0.2471
0.8863 0.2902 0.2431
0.8863 0.2902 0.2431
0.2824 0.4471 0.2471
0.3608 0.4392 0.2471
0.4667 0.4431 0.2431
0.5961 0.4392 0.2471
0.7216 0.4431 0.2471
0.8431 0.4431 0.2471
0.8902 0.4431 0.2431
0.8902 0.4431 0.2431
0.2824 0.5490 0.2431
0.3608 0.5529 0.2471
0.4706 0.5529 0.2510
0.6000 0.5529 0.2510
0.7255 0.5490 0.2471
0.8431 0.5529 0.2431
0.8902 0.5529 0.2471
0.8902 0.5529 0.2471
0.2824 0.6706 0.2471
0.3608 0.6667 0.2471
0.4627 0.6667 0.2431
0.5961 0.6667 0.2471
0.7176 0.6667 0.2431
0.8431 0.6667 0.2510
0.8902 0.6706 0.2471
0.8902 0.6667 0.2471
0.2784 0.7961 0.2510
0.3608 0.7961 0.2510
0.4627 0.7961 0.2510
0.5961 0.7961 0.2510
0.7255 0.8000 0.2431
0.8431 0.7961 0.2471
0.8902 0.8000 0.2471
0.8902 0.8000 0.2510
0.2824 0.8706 0.2431
0.3647 0.8667 0.2431
0.4627 0.8706 0.2431
0.5922 0.8706 0.2471
0.7216 0.8706 0.2471
0.8392 0.8706 0.2471
0.8902 0.8706 0.2431
0.8902 0.8706 0.2431
0.2784 0.1059 0.3765
0.3647 0.1020 0.3725
0.4627 0.1059 0.3686
0.5922 0.1059 0.3765
0.7216 0.1059 0.3725
0.8471 0.1059 0.3765
0.8902 0.1059 0.3686
0.8902 0.1059 0.3725
0.2824 0.1059 0.3686
0.3608 0.1059 0.3686
0.4627 0.1020 0.3686
0.5922 0.1059 0.3725
0.7216 0.1059 0.3725
0.8431 0.1059 0.3725
0.8902 0.1059 0.3725
0.8902 0.1059 0.3765
0.2784 0.2902 0.3725
0.3608 0.2902 0.3725
0.4706 0.2941 0.3686
0.5961 0.2902 0.3725
0.7216 0.2863 0.3686
0.8392 0.2902 0.3686
0.8902 0.2941 0.3686
0.8902 0.2902 0.3686
0.2784 0.4431 0.3686
0.3647 0.4431 0.3725
0.4667 0.4431 0.3686
0.5961 0.4392 0.3686
0.7216 0.4431 0.3725
0.8431 0.4431 0.3725
0.8902 0.4471 0.3725
0.8863 0.4392 0.3686
0.2784 0.5529 0.3725
0.3608 0.5529 0.3686
0.4667 0.5529 0.3686
0.5922 0.5490 0.3725
0.7216 0.5529 0.3647
0.8471 0.5529 0.3725
0.8902 0.5529 0.3725
0.8863 0.5490 0.3686
0.2784 0.6667 0.3686
0.3647 0.6667 0.3725
0.4667 0.6667 0.3686
0.5922 0.6667 0.3725
0.7216 0.6627 0.3686
0.8431 0.6667 0.3725
0.8902 0.6667 0.3725
0.8902 0.6667 0.3686
0.2824 0.7961 0.3765
0.3647 0.7961 0.3765
0.4667 0.8000 0.3765
0.5961 0.8000 0.3765
0.7216 0.8000 0.3804
0.8471 0.8000 0.3804
0.8902 0.7961 0.3725
0.8902 0.7961 0.3725
0.2784 0.8706 0.3686
0.3608 0.8667 0.3725
0.4667 0.8706 0.3686
0.5922 0.8706 0.3686
0.7216 0.8706 0.3725
0.8431 0.8706 0.3725
0.8902 0.8706 0.3647
0.8902 0.8706 0.3647
0.2784 0.1059 0.4941
0.3647 0.1059 0.4980
0.4667 0.1059 0.4941
0.5961 0.1059 0.4980
0.7216 0.1059 0.4941
0.8431 0.1059 0.4980
0.8902 0.1059 0.4980
0.8902 0.1059 0.4941
0.2784 0.1059 0.4902
0.3647 0.1059 0.4941
0.4667 0.1059 0.4980
0.5922 0.1020 0.4941
0.7216 0.1059 0.4902
0.8471 0.1098 0.4902
0.8902 0.1059 0.4863
0.8902 0.1059 0.4902
0.2784 0.2902 0.4941
0.3647 0.2902 0.4941
0.4627 0.2902 0.4902
0.5922 0.2902 0.4941
0.7216 0.2863 0.4941
0.8471 0.2902 0.4941
0.8863 0.2902 0.4941
0.8863 0.2863 0.4902
0.2824 0.4431 0.4941
0.3647 0.4392 0.4941
0.4627 0.4392 0.4902
0.5922 0.4431 0.4941
0.7255 0.4392 0.4941
0.8471 0.4431 0.4941
0.8863 0.4431 0.4902
0.8902 0.4431 0.4941
0.2824 0.5569 0.4941
0.3608 0.5490 0.4902
0.4706 0.5529 0.4902
0.5961 0.5490 0.4941
0.7216 0.5529 0.4941
0.8431 0.5529 0.4941
0.8902 0.5529 0.4941
0.8902 0.5490 0.4941
0.2784 0.6667 0.4902
0.3608 0.6667 0.4902
0.4667 0.6706 0.4902
0.5961 0.6667 0.4941
0.7216 0.6667 0.4941
0.8431 0.6667 0.4941
0.8902 0.6667 0.4902
0.8902 0.6667 0.4902
0.2824 0.8000 0.5020
0.3647 0.7961 0.4980
0.4706 0.8000 0.4980
0.5961 0.8000 0.5020
0.7216 0.7961 0.4941
0.8431 0.7961 0.4980
0.8902 0.8000 0.4941
0.8863 0.7961 0.4941
0.2824 0.8706 0.4902
0.3647 0.8706 0.4941
0.4667 0.8706 0.4941
0.5922 0.8706 0.4941
0.7216 0.8667 0.4941
0.8471 0.8706 0.4941
0.8902 0.8706 0.4902
0.8941 0.8706 0.4941
0.2784 0.1059 0.6235
0.3647 0.1059 0.6235
0.4706 0.1059 0.6196
0.5922 0.1059 0.6235
0.7255 0.1059 0.6196
0.8431 0.1098 0.6196
0.8902 0.1059 0.6196
0.8902 0.1059 0.6196
0.2784 0.1059 0.6157
0.3608 0.1020 0.6157
0.4706 0.1059 0.6235
0.5922 0.1020 0.6196
0.7216 0.1059 0.6235
0.8431 0.1059 0.6235
0.8902 0.1059 0.6157
0.8902 0.1059 0.6196
0.2824 0.2941 0.6196
0.3608 0.2863 0.6157
0.4667 0.2902 0.6118
0.5961 0.2863 0.6196
0.7216 0.2902 0.6157
0.8431 0.2902 0.6196
0.8863 0.2902 0.6118
0.8863 0.2902 0.6157
0.2784 0.4392 0.6196
0.3647 0.4431 0.6196
0.4706 0.4431 0.6196
0.5961 0.4431 0.6196
0.7216 0.4392 0.6157
0.8431 0.4431 0.6196
0.8902 0.4431 0.6157
0.8902 0.4431 0.6157
0.2784 0.5529 0.6196
0.3647 0.5529 0.6196
0.4667 0.5529 0.6196
0.5961 0.5529 0.6196
0.7255 0.5529 0.6157
0.8471 0.5569 0.6196
0.8902 0.5490 0.6157
0.8902 0.5529 0.6196
0.2784 0.6667 0.6157
0.3608 0.6667 0.6196
0.4627 0.6667 0.6157
0.5922 0.6667 0.6157
0.7176 0.6627 0.6157
0.8431 0.6667 0.6157
0.8902 0.6667 0.6157
0.8863 0.6667 0.6157
0.2784 0.8000 0.6196
0.3608 0.7961 0.6196
0.4667 0.7961 0.6235
0.5922 0.7961 0.6235
0.7176 0.7961 0.6196
0.8431 0.7961 0.6196
0.8902 0.7961 0.6235
0.8902 0.7961 0.6235
0.2824 0.8706 0.6157
0.3647 0.8667 0.6196
0.4706 0.8706 0.6157
0.5961 0.8706 0.6196
0.7216 0.8706 0.6157
0.8471 0.8706 0.6157
0.8902 0.8706 0.6118
0.8902 0.8706 0.6118
0.2824 0.1059 0.7373
0.3608 0.1020 0.7373
0.4667 0.1059 0.7333
0.5961 0.1059 0.7412
0.7216 0.1059 0.7373
0.8431 0.1059 0.7373
0.8902 0.1059 0.7373
0.8941 0.1059 0.7373
0.2824 0.1059 0.7333
0.3647 0.1059 0.7333
0.4706 0.1059 0.7412
0.5961 0.1059 0.7412
0.7216 0.1059 0.7373
0.8471 0.1059 0.7412
0.8902 0.1059 0.7333
0.8902 0.1059 0.7373
0.2784 0.2902 0.7333
0.3608 0.2902 0.7373
0.4667 0.2902 0.7333
0.5922 0.2902 0.7373
0.7255 0.2941 0.7373
0.8471 0.2902 0.7412
0.8902 0.2941 0.7333
0.8902 0.2902 0.7373
0.2784 0.4431 0.7373
0.3647 0.4431 0.7373
0.4667 0.4431 0.7373
0.5922 0.4431 0.7373
0.7216 0.4431 0.7333
0.8471 0.4431 0.7373
0.8941 0.4471 0.7333
0.8902 0.4431 0.7373
0.2784 0.5529 0.7373
0.3647 0.5529 0.7373
0.4667 0.5529 0.7373
0.6000 0.5529 0.7412
0.7176 0.5529 0.7333
0.8431 0.5529 0.7373
0.8902 0.5529 0.7333
0.8902 0.5529 0.7373
0.2784 0.6667 0.7333
0.3608 0.6627 0.7373
0.4667 0.6667 0.7373
0.5922 0.6667 0.7373
0.7216 0.6667 0.7333
0.8431 0.6706 0.7373
0.8902 0.6706 0.7333
0.8902 0.6706 0.7373
0.2784 0.7961 0.7373
0.3647 0.7961 0.7412
0.4627 0.7961 0.7373
0.5922 0.7961 0.7412
0.7216 0.8000 0.7373
0.8431 0.8000 0.7412
0.8902 0.7961 0.7412
0.8902 0.7961 0.7412
0.2784 0.8706 0.7412
0.3647 0.8667 0.7412
0.4667 0.8706 0.7333
0.5922 0.8706 0.7333
0.7216 0.8667 0.7333
0.8431 0.8706 0.7333
0.8902 0.8706 0.7333
0.8902 0.8706 0.7333
0.2784 0.1059 0.7647
0.3647 0.1059 0.7647
0.4667 0.1059 0.7647
0.5961 0.1059 0.7686
0.7216 0.1059 0.7647
0.8431 0.1059 0.7647
0.8902 0.1059 0.7647
0.8902 0.1059 0.7647
0.2784 0.1059 0.7686
0.3608 0.1020 0.7647
0.4667 0.1059 0.7647
0.5961 0.1059 0.7686
0.7176 0.1098 0.7647
0.8431 0.1098 0.7647
0.8902 0.1059 0.7647
0.8902 0.1059 0.7647
0.2824 0.2902 0.7647
0.3647 0.2902 0.7647
0.4667 0.2941 0.7647
0.5961 0.2941 0.7686
0.7216 0.2902 0.7647
0.8431 0.2902 0.7647
0.8863 0.2902 0.7647
0.8902 0.2902 0.7647
0.2824 0.4431 0.7647
0.3647 0.4431 0.7647
0.4706 0.4431 0.7647
0.5922 0.4431 0.7647
0.7216 0.4431 0.7647
0.8431 0.4431 0.7647
0.8902 0.4431 0.7647
0.8902 0.4431 0.7647
0.2784 0.5529 0.7647
0.3608 0.5529 0.7647
0.4627 0.5529 0.7647
0.5922 0.5529 0.7647
0.7216 0.5529 0.7647
0.8471 0.5529 0.7647
0.8902 0.5529 0.7647
0.8902 0.5490 0.7608
0.2745 0.6667 0.7647
0.3608 0.6667 0.7647
0.4667 0.6667 0.7647
0.5961 0.6667 0.7647
0.7216 0.6667 0.7647
0.8471 0.6667 0.7647
0.8902 0.6667 0.7647
0.8863 0.6667 0.7608
0.2824 0.7961 0.7686
0.3686 0.7961 0.7686
0.4706 0.7961 0.7686
0.5961 0.7961 0.7647
0.7255 0.7961 0.7686
0.8471 0.7961 0.7647
0.8902 0.8000 0.7686
0.8902 0.7961 0.7647
0.2784 0.8706 0.7686
0.3647 0.8706 0.7686
0.4627 0.8706 0.7647
0.5882 0.8706 0.7647
0.7216 0.8706 0.7686
0.8431 0.8706 0.7647
0.8902 0.8706 0.7647
0.8902 0.8706 0.7647
