examples/graphics/lutFilterExample/bin/data/LUTs/Toaster.cube
TITLE "Toaster"
LUT_3D_SIZE 5
DOMAIN_MIN 0.000000 0.000000 0.000000
DOMAIN_MAX 0.903226 0.903226 0.903226
0.2784 0.1059 0.0000
0.4392 0.1059 0.0039
0.6588 0.1059 0.0039
0.8745 0.1059 0.0039
0.8902 0.1059 0.0000
0.2824 0.2471 0.0039
0.4392 0.2471 0.0000
0.6549 0.2471 0.0000
0.8745 0.2471 0.0000
0.8902 0.2431 0.0000
0.2784 0.4980 0.0039
0.4392 0.4980 0.0039
0.6549 0.4980 0.0039
0.8745 0.4980 0.0039
0.8863 0.4941 0.0000
0.2784 0.6980 0.0000
0.4392 0.6980 0.0039
0.6549 0.6980 0.0000
0.8706 0.6980 0.0000
0.8902 0.6980 0.0000
0.2784 0.8706 0.0000
0.4353 0.8706 0.0039
0.6549 0.8706 0.0000
0.8745 0.8706 0.0000
0.8902 0.8706 0.0000
0.2784 0.1059 0.2157
0.4392 0.1059 0.2157
0.6588 0.1059 0.2196
0.8745 0.1059 0.2196
0.8902 0.1059 0.2196
0.2784 0.2471 0.2157
0.4392 0.2471 0.2157
0.6588 0.2510 0.2157
0.8706 0.2471 0.2157
0.8902 0.2471 0.2157
0.2784 0.4941 0.2157
0.4392 0.4980 0.2235
0.6588 0.4980 0.2196
0.8745 0.4980 0.2196
0.8902 0.4941 0.2157
0.2784 0.6980 0.2157
0.4392 0.6980 0.2157
0.6588 0.6980 0.2118
0.8745 0.6980 0.2118
0.8902 0.6980 0.2157
0.2784 0.8706 0.2157
0.4392 0.8706 0.2196
0.6549 0.8706 0.2157
0.8745 0.8667 0.2157
0.8902 0.8706 0.2118
0.2784 0.1059 0.4353
0.4392 0.1020 0.4353
0.6549 0.1059 0.4314
0.8745 0.1059 0.4314
0.8902 0.1059 0.4314
0.2784 0.2471 0.4314
0.4353 0.2431 0.4314
0.6549 0.2431 0.4275
0.8745 0.2471 0.4275
0.8902 0.2471 0.4275
0.2824 0.4980 0.4353
0.4392 0.4980 0.4353
0.6588 0.4980 0.4353
0.8706 0.5020 0.4353
0.8863 0.4941 0.4314
0.2824 0.6980 0.4314
0.4392 0.6941 0.4353
0.6549 0.6980 0.4275
0.8745 0.6980 0.4314
0.8863 0.6980 0.4275
0.2784 0.8706 0.4275
0.4392 0.8706 0.4353
0.6510 0.8706 0.4275
0.8745 0.8706 0.4275
0.8902 0.8706 0.4275
0.2824 0.1059 0.6510
0.4392 0.1059 0.6510
0.6588 0.1059 0.6510
0.8745 0.1098 0.6471
0.8902 0.1059 0.6471
0.2824 0.2471 0.6471
0.4392 0.2431 0.6510
0.6549 0.2471 0.6471
0.8706 0.2471 0.6431
0.8902 0.2471 0.6431
0.2784 0.4980 0.6510
0.4392 0.4980 0.6510
0.6588 0.5020 0.6510
0.8745 0.4941 0.6510
0.8902 0.4980 0.6471
0.2784 0.6980 0.6431
0.4392 0.6980 0.6471
0.6549 0.6941 0.6431
0.8706 0.6980 0.6431
0.8902 0.6980 0.6471
0.2784 0.8706 0.6510
0.4353 0.8706 0.6510
0.6549 0.8706 0.6431
0.8745 0.8706 0.6431
0.8902 0.8706 0.6431
0.2784 0.1059 0.7647
0.4392 0.1059 0.7647
0.6549 0.1059 0.7647
0.8745 0.1059 0.7686
0.8902 0.1059 0.7647
0.2784 0.2471 0.7647
0.4392 0.2471 0.7647
0.6549 0.2471 0.7647
0.8745 0.2471 0.7647
0.8902 0.2471 0.7647
0.2784 0.4980 0.7647
0.4353 0.4941 0.7647
0.6588 0.4941 0.7647
0.8706 0.4980 0.7647
0.8902 0.4980 0.7647
0.2784 0.6980 0.7647
0.4392 0.6980 0.7647
0.6588 0.6980 0.7647
0.8745 0.6980 0.7647
0.8863 0.6980 0.7647
0.2784 0.8706 0.7686
0.4392 0.8706 0.7686
0.6510 0.8745 0.7647
0.8706 0.8706 0.7647
0.8902 0.8706 0.7647
