examples/graphics/lutFilterExample/bin/data/LUTs/Toaster.cube
TITLE "Toaster"
LUT_3D_SIZE 32
0.2784 0.1059 0.0000
0.2980 0.1059 0.0000
0.3176 0.1059 0.0000
0.3412 0.1059 0.0000
0.3647 0.1059 0.0039
0.3843 0.1059 0.0039
0.4078 0.1059 0.0000
0.4392 0.1059 0.0039
0.4627 0.1059 0.0039
0.4941 0.1059 0.0039
0.5216 0.1059 0.0039
0.5569 0.1059 0.0039
0.5961 0.1098 0.0078
0.6275 0.1059 0.0039
0.6588 0.1059 0.0039
0.6902 0.1059 0.0078
0.7255 0.1059 0.0039
0.7490 0.1059 0.0039
0.7843 0.1059 0.0039
0.8118 0.1059 0.0039
0.8510 0.1098 0.0078
0.8745 0.1059 0.0039
0.8902 0.1059 0.0039
0.8941 0.1059 0.0039
0.8902 0.1059 0.0078
0.8902 0.1059 0.0078
0.8902 0.1059 0.0039
0.8902 0.1059 0.0039
0.8902 0.1059 0.0000
0.8902 0.1059 0.0000
0.8902 0.1059 0.0039
0.8902 0.1059 0.0039
0.2824 0.1059 0.0039
0.2980 0.1059 0.0039
0.3176 0.1059 0.0039
0.3412 0.1059 0.0039
0.3647 0.1059 0.0078
0.3804 0.1059 0.0039
0.4078 0.1059 0.0039
0.4392 0.1059 0.0039
0.4627 0.1059 0.0000
0.4941 0.1059 0.0000
0.5216 0.1059 0.0000
0.5529 0.1059 0.0000
0.5922 0.1059 0.0000
0.6235 0.1020 0.0000
0.6549 0.1059 0.0000
0.6902 0.1059 0.0000
0.7216 0.1059 0.0039
0.7451 0.1098 0.0000
0.7765 0.1059 0.0000
0.8078 0.1059 0.0000
0.8431 0.1059 0.0000
0.8706 0.1059 0.0000
0.8863 0.1098 0.0000
0.8863 0.1059 0.0039
0.8902 0.1059 0.0000
0.8902 0.1059 0.0000
0.8902 0.1059 0.0000
0.8902 0.1059 0.0000
0.8902 0.1059 0.0000
0.8902 0.1059 0.0000
0.8902 0.1059 0.0000
0.8902 0.1059 0.0000
0.2784 0.1059 0.0000
0.2980 0.1059 0.0000
0.3176 0.1059 0.0000
0.3412 0.1098 0.0000
0.3647 0.1059 0.0000
0.3804 0.1059 0.0000
0.4039 0.1059 0.0000
0.4353 0.1059 0.0000
0.4627 0.1059 0.0000
0.4941 0.1059 0.0039
0.5255 0.1059 0.0039
0.5529 0.1059 0.0039
0.5922 0.1059 0.0039
0.6235 0.1059 0.0039
0.6549 0.1059 0.0000
0.6863 0.1059 0.0039
0.7255 0.1020 0.0000
0.7490 0.1059 0.0000
0.7804 0.1059 0.0000
0.8118 0.1059 0.0000
0.8510 0.1059 0.0039
0.8745 0.1059 0.0000
0.8902 0.1059 0.0000
0.8941 0.1059 0.0000
0.8902 0.1059 0.0039
0.8902 0.1059 0.0039
0.8902 0.1059 0.0039
0.8902 0.1059 0.0039
0.8902 0.1059 0.0039
0.8902 0.1059 0.0039
0.8902 0.1059 0.0039
0.8902 0.1059 0.0039
0.2824 0.1059 0.0039
0.2980 0.1020 0.0039
0.3176 0.1059 0.0039
0.3412 0.1098 0.0078
0.3647 0.1059 0.0078
0.3843 0.1059 0.0039
0.4078 0.1059 0.0039
0.4392 0.1059 0.0039
0.4667 0.1059 0.0000
0.4980 0.1098 0.0000
0.5255 0.1098 0.0000
0.5569 0.1098 0.0000
0.5961 0.1098 0.0000
0.6275 0.1098 0.0000
0.6588 0.1059 0.0000
0.6863 0.1059 0.0000
0.7216 0.1059 0.0039
0.7490 0.1098 0.0039
0.7765 0.1059 0.0000
0.8118 0.1059 0.0039
0.8471 0.1059 0.0039
0.8745 0.1059 0.0039
0.8902 0.1098 0.0039
0.8902 0.1059 0.0039
0.8902 0.1059 0.0000
0.8902 0.1059 0.0000
0.8902 0.1059 0.0000
0.8902 0.1059 0.0000
0.8902 0.1059 0.0000
0.8902 0.1059 0.0000
0.8902 0.1059 0.0000
0.8902 0.1059 0.0000
0.2824 0.1059 0.0000
0.2980 0.1020 0.0000
0.3176 0.1059 0.0000
0.3412 0.1098 0.0039
0.3647 0.1059 0.0000
0.3843 0.1059 0.0000
0.4118 0.1098 0.0000
0.4392 0.1059 0.0039
0.4667 0.1059 0.0000
0.4980 0.1059 0.0039
0.5255 0.1059 0.0000
0.5529 0.1059 0.0000
0.5922 0.1059 0.0000
0.6275 0.1059 0.0039
0.6549 0.1059 0.0000
0.6863 0.1059 0.0039
0.7255 0.1059 0.0000
0.7490 0.1098 0.0000
0.7804 0.1059 0.0000
0.8118 0.1059 0.0000
0.8471 0.1059 0.0000
0.8745 0.1059 0.0000
0.8863 0.1059 0.0000
0.8902 0.1059 0.0000
0.8902 0.1059 0.0000
0.8902 0.1059 0.0000
0.8941 0.1059 0.0039
0.8941 0.1059 0.0039
0.8941 0.1059 0.0039
0.8941 0.1059 0.0039
0.8902 0.1059 0.0039
0.8902 0.1059 0.0039
0.2784 0.1529 0.0039
0.2941 0.1490 0.0000
0.3176 0.1529 0.0039
0.3412 0.1569 0.0039
0.3647 0.1529 0.0039
0.3804 0.1569 0.0000
0.4078 0.1569 0.0039
0.4392 0.1569 0.0039
0.4627 0.1529 0.0039
0.4941 0.1569 0.0039
0.5255 0.1569 0.0039
0.5529 0.1569 0.0000
0.5922 0.1529 0.0039
0.6235 0.1529 0.0000
0.6549 0.1529 0.0000
0.6863 0.1529 0.0039
0.7216 0.1451 0.0039
0.7490 0.1529 0.0039
0.7804 0.1490 0.0039
0.8118 0.1529 0.0078
0.8471 0.1529 0.0078
0.8745 0.1529 0.0039
0.8902 0.1529 0.0039
0.8902 0.1529 0.0078
0.8902 0.1529 0.0000
0.8902 0.1529 0.0000
0.8902 0.1569 0.0039
0.8902 0.1529 0.0039
0.8902 0.1529 0.0039
0.8902 0.1569 0.0039
0.8902 0.1529 0.0039
0.8902 0.1529 0.0039
0.2824 0.1961 0.0039
0.2980 0.1922 0.0000
0.3176 0.1961 0.0000
0.3412 0.2000 0.0039
0.3647 0.1961 0.0000
0.3843 0.1961 0.0000
0.4118 0.2000 0.0000
0.4392 0.1961 0.0000
0.4667 0.1961 0.0000
0.4980 0.1961 0.0039
0.5294 0.2000 0.0039
0.5608 0.2000 0.0000
0.5961 0.1961 0.0039
0.6235 0.1961 0.0000
0.6549 0.1961 0.0000
0.6863 0.1961 0.0000
0.7255 0.2000 0.0000
0.7490 0.2000 0.0000
0.7765 0.1961 0.0000
0.8118 0.1961 0.0000
0.8431 0.1961 0.0000
0.8706 0.1961 0.0000
0.8863 0.1961 0.0000
0.8902 0.1961 0.0000
0.8941 0.1961 0.0000
0.8902 0.1961 0.0000
0.8941 0.1961 0.0039
0.8902 0.1961 0.0039
0.8902 0.1961 0.0000
0.8941 0.1961 0.0039
0.8902 0.1961 0.0000
0.8941 0.1961 0.0000
0.2824 0.2471 0.0039
0.2980 0.2431 0.0000
0.3176 0.2471 0.0000
0.3412 0.2510 0.0039
0.3647 0.2471 0.0000
0.3804 0.2471 0.0000
0.4078 0.2510 0.0000
0.4392 0.2471 0.0000
0.4706 0.2510 0.0039
0.4980 0.2471 0.0039
0.5255 0.2471 0.0000
0.5569 0.2471 0.0000
0.5922 0.2471 0.0039
0.6235 0.2471 0.0000
0.6549 0.2471 0.0000
0.6863 0.2471 0.0000
0.7216 0.2431 0.0000
0.7490 0.2471 0.0039
0.7765 0.2431 0.0000
0.8118 0.2471 0.0039
0.8471 0.2471 0.0039
0.8745 0.2471 0.0000
0.8902 0.2471 0.0000
0.8902 0.2471 0.0039
0.8902 0.2471 0.0039
0.8902 0.2471 0.0000
0.8902 0.2471 0.0039
0.8902 0.2431 0.0039
0.8902 0.2431 0.0000
0.8902 0.2471 0.0039
0.8902 0.2471 0.0000
0.8902 0.2471 0.0000
0.2784 0.2902 0.0000
0.2980 0.2863 0.0000
0.3176 0.2902 0.0000
0.3412 0.2941 0.0039
0.3647 0.2902 0.0000
0.3843 0.2902 0.0000
0.4078 0.2902 0.0000
0.4353 0.2863 0.0000
0.4667 0.2902 0.0000
0.4941 0.2863 0.0000
0.5255 0.2902 0.0000
0.5608 0.2980 0.0039
0.5922 0.2902 0.0000
0.6196 0.2902 0.0000
0.6549 0.2941 0.0000
0.6902 0.2980 0.0039
0.7216 0.2902 0.0000
0.7490 0.2941 0.0000
0.7804 0.2941 0.0000
0.8078 0.2941 0.0000
0.8392 0.2941 0.0000
0.8745 0.2941 0.0000
0.8902 0.2941 0.0000
0.8902 0.2902 0.0000
0.8902 0.2902 0.0000
0.8902 0.2941 0.0039
0.8902 0.2902 0.0000
0.8863 0.2902 0.0000
0.8863 0.2902 0.0000
0.8902 0.2902 0.0000
0.8863 0.2902 0.0000
0.8902 0.2902 0.0000
0.2824 0.3333 0.0000
0.2980 0.3294 0.0000
0.3216 0.3333 0.0039
0.3412 0.3333 0.0039
0.3647 0.3294 0.0000
0.3843 0.3333 0.0000
0.4078 0.3333 0.0000
0.4431 0.3333 0.0039
0.4667 0.3294 0.0000
0.4902 0.3255 0.0000
0.5255 0.3333 0.0000
0.5569 0.3333 0.0000
0.5922 0.3333 0.0000
0.6235 0.3294 0.0000
0.6549 0.3333 0.0000
0.6863 0.3333 0.0000
0.7255 0.3333 0.0039
0.7490 0.3333 0.0000
0.7804 0.3333 0.0000
0.8118 0.3373 0.0039
0.8431 0.3373 0.0039
0.8745 0.3333 0.0000
0.8941 0.3333 0.0000
0.8941 0.3333 0.0000
0.8902 0.3294 0.0000
0.8941 0.3333 0.0039
0.8902 0.3333 0.0000
0.8941 0.3333 0.0000
0.8941 0.3333 0.0000
0.8941 0.3333 0.0039
0.8902 0.3333 0.0000
0.8941 0.3333 0.0000
0.2784 0.3686 0.0000
0.2980 0.3686 0.0000
0.3176 0.3686 0.0000
0.3412 0.3725 0.0000
0.3647 0.3686 0.0000
0.3843 0.3725 0.0039
0.4078 0.3686 0.0000
0.4392 0.3686 0.0039
0.4667 0.3686 0.0000
0.4902 0.3647 0.0000
0.5255 0.3725 0.0039
0.5529 0.3686 0.0000
0.5961 0.3725 0.0039
0.6235 0.3686 0.0000
0.6588 0.3725 0.0039
0.6824 0.3686 0.0000
0.7216 0.3686 0.0000
0.7451 0.3686 0.0000
0.7804 0.3725 0.0000
0.8118 0.3765 0.0039
0.8431 0.3765 0.0039
0.8745 0.3725 0.0000
0.8902 0.3686 0.0000
0.8902 0.3686 0.0000
0.8902 0.3686 0.0000
0.8902 0.3686 0.0000
0.8902 0.3686 0.0000
0.8902 0.3686 0.0000
0.8902 0.3686 0.0000
0.8941 0.3686 0.0039
0.8902 0.3686 0.0000
0.8902 0.3686 0.0039
0.2784 0.4039 0.0000
0.2980 0.4039 0.0000
0.3176 0.4039 0.0000
0.3412 0.4078 0.0039
0.3647 0.4039 0.0039
0.3843 0.4078 0.0039
0.4078 0.4039 0.0000
0.4392 0.4039 0.0039
0.4627 0.4039 0.0000
0.4902 0.4039 0.0000
0.5255 0.4078 0.0039
0.5529 0.4039 0.0000
0.5961 0.4039 0.0039
0.6235 0.4000 0.0000
0.6588 0.4078 0.0000
0.6863 0.4039 0.0039
0.7216 0.4039 0.0039
0.7451 0.4039 0.0000
0.7765 0.4039 0.0000
0.8078 0.4039 0.0000
0.8392 0.4039 0.0000
0.8706 0.4039 0.0000
0.8902 0.4039 0.0000
0.8902 0.4039 0.0039
0.8902 0.4039 0.0000
0.8902 0.4078 0.0000
0.8902 0.4039 0.0000
0.8902 0.4039 0.0000
0.8863 0.4039 0.0000
0.8902 0.4039 0.0000
0.8902 0.4039 0.0039
0.8902 0.4039 0.0039
0.2824 0.4431 0.0000
0.3020 0.4471 0.0039
0.3176 0.4471 0.0000
0.3412 0.4431 0.0000
0.3608 0.4431 0.0000
0.3804 0.4431 0.0000
0.4078 0.4431 0.0000
0.4431 0.4431 0.0039
0.4627 0.4471 0.0000
0.4902 0.4431 0.0000
0.5216 0.4431 0.0000
0.5569 0.4471 0.0000
0.5961 0.4431 0.0000
0.6275 0.4431 0.0000
0.6549 0.4431 0.0000
0.6863 0.4431 0.0000
0.7255 0.4471 0.0039
0.7490 0.4471 0.0039
0.7804 0.4431 0.0000
0.8078 0.4431 0.0000
0.8431 0.4431 0.0000
0.8745 0.4431 0.0000
0.8941 0.4471 0.0039
0.8941 0.4471 0.0039
0.8902 0.4431 0.0000
0.8902 0.4471 0.0000
0.8902 0.4471 0.0000
0.8902 0.4471 0.0000
0.8902 0.4431 0.0000
0.8902 0.4471 0.0039
0.8902 0.4431 0.0039
0.8863 0.4431 0.0000
0.2824 0.4706 0.0039
0.3020 0.4745 0.0039
0.3176 0.4706 0.0000
0.3412 0.4706 0.0000
0.3647 0.4706 0.0000
0.3804 0.4706 0.0000
0.4078 0.4706 0.0000
0.4392 0.4706 0.0039
0.4667 0.4745 0.0000
0.4941 0.4745 0.0000
0.5216 0.4706 0.0000
0.5569 0.4745 0.0000
0.5961 0.4706 0.0039
0.6314 0.4706 0.0039
0.6588 0.4706 0.0000
0.6863 0.4706 0.0039
0.7176 0.4667 0.0000
0.7490 0.4706 0.0000
0.7804 0.4706 0.0000
0.8078 0.4706 0.0039
0.8431 0.4706 0.0000
0.8745 0.4706 0.0000
0.8902 0.4706 0.0000
0.8863 0.4667 0.0000
0.8902 0.4706 0.0000
0.8902 0.4706 0.0000
0.8902 0.4706 0.0000
0.8902 0.4706 0.0039
0.8902 0.4706 0.0000
0.8902 0.4745 0.0039
0.8902 0.4706 0.0039
0.8902 0.4706 0.0039
0.2784 0.4980 0.0039
0.3020 0.4980 0.0039
0.3137 0.4941 0.0000
0.3412 0.4980 0.0039
0.3647 0.4980 0.0039
0.3843 0.4980 0.0039
0.4078 0.4980 0.0039
0.4392 0.4980 0.0039
0.4667 0.4980 0.0039
0.4941 0.4980 0.0039
0.5255 0.4980 0.0000
0.5569 0.4980 0.0000
0.5961 0.4980 0.0039
0.6275 0.4980 0.0039
0.6549 0.4980 0.0039
0.6863 0.4980 0.0039
0.7216 0.4980 0.0039
0.7490 0.4980 0.0039
0.7804 0.4980 0.0039
0.8118 0.4980 0.0039
0.8431 0.4980 0.0039
0.8745 0.4980 0.0039
0.8941 0.4980 0.0039
0.8902 0.4980 0.0039
0.8902 0.4980 0.0039
0.8902 0.4980 0.0039
0.8902 0.4980 0.0039
0.8902 0.4980 0.0039
0.8863 0.4941 0.0000
0.8902 0.4980 0.0039
0.8941 0.4980 0.0039
0.8902 0.4980 0.0039
0.2784 0.5255 0.0000
0.2980 0.5294 0.0039
0.3137 0.5255 0.0000
0.3373 0.5255 0.0000
0.3608 0.5255 0.0000
0.3804 0.5255 0.0000
0.4078 0.5294 0.0000
0.4392 0.5294 0.0078
0.4627 0.5255 0.0000
0.4941 0.5255 0.0000
0.5255 0.5294 0.0039
0.5529 0.5216 0.0000
0.5961 0.5255 0.0039
0.6235 0.5216 0.0000
0.6549 0.5255 0.0039
0.6824 0.5255 0.0039
0.7216 0.5294 0.0039
0.7451 0.5255 0.0000
0.7765 0.5255 0.0000
0.8078 0.5255 0.0000
0.8431 0.5255 0.0000
0.8745 0.5255 0.0000
0.8902 0.5255 0.0000
0.8902 0.5294 0.0039
0.8902 0.5255 0.0039
0.8902 0.5255 0.0039
0.8902 0.5255 0.0039
0.8902 0.5294 0.0039
0.8902 0.5255 0.0000
0.8902 0.5294 0.0000
0.8902 0.5255 0.0000
0.8863 0.5255 0.0000
0.2784 0.5529 0.0000
0.2980 0.5529 0.0000
0.3176 0.5529 0.0000
0.3373 0.5529 0.0000
0.3608 0.5490 0.0000
0.3843 0.5529 0.0000
0.4078 0.5529 0.0000
0.4392 0.5529 0.0039
0.4667 0.5529 0.0000
0.4941 0.5529 0.0039
0.5255 0.5529 0.0039
0.5529 0.5490 0.0000
0.5922 0.5490 0.0000
0.6314 0.5529 0.0039
0.6588 0.5529 0.0000
0.6863 0.5529 0.0000
0.7216 0.5529 0.0039
0.7490 0.5529 0.0000
0.7843 0.5529 0.0000
0.8118 0.5529 0.0039
0.8431 0.5529 0.0039
0.8745 0.5529 0.0000
0.8902 0.5529 0.0039
0.8902 0.5529 0.0039
0.8902 0.5529 0.0000
0.8902 0.5529 0.0039
0.8902 0.5529 0.0000
0.8902 0.5529 0.0000
0.8902 0.5529 0.0039
0.8902 0.5529 0.0039
0.8902 0.5529 0.0000
0.8902 0.5529 0.0039
0.2784 0.5804 0.0000
0.2980 0.5804 0.0000
0.3176 0.5804 0.0000
0.3373 0.5804 0.0000
0.3608 0.5765 0.0000
0.3804 0.5804 0.0000
0.4078 0.5804 0.0000
0.4392 0.5804 0.0000
0.4667 0.5804 0.0000
0.4941 0.5804 0.0039
0.5255 0.5804 0.0000
0.5529 0.5804 0.0000
0.5922 0.5804 0.0000
0.6275 0.5804 0.0000
0.6549 0.5804 0.0000
0.6824 0.5804 0.0000
0.7216 0.5843 0.0000
0.7490 0.5804 0.0000
0.7843 0.5804 0.0000
0.8118 0.5804 0.0000
0.8431 0.5804 0.0039
0.8745 0.5804 0.0000
0.8902 0.5804 0.0000
0.8902 0.5804 0.0039
0.8902 0.5804 0.0000
0.8902 0.5804 0.0000
0.8902 0.5804 0.0000
0.8902 0.5804 0.0000
0.8941 0.5843 0.0000
0.8902 0.5804 0.0000
0.8902 0.5804 0.0000
0.8902 0.5804 0.0000
0.2784 0.6039 0.0000
0.2980 0.6039 0.0000
0.3176 0.6039 0.0000
0.3373 0.6039 0.0000
0.3608 0.6000 0.0000
0.3804 0.6039 0.0000
0.4078 0.6039 0.0000
0.4392 0.6039 0.0039
0.4667 0.6039 0.0039
0.4941 0.6039 0.0000
0.5255 0.6039 0.0000
0.5529 0.6039 0.0000
0.5961 0.6039 0.0039
0.6275 0.6039 0.0039
0.6549 0.6039 0.0000
0.6863 0.6078 0.0039
0.7216 0.6039 0.0000
0.7490 0.6039 0.0000
0.7843 0.6039 0.0000
0.8118 0.6039 0.0000
0.8431 0.6039 0.0039
0.8745 0.6039 0.0000
0.8902 0.6039 0.0039
0.8902 0.6039 0.0039
0.8902 0.6039 0.0000
0.8902 0.6039 0.0000
0.8902 0.6039 0.0000
0.8902 0.6039 0.0039
0.8902 0.6039 0.0000
0.8902 0.6039 0.0000
0.8902 0.6039 0.0039
0.8902 0.6039 0.0000
0.2824 0.6314 0.0039
0.2980 0.6314 0.0039
0.3176 0.6314 0.0000
0.3412 0.6314 0.0039
0.3647 0.6314 0.0039
0.3843 0.6314 0.0039
0.4078 0.6314 0.0000
0.4392 0.6314 0.0039
0.4706 0.6314 0.0039
0.4980 0.6314 0.0039
0.5255 0.6314 0.0039
0.5529 0.6314 0.0000
0.5922 0.6314 0.0039
0.6235 0.6314 0.0039
0.6510 0.6314 0.0000
0.6824 0.6314 0.0039
0.7216 0.6314 0.0000
0.7529 0.6314 0.0039
0.7843 0.6314 0.0039
0.8118 0.6314 0.0000
0.8431 0.6314 0.0039
0.8745 0.6314 0.0000
0.8902 0.6314 0.0039
0.8902 0.6314 0.0039
0.8941 0.6314 0.0039
0.8902 0.6314 0.0000
0.8902 0.6314 0.0000
0.8902 0.6314 0.0000
0.8902 0.6275 0.0000
0.8902 0.6314 0.0000
0.8941 0.6314 0.0039
0.8941 0.6314 0.0039
0.2784 0.6667 0.0000
0.2980 0.6667 0.0000
0.3176 0.6667 0.0000
0.3412 0.6706 0.0039
0.3647 0.6667 0.0039
0.3843 0.6667 0.0000
0.4078 0.6667 0.0000
0.4392 0.6667 0.0039
0.4667 0.6667 0.0000
0.4980 0.6667 0.0039
0.5216 0.6667 0.0000
0.5529 0.6667 0.0000
0.5922 0.6667 0.0000
0.6235 0.6706 0.0039
0.6549 0.6706 0.0000
0.6824 0.6706 0.0039
0.7216 0.6667 0.0000
0.7490 0.6667 0.0000
0.7843 0.6706 0.0000
0.8078 0.6667 0.0000
0.8431 0.6706 0.0039
0.8745 0.6706 0.0000
0.8902 0.6706 0.0039
0.8902 0.6667 0.0039
0.8941 0.6706 0.0039
0.8902 0.6667 0.0000
0.8902 0.6667 0.0000
0.8902 0.6667 0.0000
0.8902 0.6667 0.0000
0.8902 0.6667 0.0000
0.8941 0.6706 0.0039
0.8902 0.6706 0.0039
0.2784 0.6980 0.0000
0.2980 0.6980 0.0000
0.3137 0.6980 0.0000
0.3373 0.6980 0.0000
0.3608 0.6941 0.0000
0.3804 0.6980 0.0000
0.4078 0.6980 0.0000
0.4392 0.6980 0.0039
0.4706 0.6980 0.0039
0.4980 0.7020 0.0039
0.5216 0.6980 0.0000
0.5529 0.6980 0.0000
0.5922 0.6980 0.0039
0.6235 0.6980 0.0000
0.6549 0.6980 0.0000
0.6824 0.6980 0.0000
0.7216 0.6980 0.0000
0.7490 0.6980 0.0000
0.7843 0.6980 0.0039
0.8078 0.6980 0.0000
0.8431 0.6980 0.0000
0.8706 0.6980 0.0000
0.8902 0.6980 0.0000
0.8902 0.6980 0.0039
0.8902 0.6980 0.0000
0.8902 0.6980 0.0000
0.8902 0.6980 0.0000
0.8902 0.6980 0.0039
0.8902 0.6980 0.0000
0.8902 0.6980 0.0000
0.8902 0.6980 0.0000
0.8902 0.6980 0.0000
0.2784 0.7294 0.0039
0.2980 0.7294 0.0039
0.3137 0.7294 0.0000
0.3373 0.7294 0.0000
0.3608 0.7255 0.0000
0.3804 0.7294 0.0000
0.4078 0.7294 0.0000
0.4392 0.7294 0.0039
0.4667 0.7294 0.0039
0.4941 0.7294 0.0039
0.5216 0.7294 0.0000
0.5529 0.7294 0.0000
0.5922 0.7294 0.0039
0.6235 0.7294 0.0000
0.6549 0.7294 0.0000
0.6863 0.7294 0.0039
0.7216 0.7294 0.0039
0.7490 0.7294 0.0000
0.7843 0.7294 0.0039
0.8078 0.7294 0.0039
0.8431 0.7333 0.0078
0.8745 0.7294 0.0039
0.8902 0.7294 0.0039
0.8941 0.7294 0.0078
0.8902 0.7294 0.0000
0.8902 0.7294 0.0039
0.8902 0.7294 0.0039
0.8902 0.7294 0.0039
0.8941 0.7294 0.0039
0.8902 0.7294 0.0039
0.8902 0.7294 0.0039
0.8902 0.7294 0.0039
0.2745 0.7608 0.0000
0.2980 0.7608 0.0000
0.3176 0.7647 0.0000
0.3373 0.7647 0.0000
0.3608 0.7608 0.0000
0.3843 0.7647 0.0000
0.4078 0.7608 0.0000
0.4353 0.7608 0.0000
0.4667 0.7608 0.0039
0.4941 0.7608 0.0039
0.5176 0.7608 0.0000
0.5529 0.7647 0.0000
0.5922 0.7647 0.0039
0.6235 0.7608 0.0000
0.6549 0.7608 0.0000
0.6863 0.7608 0.0039
0.7216 0.7608 0.0039
0.7490 0.7608 0.0000
0.7804 0.7647 0.0000
0.8078 0.7647 0.0039
0.8431 0.7647 0.0039
0.8706 0.7608 0.0000
0.8902 0.7608 0.0000
0.8902 0.7608 0.0039
0.8902 0.7608 0.0000
0.8902 0.7647 0.0039
0.8902 0.7608 0.0000
0.8902 0.7608 0.0000
0.8902 0.7647 0.0039
0.8902 0.7647 0.0039
0.8902 0.7608 0.0000
0.8902 0.7647 0.0039
0.2784 0.7961 0.0000
0.2980 0.7961 0.0000
0.3176 0.7961 0.0000
0.3412 0.8000 0.0039
0.3608 0.7961 0.0000
0.3843 0.7961 0.0000
0.4078 0.8000 0.0000
0.4392 0.7961 0.0000
0.4667 0.8000 0.0039
0.4902 0.7961 0.0039
0.5216 0.7961 0.0000
0.5569 0.8000 0.0039
0.5961 0.8000 0.0078
0.6235 0.7961 0.0000
0.6549 0.7961 0.0000
0.6902 0.8000 0.0078
0.7216 0.7961 0.0039
0.7490 0.7961 0.0039
0.7804 0.7961 0.0000
0.8078 0.7961 0.0039
0.8431 0.8000 0.0039
0.8745 0.7961 0.0000
0.8902 0.7961 0.0000
0.8902 0.7961 0.0039
0.8902 0.8000 0.0000
0.8902 0.7961 0.0000
0.8902 0.7961 0.0039
0.8902 0.8000 0.0039
0.8902 0.7961 0.0039
0.8902 0.7961 0.0039
0.8902 0.8000 0.0039
0.8902 0.7961 0.0000
0.2784 0.8392 0.0039
0.2941 0.8353 0.0039
0.3137 0.8392 0.0039
0.3373 0.8392 0.0039
0.3608 0.8353 0.0039
0.3804 0.8392 0.0039
0.4039 0.8392 0.0000
0.4353 0.8353 0.0039
0.4667 0.8353 0.0000
0.4941 0.8353 0.0000
0.5216 0.8353 0.0000
0.5569 0.8392 0.0000
0.5961 0.8392 0.0039
0.6235 0.8353 0.0000
0.6549 0.8353 0.0000
0.6863 0.8353 0.0039
0.7216 0.8353 0.0000
0.7490 0.8353 0.0000
0.7804 0.8353 0.0000
0.8078 0.8353 0.0000
0.8431 0.8353 0.0000
0.8745 0.8353 0.0000
0.8902 0.8353 0.0000
0.8902 0.8353 0.0000
0.8902 0.8353 0.0000
0.8902 0.8353 0.0000
0.8902 0.8353 0.0039
0.8902 0.8353 0.0039
0.8902 0.8353 0.0039
0.8902 0.8353 0.0039
0.8902 0.8353 0.0039
0.8902 0.8353 0.0000
0.2784 0.8667 0.0000
0.2980 0.8667 0.0039
0.3176 0.8667 0.0000
0.3412 0.8706 0.0039
0.3608 0.8667 0.0000
0.3843 0.8667 0.0000
0.4078 0.8706 0.0000
0.4392 0.8667 0.0039
0.4667 0.8706 0.0000
0.4941 0.8706 0.0000
0.5255 0.8706 0.0000
0.5569 0.8706 0.0000
0.5961 0.8706 0.0000
0.6275 0.8706 0.0000
0.6588 0.8706 0.0000
0.6902 0.8706 0.0000
0.7216 0.8706 0.0000
0.7490 0.8706 0.0000
0.7804 0.8667 0.0000
0.8118 0.8706 0.0000
0.8431 0.8706 0.0039
0.8745 0.8706 0.0000
0.8902 0.8706 0.0000
0.8902 0.8706 0.0000
0.8902 0.8706 0.0039
0.8902 0.8706 0.0000
0.8902 0.8706 0.0039
0.8902 0.8706 0.0039
0.8902 0.8706 0.0039
0.8902 0.8706 0.0039
0.8902 0.8706 0.0039
0.8902 0.8706 0.0000
0.2824 0.8706 0.0000
0.3020 0.8706 0.0000
0.3176 0.8706 0.0000
0.3412 0.8745 0.0000
0.3647 0.8706 0.0000
0.3843 0.8706 0.0000
0.4078 0.8706 0.0000
0.4392 0.8706 0.0000
0.4627 0.8706 0.0000
0.4941 0.8706 0.0000
0.5216 0.8706 0.0000
0.5529 0.8706 0.0000
0.5922 0.8706 0.0000
0.6235 0.8745 0.0000
0.6549 0.8706 0.0000
0.6863 0.8706 0.0000
0.7176 0.8706 0.0000
0.7490 0.8706 0.0000
0.7804 0.8706 0.0000
0.8078 0.8706 0.0000
0.8431 0.8745 0.0000
0.8706 0.8706 0.0000
0.8863 0.8706 0.0000
0.8902 0.8706 0.0000
0.8902 0.8706 0.0000
0.8902 0.8706 0.0000
0.8902 0.8706 0.0000
0.8902 0.8706 0.0000
0.8902 0.8706 0.0000
0.8902 0.8706 0.0000
0.8902 0.8706 0.0000
0.8902 0.8706 0.0000
0.2784 0.8706 0.0000
0.2980 0.8706 0.0000
0.3137 0.8706 0.0000
0.3373 0.8706 0.0000
